; generated by PrusaSlicer 2.5.2 on 2023-05-14 at 11:03:38 UTC


;
;
; 

; external perimeters extrusion width = 0.60mm
; perimeters extrusion width = 0.50mm
; infill extrusion width = 0.50mm
; solid infill extrusion width = 0.50mm
; top infill extrusion width = 0.45mm
; support material extrusion width = 0.38mm
; first layer extrusion width = 0.42mm

M73 P0 R52
M73 Q0 S52
M201 X1000 Y1000 Z200 E5000 ; sets maximum accelerations, mm/sec^2
M203 X200 Y200 Z12 E120 ; sets maximum feedrates, mm / sec
M204 P1250 R1250 T1250 ; sets acceleration (P, T) and retract acceleration (R), mm/sec^2
M205 X8.00 Y8.00 Z0.40 E4.50 ; sets the jerk limits, mm/sec
M205 S0 T0 ; sets the minimum extruding and travel feed rate, mm/sec
M107 ; disable fan
;TYPE:Custom
M862.3 P "MK3S" ; printer model check
M862.1 P0.4 ; nozzle diameter check
M115 U3.11.0 ; tell printer latest fw version
G90 ; use absolute coordinates
M83 ; extruder relative mode
M104 S240 ; set extruder temp
M140 S95 ; set bed temp
M190 S95 ; wait for bed temp
M109 S240 ; wait for extruder temp
G28 W ; home all without mesh bed level
G80 ; mesh bed leveling

G1 Z0.2 F720
G1 Y-3 F1000 ; go outside print area
G92 E0
G1 X60 E9 F1000 ; intro line
G1 X100 E12.5 F1000 ; intro line

G92 E0
M221 S95

; Don't change E values below. Excessive value can damage the printer.

M907 E538 ; set extruder motor current
G21 ; set units to millimeters
G90 ; use absolute coordinates
M83 ; use relative distances for extrusion
M900 K0.08 ; Filament gcode LA 1.5
M900 K45 ; Filament gcode LA 1.0
M107 ; disable fan
;LAYER_CHANGE
;Z:0.3
;HEIGHT:0.3
;BEFORE_LAYER_CHANGE
G92 E0.0
;0.3


G1 E-1.4 F2100 ; retract
G1 Z.2 F720 ; lift Z
G1 Z.3 ; move to next layer (0)
;AFTER_LAYER_CHANGE
;0.3
G1 Z.5 ; lift Z
G1 X72.32 Y80.728 F10800 ; move to first skirt point
G1 Z.3 F720 ; restore layer Z
G1 E1.4 F2100 ;  ; unretract
M204 S800 ; adjust acceleration
;TYPE:Skirt/Brim
;WIDTH:0.42
G1 F1200
G1 X73.352 Y79.845 E.06024 ; skirt
G1 X74.123 Y79.651 E.03525 ; skirt
G1 X175.132 Y71.916 E4.49334 ; skirt
G1 X188.154 Y71.909 E.5776 ; skirt
G1 X189.454 Y72.301 E.06024 ; skirt
G1 X190.322 Y73.345 E.06024 ; skirt
G1 X190.509 Y74.265 E.04163 ; skirt
G1 X190.509 Y135.735 E2.7265 ; skirt
G1 X190.118 Y137.036 E.06024 ; skirt
G1 X189.074 Y137.904 E.06024 ; skirt
G1 X188.154 Y138.091 E.04163 ; skirt
G1 X175.132 Y138.084 E.5776 ; skirt
G1 X74.123 Y130.349 E4.49334 ; skirt
G1 X72.856 Y129.859 E.06024 ; skirt
M73 P0 R51
G1 X72.32 Y129.272 E.03525 ; skirt
G1 X61.519 Y112.44 E.8871 ; skirt
G1 X61.146 Y111.168 E.0588 ; skirt
G1 X61.146 Y98.832 E.54712 ; skirt
G1 X61.519 Y97.56 E.0588 ; skirt
G1 X72.288 Y80.778 E.88444 ; skirt
M204 S1000 ; adjust acceleration
; printing object 10L_lower_arm-Body.stl id:0 copy 0
;WIPE_START
G1 F8640
G1 X73.352 Y79.845 E-.32688 ; wipe and retract
G1 X74.123 Y79.651 E-.18351 ; wipe and retract
G1 X77.662 Y79.38 E-.81961 ; wipe and retract
;WIPE_END
G1 E-.07 F2100 ; retract
G1 Z.5 F720 ; lift Z
G1 X188.154 Y84.792 F10800 ; move to first support material point
G1 Z.3 F720 ; restore layer Z
G1 E1.4 F2100 ;  ; unretract
M204 S800 ; adjust acceleration
;TYPE:Support material
G1 F1200
G1 X175.312 Y84.792 E.56962 ; support material
G1 X175.312 Y81.57 E.14289 ; support material
G1 X178.445 Y81.57 E.139 ; support material
G1 X178.779 Y81.236 E.02094 ; support material
G1 X178.779 Y78.764 E.10965 ; support material
G1 X178.445 Y78.43 E.02094 ; support material
G1 X175.312 Y78.43 E.139 ; support material
G1 X175.312 Y74.265 E.18474 ; support material
G1 X188.154 Y74.265 E.56962 ; support material
G1 X188.154 Y84.738 E.46454 ; support material
M204 S1000 ; adjust acceleration
G1 X187.826 Y84.631 F10800 ; move to first support material point
M204 S800 ; adjust acceleration
G1 F1200
G1 X187.826 Y74.585 E.44561 ; support material
G1 X187.431 Y74.585 E.01753 ; support material
G1 X187.431 Y84.471 E.43852 ; support material
G1 X187.036 Y84.471 E.01753 ; support material
G1 X187.036 Y74.585 E.43852 ; support material
G1 X186.641 Y74.585 E.01753 ; support material
G1 X186.641 Y84.471 E.43852 ; support material
G1 X186.245 Y84.471 E.01753 ; support material
M73 Q1 S52
G1 X186.245 Y74.585 E.43852 ; support material
G1 X185.85 Y74.585 E.01753 ; support material
M73 P1 R51
G1 X185.85 Y84.471 E.43852 ; support material
G1 X185.455 Y84.471 E.01753 ; support material
G1 X185.455 Y74.585 E.43852 ; support material
G1 X185.06 Y74.585 E.01753 ; support material
G1 X185.06 Y84.471 E.43852 ; support material
G1 X184.665 Y84.471 E.01753 ; support material
G1 X184.665 Y74.585 E.43852 ; support material
G1 X184.27 Y74.585 E.01753 ; support material
G1 X184.27 Y84.471 E.43852 ; support material
G1 X183.875 Y84.471 E.01753 ; support material
G1 X183.875 Y74.585 E.43852 ; support material
G1 X183.48 Y74.585 E.01753 ; support material
G1 X183.48 Y84.471 E.43852 ; support material
G1 X183.084 Y84.471 E.01753 ; support material
G1 X183.084 Y74.585 E.43852 ; support material
G1 X182.689 Y74.585 E.01753 ; support material
G1 X182.689 Y84.471 E.43852 ; support material
G1 X182.294 Y84.471 E.01753 ; support material
G1 X182.294 Y74.585 E.43852 ; support material
G1 X181.899 Y74.585 E.01753 ; support material
G1 X181.899 Y84.471 E.43852 ; support material
G1 X181.504 Y84.471 E.01753 ; support material
G1 X181.504 Y74.585 E.43852 ; support material
G1 X181.109 Y74.585 E.01753 ; support material
G1 X181.109 Y84.471 E.43852 ; support material
G1 X180.714 Y84.471 E.01753 ; support material
G1 X180.714 Y74.585 E.43852 ; support material
G1 X180.318 Y74.585 E.01753 ; support material
G1 X180.318 Y84.471 E.43852 ; support material
G1 X179.923 Y84.471 E.01753 ; support material
G1 X179.923 Y74.585 E.43852 ; support material
G1 X179.528 Y74.585 E.01753 ; support material
G1 X179.528 Y84.471 E.43852 ; support material
G1 X179.133 Y84.471 E.01753 ; support material
G1 X179.133 Y74.585 E.43852 ; support material
G1 X178.738 Y74.585 E.01753 ; support material
G1 X178.738 Y78.27 E.16345 ; support material
G1 X178.578 Y78.11 E.01004 ; support material
G1 X178.343 Y78.11 E.01043 ; support material
G1 X178.343 Y74.585 E.15635 ; support material
G1 X177.948 Y74.585 E.01753 ; support material
G1 X177.948 Y78.11 E.15635 ; support material
G1 X177.553 Y78.11 E.01753 ; support material
G1 X177.553 Y74.585 E.15635 ; support material
G1 X177.157 Y74.585 E.01753 ; support material
G1 X177.157 Y78.11 E.15635 ; support material
G1 X176.762 Y78.11 E.01753 ; support material
G1 X176.762 Y74.585 E.15635 ; support material
G1 X176.367 Y74.585 E.01753 ; support material
G1 X176.367 Y78.11 E.15635 ; support material
G1 X175.972 Y78.11 E.01753 ; support material
G1 X175.972 Y74.425 E.16345 ; support material
M204 S1000 ; adjust acceleration
;WIPE_START
G1 F8640
G1 X175.972 Y78.11 E-.85089 ; wipe and retract
G1 X176.367 Y78.11 E-.09124 ; wipe and retract
G1 X176.367 Y76.43 E-.38787 ; wipe and retract
;WIPE_END
G1 E-.07 F2100 ; retract
G1 Z.5 F720 ; lift Z
G1 X178.738 Y84.631 F10800 ; move to first support material point
G1 Z.3 F720 ; restore layer Z
G1 E1.4 F2100 ;  ; unretract
M204 S800 ; adjust acceleration
G1 F1200
G1 X178.738 Y81.73 E.12869 ; support material
G1 X178.578 Y81.89 E.01004 ; support material
G1 X178.343 Y81.89 E.01043 ; support material
G1 X178.343 Y84.471 E.1145 ; support material
G1 X177.948 Y84.471 E.01753 ; support material
G1 X177.948 Y81.89 E.1145 ; support material
G1 X177.553 Y81.89 E.01753 ; support material
G1 X177.553 Y84.471 E.1145 ; support material
G1 X177.157 Y84.471 E.01753 ; support material
G1 X177.157 Y81.89 E.1145 ; support material
G1 X176.762 Y81.89 E.01753 ; support material
G1 X176.762 Y84.471 E.1145 ; support material
G1 X176.367 Y84.471 E.01753 ; support material
M73 Q1 S51
G1 X176.367 Y81.89 E.1145 ; support material
G1 X175.972 Y81.89 E.01753 ; support material
G1 X175.972 Y84.631 E.1216 ; support material
M204 S1000 ; adjust acceleration
;WIPE_START
G1 F8640
G1 X175.972 Y81.89 E-.63301 ; wipe and retract
G1 X176.367 Y81.89 E-.09124 ; wipe and retract
G1 X176.367 Y84.471 E-.59605 ; wipe and retract
G1 X176.409 Y84.471 E-.0097 ; wipe and retract
;WIPE_END
G1 E-.07 F2100 ; retract
G1 Z.5 F720 ; lift Z
G1 X188.154 Y135.735 F10800 ; move to first support material point
G1 Z.3 F720 ; restore layer Z
G1 E1.4 F2100 ;  ; unretract
M204 S800 ; adjust acceleration
G1 F1200
G1 X175.312 Y135.735 E.56962 ; support material
G1 X175.312 Y131.57 E.18474 ; support material
G1 X178.445 Y131.57 E.139 ; support material
G1 X178.779 Y131.236 E.02094 ; support material
G1 X178.779 Y128.764 E.10965 ; support material
G1 X178.445 Y128.43 E.02094 ; support material
G1 X175.312 Y128.43 E.139 ; support material
G1 X175.312 Y125.208 E.14289 ; support material
G1 X188.154 Y125.208 E.56962 ; support material
G1 X188.154 Y135.682 E.46454 ; support material
M204 S1000 ; adjust acceleration
G1 X187.826 Y135.575 F10800 ; move to first support material point
M204 S800 ; adjust acceleration
G1 F1200
G1 X187.826 Y125.529 E.44561 ; support material
G1 X187.431 Y125.529 E.01753 ; support material
G1 X187.431 Y135.415 E.43852 ; support material
G1 X187.036 Y135.415 E.01753 ; support material
G1 X187.036 Y125.529 E.43852 ; support material
G1 X186.641 Y125.529 E.01753 ; support material
G1 X186.641 Y135.415 E.43852 ; support material
G1 X186.245 Y135.415 E.01753 ; support material
G1 X186.245 Y125.529 E.43852 ; support material
G1 X185.85 Y125.529 E.01753 ; support material
G1 X185.85 Y135.415 E.43852 ; support material
G1 X185.455 Y135.415 E.01753 ; support material
G1 X185.455 Y125.529 E.43852 ; support material
G1 X185.06 Y125.529 E.01753 ; support material
G1 X185.06 Y135.415 E.43852 ; support material
G1 X184.665 Y135.415 E.01753 ; support material
G1 X184.665 Y125.529 E.43852 ; support material
G1 X184.27 Y125.529 E.01753 ; support material
G1 X184.27 Y135.415 E.43852 ; support material
G1 X183.875 Y135.415 E.01753 ; support material
G1 X183.875 Y125.529 E.43852 ; support material
G1 X183.48 Y125.529 E.01753 ; support material
G1 X183.48 Y135.415 E.43852 ; support material
G1 X183.084 Y135.415 E.01753 ; support material
G1 X183.084 Y125.529 E.43852 ; support material
G1 X182.689 Y125.529 E.01753 ; support material
G1 X182.689 Y135.415 E.43852 ; support material
G1 X182.294 Y135.415 E.01753 ; support material
G1 X182.294 Y125.529 E.43852 ; support material
G1 X181.899 Y125.529 E.01753 ; support material
G1 X181.899 Y135.415 E.43852 ; support material
G1 X181.504 Y135.415 E.01753 ; support material
G1 X181.504 Y125.529 E.43852 ; support material
G1 X181.109 Y125.529 E.01753 ; support material
G1 X181.109 Y135.415 E.43852 ; support material
G1 X180.714 Y135.415 E.01753 ; support material
G1 X180.714 Y125.529 E.43852 ; support material
G1 X180.318 Y125.529 E.01753 ; support material
G1 X180.318 Y135.415 E.43852 ; support material
G1 X179.923 Y135.415 E.01753 ; support material
G1 X179.923 Y125.529 E.43852 ; support material
G1 X179.528 Y125.529 E.01753 ; support material
G1 X179.528 Y135.415 E.43852 ; support material
G1 X179.133 Y135.415 E.01753 ; support material
G1 X179.133 Y125.529 E.43852 ; support material
G1 X178.738 Y125.529 E.01753 ; support material
G1 X178.738 Y128.27 E.1216 ; support material
G1 X178.578 Y128.11 E.01004 ; support material
G1 X178.343 Y128.11 E.01043 ; support material
G1 X178.343 Y125.529 E.1145 ; support material
G1 X177.948 Y125.529 E.01753 ; support material
G1 X177.948 Y128.11 E.1145 ; support material
G1 X177.553 Y128.11 E.01753 ; support material
G1 X177.553 Y125.529 E.1145 ; support material
G1 X177.157 Y125.529 E.01753 ; support material
G1 X177.157 Y128.11 E.1145 ; support material
G1 X176.762 Y128.11 E.01753 ; support material
G1 X176.762 Y125.529 E.1145 ; support material
G1 X176.367 Y125.529 E.01753 ; support material
G1 X176.367 Y128.11 E.1145 ; support material
G1 X175.972 Y128.11 E.01753 ; support material
G1 X175.972 Y125.369 E.1216 ; support material
M204 S1000 ; adjust acceleration
;WIPE_START
G1 F8640
G1 X175.972 Y128.11 E-.633 ; wipe and retract
G1 X176.367 Y128.11 E-.09124 ; wipe and retract
G1 X176.367 Y125.529 E-.59605 ; wipe and retract
G1 X176.409 Y125.529 E-.00971 ; wipe and retract
;WIPE_END
G1 E-.07 F2100 ; retract
G1 Z.5 F720 ; lift Z
G1 X178.738 Y135.575 F10800 ; move to first support material point
G1 Z.3 F720 ; restore layer Z
G1 E1.4 F2100 ;  ; unretract
M204 S800 ; adjust acceleration
G1 F1200
M73 Q2 S51
G1 X178.738 Y131.73 E.17055 ; support material
G1 X178.578 Y131.89 E.01004 ; support material
G1 X178.343 Y131.89 E.01043 ; support material
G1 X178.343 Y135.415 E.15635 ; support material
G1 X177.948 Y135.415 E.01753 ; support material
M73 P2 R51
G1 X177.948 Y131.89 E.15635 ; support material
G1 X177.553 Y131.89 E.01753 ; support material
G1 X177.553 Y135.415 E.15635 ; support material
G1 X177.157 Y135.415 E.01753 ; support material
G1 X177.157 Y131.89 E.15635 ; support material
G1 X176.762 Y131.89 E.01753 ; support material
G1 X176.762 Y135.415 E.15635 ; support material
G1 X176.367 Y135.415 E.01753 ; support material
G1 X176.367 Y131.89 E.15635 ; support material
G1 X175.972 Y131.89 E.01753 ; support material
G1 X175.972 Y135.575 E.16345 ; support material
M204 S1000 ; adjust acceleration
;WIPE_START
G1 F8640
G1 X175.972 Y131.89 E-.85089 ; wipe and retract
G1 X176.367 Y131.89 E-.09124 ; wipe and retract
G1 X176.367 Y133.57 E-.38787 ; wipe and retract
;WIPE_END
G1 E-.07 F2100 ; retract
G1 Z.5 F720 ; lift Z
G1 X177.415 Y130.206 F10800 ; move to first perimeter point
G1 Z.3 F720 ; restore layer Z
G1 E1.4 F2100 ;  ; unretract
M204 S800 ; adjust acceleration
;TYPE:Perimeter
;WIDTH:0.476572
G1 F1200
G1 X151.269 Y130.206 E1.34418 ; perimeter
G1 X150.768 Y130.22 E.02577 ; perimeter
;WIDTH:0.448286
G1 X150.267 Y130.234 E.024 ; perimeter
;WIDTH:0.42
G1 X150.267 Y129.868 E.01624 ; perimeter
;WIDTH:0.448286
G1 X150.281 Y129.55 E.01524 ; perimeter
;WIDTH:0.476572
G1 X150.295 Y129.232 E.01637 ; perimeter
G1 X150.295 Y114.768 E.74362 ; perimeter
G1 X150.175 Y114.554 E.01261 ; perimeter
;WIDTH:0.448286
G1 X150.054 Y114.341 E.01174 ; perimeter
;WIDTH:0.42
G1 X149.734 Y114.234 E.01496 ; perimeter
G1 X109.416 Y114.234 E1.78829 ; perimeter
G1 X109.289 Y114.25 E.00568 ; perimeter
G1 X109.069 Y114.362 E.01095 ; perimeter
G1 X94.02 Y127.234 E.87836 ; perimeter
G1 X74.721 Y127.234 E.856 ; perimeter
G1 X64.903 Y111.933 E.8064 ; perimeter
G1 X71.083 Y111.933 E.27414 ; perimeter
G1 X76.593 Y120.52 E.45255 ; perimeter
G1 X76.763 Y120.687 E.01053 ; perimeter
G1 X77.042 Y120.766 E.01288 ; perimeter
G1 X91.353 Y120.758 E.63475 ; perimeter
G1 X91.608 Y120.638 E.01248 ; perimeter
G1 X102.08 Y111.68 E.61126 ; perimeter
G1 X102.223 Y111.487 E.01062 ; perimeter
G1 X102.267 Y111.274 E.00965 ; perimeter
G1 X102.267 Y98.77 E.55462 ; perimeter
G1 X102.223 Y98.513 E.0116 ; perimeter
G1 X102.08 Y98.32 E.01062 ; perimeter
G1 X91.608 Y89.362 E.61126 ; perimeter
G1 X91.54 Y89.313 E.00371 ; perimeter
G1 X91.261 Y89.234 E.01286 ; perimeter
G1 X77.042 Y89.234 E.63066 ; perimeter
G1 X76.763 Y89.313 E.01288 ; perimeter
G1 X76.593 Y89.48 E.01053 ; perimeter
G1 X71.083 Y98.067 E.45255 ; perimeter
G1 X69.662 Y98.067 E.06304 ; perimeter
G1 X64.903 Y98.067 E.2111 ; perimeter
G1 X74.721 Y82.766 E.8064 ; perimeter
G1 X94.02 Y82.766 E.856 ; perimeter
G1 X108.366 Y95.036 E.83731 ; perimeter
M73 P2 R50
G1 X109.143 Y95.691 E.04506 ; perimeter
G1 X109.416 Y95.766 E.01255 ; perimeter
G1 X149.734 Y95.766 E1.78829 ; perimeter
G1 X150.054 Y95.659 E.01496 ; perimeter
;WIDTH:0.451194
G1 X150.172 Y95.494 E.00977 ; perimeter
;WIDTH:0.482389
G1 X150.29 Y95.33 E.01056 ; perimeter
G1 X150.295 Y95.232 E.00509 ; perimeter
;WIDTH:0.476572
G1 X150.295 Y80.768 E.74362 ; perimeter
G1 X150.281 Y80.267 E.02577 ; perimeter
;WIDTH:0.448286
G1 X150.267 Y79.766 E.024 ; perimeter
;WIDTH:0.42
G1 X150.633 Y79.766 E.01624 ; perimeter
;WIDTH:0.448286
G1 X150.951 Y79.78 E.01524 ; perimeter
;WIDTH:0.476572
G1 X151.269 Y79.794 E.01637 ; perimeter
G1 X177.415 Y79.794 E1.34418 ; perimeter
G1 X177.415 Y80.206 E.02119 ; perimeter
G1 X151.269 Y80.206 E1.34418 ; perimeter
;WIDTH:0.48239
