; generated by PrusaSlicer 2.7.1 on 2023-12-29 at 14:45:41 UTC


;
;
; 

; external perimeters extrusion width = 0.60mm
; perimeters extrusion width = 0.50mm
; infill extrusion width = 0.50mm
; solid infill extrusion width = 0.50mm
; top infill extrusion width = 0.45mm
; first layer extrusion width = 0.42mm

M73 P0 R114
M73 Q0 S116
M201 X1000 Y1000 Z200 E5000 ; sets maximum accelerations, mm/sec^2
M203 X200 Y200 Z12 E120 ; sets maximum feedrates, mm / sec
M204 S1250 T1250 ; sets acceleration (S) and retract acceleration (R), mm/sec^2
M205 X8.00 Y8.00 Z0.40 E4.50 ; sets the jerk limits, mm/sec
M205 S0 T0 ; sets the minimum extruding and travel feed rate, mm/sec

; printing object 1L_foot_bearing3-BodySketch.stl id:0 copy 0
; stop printing object 1L_foot_bearing3-BodySketch.stl id:0 copy 0

;TYPE:Custom
M862.3 P "MK3S" ; printer model check
M862.1 P0.4 ; nozzle diameter check
M115 U3.12.2 ; tell printer latest fw version
G90 ; use absolute coordinates
M83 ; extruder relative mode
M104 S240 ; set extruder temp
M140 S95 ; set bed temp
M190 S95 ; wait for bed temp
M109 S240 ; wait for extruder temp
G28 W ; home all without mesh bed level
G80 ; mesh bed leveling

G1 Z0.2 F720
G1 Y-3 F1000 ; go outside print area
G92 E0
G1 X60 E9 F1000 ; intro line
G1 X100 E12.5 F1000 ; intro line

G92 E0
M221 S95

; Don't change E values below. Excessive value can damage the printer.

M907 E538 ; set extruder motor current
G21 ; set units to millimeters
G90 ; use absolute coordinates
M83 ; use relative distances for extrusion
M900 K0.08 ; Filament gcode LA 1.5
M900 K45 ; Filament gcode LA 1.0
M107 ; disable fan
;LAYER_CHANGE
;Z:0.3
;HEIGHT:0.3
;BEFORE_LAYER_CHANGE
G92 E0.0
;0.3


G1 E-1.4 F2100 ; retract
G1 Z.3 F720 ; move to next layer (0)
;AFTER_LAYER_CHANGE
;0.3
G1 X82.662 Y43.768 F10800 ; move to print after unknown position
G1 Z.3 F720 ; move to print after unknown position
G1 E1.4 F2100 ;  ; unretract
M204 S800 ; adjust acceleration
;TYPE:Skirt/Brim
;WIDTH:0.42
G1 F1200
G1 X83.138 Y43.058 E.03791 ; skirt
G1 X83.84 Y42.259 E.04717 ; skirt
G1 X84.572 Y41.627 E.04289 ; skirt
G1 X85.268 Y41.162 E.03713 ; skirt
G1 X86.132 Y40.727 E.04291 ; skirt
G1 X86.92 Y40.445 E.03712 ; skirt
G1 X87.864 Y40.233 E.04291 ; skirt
G1 X88.697 Y40.151 E.03713 ; skirt
G1 X161.058 Y40.145 E3.20956 ; skirt
G1 X162.491 Y40.298 E.06392 ; skirt
G1 X163.761 Y40.683 E.05886 ; skirt
G1 X164.831 Y41.221 E.05312 ; skirt
G1 X165.982 Y42.089 E.06394 ; skirt
G1 X166.942 Y43.165 E.06396 ; skirt
G1 X167.673 Y44.408 E.06396 ; skirt
G1 X168.12 Y45.657 E.05884 ; skirt
G1 X168.343 Y47.081 E.06393 ; skirt
G1 X168.356 Y162.5 E5.11939 ; skirt
G1 X168.284 Y163.522 E.04544 ; skirt
M73 Q0 S115
G1 X168.12 Y164.343 E.03713 ; skirt
G1 X167.773 Y165.368 E.048 ; skirt
G1 X167.338 Y166.232 E.04291 ; skirt
G1 X166.873 Y166.928 E.03713 ; skirt
G1 X166.242 Y167.66 E.04287 ; skirt
G1 X165.621 Y168.222 E.03715 ; skirt
G1 X164.732 Y168.838 E.04797 ; skirt
G1 X163.868 Y169.273 E.04291 ; skirt
G1 X163.08 Y169.555 E.03712 ; skirt
G1 X162.136 Y169.767 E.04291 ; skirt
G1 X161.303 Y169.849 E.03713 ; skirt
G1 X88.942 Y169.855 E3.20956 ; skirt
G1 X87.978 Y169.784 E.04287 ; skirt
G1 X86.92 Y169.555 E.04801 ; skirt
G1 X86.132 Y169.273 E.03712 ; skirt
G1 X85.268 Y168.838 E.04291 ; skirt
G1 X84.572 Y168.373 E.03713 ; skirt
G1 X83.84 Y167.742 E.04287 ; skirt
G1 X83.278 Y167.121 E.03715 ; skirt
G1 X82.662 Y166.232 E.04797 ; skirt
G1 X82.227 Y165.368 E.04291 ; skirt
G1 X81.945 Y164.58 E.03712 ; skirt
G1 X81.716 Y163.522 E.04801 ; skirt
G1 X81.645 Y162.558 E.04287 ; skirt
G1 X81.644 Y47.5 E5.10338 ; skirt
G1 X81.716 Y46.478 E.04544 ; skirt
G1 X81.88 Y45.657 E.03713 ; skirt
G1 X82.227 Y44.632 E.048 ; skirt
G1 X82.635 Y43.822 E.04023 ; skirt
M204 S1000 ; adjust acceleration
; printing object 1L_foot_bearing3-BodySketch.stl id:0 copy 0
;WIPE_START
G1 F8640
G1 X82.662 Y43.768 E-.01394 ; wipe and retract
G1 X83.138 Y43.058 E-.19737 ; wipe and retract
G1 X83.84 Y42.259 E-.24558 ; wipe and retract
G1 X84.572 Y41.627 E-.2233 ; wipe and retract
G1 X85.268 Y41.162 E-.19328 ; wipe and retract
G1 X86.132 Y40.727 E-.22336 ; wipe and retract
G1 X86.92 Y40.445 E-.19325 ; wipe and retract
G1 X87.384 Y40.341 E-.10992 ; wipe and retract
;WIPE_END
G1 Z.5 F720 ; move to first perimeter point
G1 X86.32 Y44.224 F10800 ; move to first perimeter point
G1 Z.3 F720 ; move to first perimeter point
G1 E1.4 F2100 ;  ; unretract
M204 S800 ; adjust acceleration
;TYPE:Perimeter
;WIDTH:0.42
G1 F1200
G1 X87.007 Y43.771 E.0365 ; perimeter
G1 X87.59 Y43.519 E.02817 ; perimeter
G1 X88.167 Y43.349 E.02668 ; perimeter
G1 X88.799 Y43.271 E.02824 ; perimeter
G1 X161.188 Y43.271 E3.2108 ; perimeter
G1 X161.82 Y43.348 E.02824 ; perimeter
G1 X162.619 Y43.59 E.03703 ; perimeter
G1 X163.351 Y43.981 E.03681 ; perimeter
G1 X163.992 Y44.508 E.03681 ; perimeter
G1 X164.522 Y45.154 E.03706 ; perimeter
G1 X164.823 Y45.685 E.02707 ; perimeter
G1 X165.105 Y46.472 E.03708 ; perimeter
G1 X165.181 Y46.988 E.02313 ; perimeter
G1 X165.229 Y47.627 E.02842 ; perimeter
G1 X165.234 Y161.551 E5.05307 ; perimeter
G1 X165.227 Y162.644 E.04848 ; perimeter
G1 X165.159 Y163.222 E.02581 ; perimeter
G1 X165.008 Y163.824 E.02753 ; perimeter
G1 X164.771 Y164.398 E.02754 ; perimeter
G1 X164.451 Y164.931 E.02757 ; perimeter
G1 X164.057 Y165.411 E.02754 ; perimeter
G1 X163.597 Y165.828 E.02754 ; perimeter
G1 X163.174 Y166.127 E.02298 ; perimeter
G1 X162.711 Y166.359 E.02297 ; perimeter
G1 X162.227 Y166.546 E.02301 ; perimeter
G1 X161.668 Y166.668 E.02538 ; perimeter
G1 X160.984 Y166.734 E.03048 ; perimeter
G1 X88.856 Y166.727 E3.19922 ; perimeter
G1 X88.278 Y166.659 E.02581 ; perimeter
G1 X87.676 Y166.508 E.02753 ; perimeter
G1 X87.102 Y166.271 E.02754 ; perimeter
G1 X86.569 Y165.951 E.02757 ; perimeter
G1 X86.089 Y165.557 E.02754 ; perimeter
G1 X85.672 Y165.097 E.02754 ; perimeter
G1 X85.373 Y164.674 E.02298 ; perimeter
G1 X85.141 Y164.211 E.02297 ; perimeter
G1 X84.954 Y163.727 E.02301 ; perimeter
G1 X84.832 Y163.168 E.02538 ; perimeter
G1 X84.766 Y162.484 E.03048 ; perimeter
G1 X84.766 Y47.623 E5.09463 ; perimeter
G1 X84.786 Y47.092 E.02357 ; perimeter
G1 X84.894 Y46.472 E.02791 ; perimeter
G1 X85.089 Y45.88 E.02765 ; perimeter
G1 X85.369 Y45.324 E.02761 ; perimeter
G1 X85.724 Y44.82 E.02734 ; perimeter
G1 X86.277 Y44.267 E.03469 ; perimeter
M204 S1000 ; adjust acceleration
G1 X86.09 Y43.951 F10800 ; move to first perimeter point
M204 S800 ; adjust acceleration
;TYPE:External perimeter
G1 F1200
G1 X86.839 Y43.457 E.0398 ; perimeter
G1 X87.463 Y43.187 E.03016 ; perimeter
G1 X88.102 Y42.999 E.02954 ; perimeter
G1 X88.777 Y42.916 E.03016 ; perimeter
G1 X161.209 Y42.916 E3.2127 ; perimeter
G1 X161.894 Y42.999 E.03061 ; perimeter
G1 X162.756 Y43.26 E.03995 ; perimeter
G1 X163.55 Y43.684 E.03992 ; perimeter
G1 X164.245 Y44.255 E.0399 ; perimeter
G1 X164.817 Y44.952 E.03999 ; perimeter
G1 X165.148 Y45.536 E.02977 ; perimeter
G1 X165.452 Y46.385 E.04 ; perimeter
G1 X165.584 Y47.279 E.04008 ; perimeter
G1 X165.584 Y47.627 E.01544 ; perimeter
G1 X165.59 Y161.551 E5.05307 ; perimeter
G1 X165.582 Y162.661 E.04924 ; perimeter
M73 P0 R113
G1 X165.51 Y163.282 E.02773 ; perimeter
G1 X165.346 Y163.936 E.02991 ; perimeter
G1 X165.088 Y164.558 E.02987 ; perimeter
G1 X164.742 Y165.135 E.02984 ; perimeter
G1 X164.315 Y165.656 E.02988 ; perimeter
G1 X163.816 Y166.108 E.02986 ; perimeter
G1 X163.357 Y166.432 E.02492 ; perimeter
G1 X162.855 Y166.684 E.02491 ; perimeter
G1 X162.331 Y166.887 E.02493 ; perimeter
G1 X161.729 Y167.019 E.02734 ; perimeter
G1 X160.992 Y167.09 E.03284 ; perimeter
G1 X88.839 Y167.082 E3.20033 ; perimeter
G1 X88.218 Y167.01 E.02773 ; perimeter
G1 X87.564 Y166.846 E.02991 ; perimeter
G1 X86.942 Y166.588 E.02987 ; perimeter
G1 X86.365 Y166.242 E.02984 ; perimeter
G1 X85.844 Y165.815 E.02988 ; perimeter
G1 X85.392 Y165.316 E.02986 ; perimeter
G1 X85.068 Y164.857 E.02492 ; perimeter
G1 X84.816 Y164.355 E.02491 ; perimeter
G1 X84.613 Y163.831 E.02493 ; perimeter
G1 X84.481 Y163.229 E.02734 ; perimeter
G1 X84.41 Y162.492 E.03284 ; perimeter
G1 X84.41 Y47.623 E5.09499 ; perimeter
G1 X84.432 Y47.053 E.0253 ; perimeter
G1 X84.548 Y46.385 E.03007 ; perimeter
G1 X84.76 Y45.744 E.02995 ; perimeter
G1 X85.064 Y45.141 E.02995 ; perimeter
G1 X85.451 Y44.59 E.02987 ; perimeter
G1 X86.048 Y43.994 E.03742 ; perimeter
M204 S1000 ; adjust acceleration
;WIPE_START
G1 F8640
G1 X86.09 Y43.951 E-.01388 ; wipe and retract
G1 X86.839 Y43.457 E-.20717 ; wipe and retract
G1 X87.463 Y43.187 E-.15699 ; wipe and retract
G1 X88.102 Y42.999 E-.1538 ; wipe and retract
G1 X88.777 Y42.916 E-.15703 ; wipe and retract
G1 X91.857 Y42.916 E-.71113 ; wipe and retract
;WIPE_END
G1 Z.5 F720 ; move to first perimeter point
G1 X116.283 Y52.937 F10800 ; move to first perimeter point
G1 Z.3 F720 ; move to first perimeter point
M73 P1 R113
G1 E1.4 F2100 ;  ; unretract
M204 S800 ; adjust acceleration
;TYPE:Perimeter
G1 F1200
G1 X116.289 Y52.884 E.00237 ; perimeter
G1 X116.499 Y52.121 E.0351 ; perimeter
G1 X116.842 Y51.453 E.03331 ; perimeter
G1 X117.302 Y50.876 E.03273 ; perimeter
G1 X117.866 Y50.4 E.03273 ; perimeter
G1 X118.512 Y50.043 E.03274 ; perimeter
G1 X119.215 Y49.819 E.03273 ; perimeter
G1 X119.997 Y49.734 E.03489 ; perimeter
G1 X155.004 Y49.734 E1.55273 ; perimeter
G1 X155.514 Y49.771 E.02268 ; perimeter
M73 Q1 S115
G1 X156.055 Y49.886 E.02453 ; perimeter
G1 X156.878 Y50.24 E.03974 ; perimeter
G1 X157.613 Y50.794 E.04082 ; perimeter
G1 X158.193 Y51.51 E.04087 ; perimeter
G1 X158.581 Y52.345 E.04084 ; perimeter
G1 X158.762 Y53.341 E.0449 ; perimeter
G1 X158.766 Y72.004 E.82779 ; perimeter
M73 Q1 S114
G1 X158.729 Y72.514 E.02268 ; perimeter
G1 X158.614 Y73.055 E.02453 ; perimeter
G1 X158.26 Y73.878 E.03974 ; perimeter
G1 X157.706 Y74.614 E.04086 ; perimeter
G1 X156.99 Y75.193 E.04084 ; perimeter
G1 X156.154 Y75.581 E.04088 ; perimeter
G1 X155.6 Y75.693 E.02507 ; perimeter
G1 X155.002 Y75.762 E.0267 ; perimeter
G1 X119.996 Y75.766 E1.55268 ; perimeter
G1 X119.486 Y75.729 E.02268 ; perimeter
G1 X118.945 Y75.614 E.02453 ; perimeter
G1 X118.122 Y75.26 E.03974 ; perimeter
G1 X117.669 Y74.927 E.02494 ; perimeter
G1 X117.294 Y74.614 E.02167 ; perimeter
G1 X116.807 Y73.99 E.03511 ; perimeter
G1 X116.419 Y73.155 E.04084 ; perimeter
G1 X116.246 Y72.25 E.04087 ; perimeter
G1 X116.238 Y53.341 E.8387 ; perimeter
G1 X116.276 Y52.996 E.01539 ; perimeter
M204 S1000 ; adjust acceleration
G1 X116.631 Y52.978 F10800 ; move to first perimeter point
M204 S800 ; adjust acceleration
;TYPE:External perimeter
G1 F1200
G1 X116.842 Y52.216 E.03507 ; perimeter
G1 X117.156 Y51.62 E.02988 ; perimeter
G1 X117.577 Y51.102 E.02961 ; perimeter
G1 X118.091 Y50.675 E.02964 ; perimeter
G1 X118.679 Y50.357 E.02965 ; perimeter
G1 X119.318 Y50.16 E.02966 ; perimeter
G1 X119.997 Y50.09 E.03028 ; perimeter
G1 X155.004 Y50.09 E1.55273 ; perimeter
G1 X155.513 Y50.129 E.02264 ; perimeter
G1 X156.01 Y50.244 E.02263 ; perimeter
G1 X156.734 Y50.565 E.03513 ; perimeter
G1 X157.395 Y51.074 E.037 ; perimeter
G1 X157.912 Y51.729 E.03701 ; perimeter
G1 X158.256 Y52.49 E.03704 ; perimeter
G1 X158.406 Y53.341 E.03833 ; perimeter
G1 X158.41 Y72.004 E.82779 ; perimeter
G1 X158.372 Y72.505 E.02229 ; perimeter
G1 X158.256 Y73.01 E.02298 ; perimeter
G1 X157.935 Y73.734 E.03513 ; perimeter
G1 X157.426 Y74.395 E.037 ; perimeter
G1 X156.771 Y74.913 E.03704 ; perimeter
G1 X156.01 Y75.256 E.03702 ; perimeter
G1 X155.189 Y75.404 E.037 ; perimeter
G1 X155.002 Y75.406 E.00829 ; perimeter
G1 X119.996 Y75.41 E1.55268 ; perimeter
G1 X119.496 Y75.373 E.02224 ; perimeter
G1 X119.004 Y75.261 E.02238 ; perimeter
G1 X118.266 Y74.935 E.03579 ; perimeter
G1 X117.605 Y74.426 E.037 ; perimeter
G1 X117.065 Y73.734 E.03893 ; perimeter
G1 X116.744 Y73.01 E.03513 ; perimeter
G1 X116.596 Y72.189 E.037 ; perimeter
G1 X116.594 Y53.341 E.836 ; perimeter
G1 X116.625 Y53.038 E.01351 ; perimeter
M204 S1000 ; adjust acceleration
;WIPE_START
G1 F8640
G1 X116.631 Y52.978 E-.01392 ; wipe and retract
G1 X116.842 Y52.216 E-.18257 ; wipe and retract
G1 X117.156 Y51.62 E-.15555 ; wipe and retract
G1 X117.577 Y51.102 E-.15413 ; wipe and retract
G1 X118.091 Y50.675 E-.1543 ; wipe and retract
G1 X118.679 Y50.357 E-.15435 ; wipe and retract
G1 X119.318 Y50.16 E-.1544 ; wipe and retract
G1 X119.997 Y50.09 E-.15761 ; wipe and retract
G1 X121.18 Y50.09 E-.27317 ; wipe and retract
;WIPE_END
G1 Z.5 F720 ; move to first perimeter point
G1 X103.315 Y51.738 F10800 ; move to first perimeter point
G1 Z.3 F720 ; move to first perimeter point
G1 E1.4 F2100 ;  ; unretract
M204 S800 ; adjust acceleration
;TYPE:Perimeter
G1 F1200
G1 X103.633 Y52.523 E.03757 ; perimeter
G1 X103.766 Y53.496 E.04356 ; perimeter
G1 X103.766 Y72.003 E.82087 ; perimeter
G1 X103.737 Y72.434 E.01916 ; perimeter
G1 X103.564 Y73.206 E.03509 ; perimeter
G1 X103.164 Y74.036 E.04087 ; perimeter
G1 X102.816 Y74.499 E.02569 ; perimeter
G1 X102.418 Y74.885 E.02459 ; perimeter
G1 X101.969 Y75.209 E.02456 ; perimeter
G1 X101.477 Y75.463 E.02456 ; perimeter
G1 X100.953 Y75.642 E.02456 ; perimeter
G1 X100.004 Y75.766 E.04245 ; perimeter
G1 X94.996 Y75.766 E.22213 ; perimeter
G1 X94.023 Y75.633 E.04356 ; perimeter
G1 X93.284 Y75.348 E.03513 ; perimeter
G1 X92.789 Y75.047 E.0257 ; perimeter
G1 X92.366 Y74.69 E.02455 ; perimeter
G1 X92 Y74.274 E.02458 ; perimeter
G1 X91.699 Y73.809 E.02457 ; perimeter
G1 X91.367 Y72.977 E.03973 ; perimeter
G1 X91.234 Y72.004 E.04356 ; perimeter
G1 X91.234 Y53.496 E.82092 ; perimeter
G1 X91.271 Y52.986 E.02268 ; perimeter
G1 X91.5 Y52.121 E.03969 ; perimeter
G1 X91.842 Y51.453 E.03329 ; perimeter
G1 X92.425 Y50.757 E.04027 ; perimeter
G1 X92.876 Y50.392 E.02573 ; perimeter
G1 X93.512 Y50.043 E.03218 ; perimeter
G1 X94.215 Y49.819 E.03273 ; perimeter
G1 X94.997 Y49.734 E.03489 ; perimeter
G1 X100.004 Y49.734 E.22208 ; perimeter
G1 X100.514 Y49.771 E.02268 ; perimeter
G1 X101.055 Y49.886 E.02453 ; perimeter
G1 X101.574 Y50.08 E.02458 ; perimeter
G1 X102.059 Y50.348 E.02458 ; perimeter
G1 X102.744 Y50.926 E.03975 ; perimeter
G1 X103.287 Y51.67 E.04085 ; perimeter
G1 X103.292 Y51.682 E.00058 ; perimeter
M204 S1000 ; adjust acceleration
G1 X102.996 Y51.874 F10800 ; move to first perimeter point
M204 S800 ; adjust acceleration
;TYPE:External perimeter
G1 F1200
G1 X103.301 Y52.651 E.03702 ; perimeter
G1 X103.41 Y53.496 E.03779 ; perimeter
G1 X103.41 Y72.003 E.82087 ; perimeter
G1 X103.39 Y72.356 E.01568 ; perimeter
G1 X103.217 Y73.128 E.03509 ; perimeter
G1 X102.846 Y73.876 E.03703 ; perimeter
G1 X102.535 Y74.28 E.02261 ; perimeter
G1 X102.173 Y74.627 E.02224 ; perimeter
G1 X101.764 Y74.918 E.02226 ; perimeter
G1 X101.317 Y75.145 E.02224 ; perimeter
G1 X100.842 Y75.304 E.02222 ; perimeter
G1 X100.004 Y75.41 E.03747 ; perimeter
G1 X94.996 Y75.41 E.22213 ; perimeter
G1 X94.193 Y75.312 E.03588 ; perimeter
G1 X93.412 Y75.017 E.03703 ; perimeter
G1 X92.979 Y74.746 E.02266 ; perimeter
G1 X92.598 Y74.42 E.02224 ; perimeter
G1 X92.269 Y74.042 E.02223 ; perimeter
G1 X91.999 Y73.619 E.02226 ; perimeter
G1 X91.699 Y72.849 E.03665 ; perimeter
G1 X91.59 Y72.004 E.03779 ; perimeter
G1 X91.59 Y53.496 E.82092 ; perimeter
G1 X91.631 Y52.978 E.02305 ; perimeter
G1 X91.842 Y52.216 E.03507 ; perimeter
G1 X92.156 Y51.62 E.02988 ; perimeter
G1 X92.695 Y50.989 E.03681 ; perimeter
G1 X93.095 Y50.672 E.02264 ; perimeter
G1 X93.679 Y50.357 E.02943 ; perimeter
G1 X94.318 Y50.16 E.02966 ; perimeter
G1 X94.997 Y50.09 E.03028 ; perimeter
G1 X100.004 Y50.09 E.22208 ; perimeter
G1 X100.513 Y50.129 E.02264 ; perimeter
G1 X101.002 Y50.241 E.02225 ; perimeter
G1 X101.47 Y50.423 E.02227 ; perimeter
G1 X101.912 Y50.678 E.02263 ; perimeter
G1 X102.511 Y51.195 E.0351 ; perimeter
G1 X102.961 Y51.825 E.03434 ; perimeter
M204 S1000 ; adjust acceleration
;WIPE_START
G1 F8640
G1 X102.996 Y51.874 E-.0139 ; wipe and retract
G1 X103.301 Y52.651 E-.19274 ; wipe and retract
G1 X103.41 Y53.496 E-.19673 ; wipe and retract
G1 X103.41 Y57.812 E-.99663 ; wipe and retract
;WIPE_END
G1 Z.5 F720 ; move to first perimeter point
