; generated by PrusaSlicer 2.5.0 on 2022-09-17 at 10:21:22 UTC

; 

; external perimeters extrusion width = 0.60mm
; perimeters extrusion width = 0.50mm
; infill extrusion width = 0.50mm
; solid infill extrusion width = 0.50mm
; top infill extrusion width = 0.45mm
; first layer extrusion width = 0.42mm

M73 P0 R69
M73 Q0 S69
M201 X1000 Y1000 Z200 E5000 ; sets maximum accelerations, mm/sec^2
M203 X200 Y200 Z12 E120 ; sets maximum feedrates, mm / sec
M204 P1250 R1250 T1250 ; sets acceleration (P, T) and retract acceleration (R), mm/sec^2
M205 X8.00 Y8.00 Z0.40 E4.50 ; sets the jerk limits, mm/sec
M205 S0 T0 ; sets the minimum extruding and travel feed rate, mm/sec
M107
;TYPE:Custom
M862.3 P "MK3S" ; printer model check
M862.1 P0.4 ; nozzle diameter check
M115 U3.10.1 ; tell printer latest fw version
G90 ; use absolute coordinates
M83 ; extruder relative mode
M104 S240 ; set extruder temp
M140 S95 ; set bed temp
M190 S95 ; wait for bed temp
M109 S240 ; wait for extruder temp
G28 W ; home all without mesh bed level
G80 ; mesh bed leveling
G1 Z0.2 F720
G1 Y-3 F1000 ; go outside print area
G92 E0
G1 X60 E9 F1000 ; intro line
G1 X100 E12.5 F1000 ; intro line
G92 E0
M221 S95

; Don't change E values below. Excessive value can damage the printer.

M907 E538 ; set extruder motor current
G21 ; set units to millimeters
G90 ; use absolute coordinates
M83 ; use relative distances for extrusion
M900 K0.08 ; Filament gcode LA 1.5
M900 K45 ; Filament gcode LA 1.0
M107
;LAYER_CHANGE
;Z:0.3
;HEIGHT:0.3
;BEFORE_LAYER_CHANGE
G92 E0.0
;0.3


G1 E-1.4 F2100
G1 Z.2 F720
G1 Z.3
;AFTER_LAYER_CHANGE
;0.3
G1 Z.5
G1 X82.662 Y43.768 F10800
G1 Z.3 F720
G1 E1.4 F2100
M204 S800
;TYPE:Skirt/Brim
;WIDTH:0.42
G1 F1200
G1 X83.278 Y42.879 E.048
G1 X83.84 Y42.258 E.03713
G1 X84.572 Y41.627 E.04289
G1 X85.268 Y41.162 E.03714
G1 X86.132 Y40.727 E.04289
G1 X86.92 Y40.445 E.03714
G1 X87.864 Y40.233 E.04288
G1 X88.697 Y40.151 E.03713
G1 X161.058 Y40.145 E3.20956
G1 X162.492 Y40.298 E.06395
M73 P0 R68
G1 X163.761 Y40.683 E.05885
G1 X164.831 Y41.221 E.05311
G1 X165.982 Y42.089 E.06395
G1 X166.942 Y43.165 E.06395
G1 X167.673 Y44.408 E.06396
G1 X168.12 Y45.657 E.05885
G1 X168.343 Y47.081 E.06395
G1 X168.356 Y162.5 E5.11937
G1 X168.284 Y163.522 E.04544
G1 X168.12 Y164.343 E.03713
G1 X167.817 Y165.261 E.04288
G1 X167.338 Y166.232 E.048
G1 X166.873 Y166.928 E.03714
G1 X166.16 Y167.741 E.04799
G1 X165.428 Y168.373 E.04289
G1 X164.732 Y168.838 E.03713
G1 X163.868 Y169.273 E.04289
G1 X163.08 Y169.555 E.03714
G1 X162.136 Y169.767 E.04288
G1 X161.303 Y169.849 E.03713
G1 X88.942 Y169.855 E3.20956
G1 X87.864 Y169.767 E.04799
G1 X86.92 Y169.555 E.04289
G1 X86.132 Y169.273 E.03714
G1 X85.268 Y168.838 E.04288
G1 X84.379 Y168.222 E.048
G1 X83.759 Y167.66 E.03713
G1 X83.127 Y166.928 E.04289
G1 X82.662 Y166.232 E.03714
G1 X82.227 Y165.368 E.04289
G1 X81.945 Y164.58 E.03714
G1 X81.716 Y163.522 E.04799
G1 X81.645 Y162.558 E.04288
G1 X81.644 Y47.5 E5.10337
G1 X81.716 Y46.478 E.04544
G1 X81.88 Y45.657 E.03713
G1 X82.227 Y44.632 E.048
G1 X82.635 Y43.822 E.04022
M204 S1000
; printing object 1L_foot-Body.stl id:0 copy 0
;WIPE_START
G1 F8640
G1 X83.278 Y42.879 E-.26359
G1 X83.84 Y42.258 E-.19331
G1 X84.572 Y41.627 E-.22327
G1 X85.268 Y41.162 E-.19332
G1 X86.132 Y40.727 E-.22325
G1 X86.92 Y40.445 E-.19332
G1 X87.089 Y40.407 E-.03994
;WIPE_END
G1 E-.07 F2100
G1 Z.5 F720
G1 X86.32 Y44.224 F10800
G1 Z.3 F720
G1 E1.4 F2100
M204 S800
;TYPE:Perimeter
;WIDTH:0.42
G1 F1200
G1 X87.007 Y43.771 E.03651
G1 X87.591 Y43.519 E.0282
G1 X88.167 Y43.349 E.02667
G1 X88.799 Y43.271 E.02824
G1 X160.986 Y43.266 E3.20184
G1 X161.825 Y43.35 E.0374
G1 X162.619 Y43.59 E.03681
G1 X163.351 Y43.981 E.03679
G1 X163.992 Y44.508 E.03679
G1 X164.522 Y45.154 E.03707
G1 X164.823 Y45.685 E.02707
G1 X165.105 Y46.472 E.03707
G1 X165.229 Y47.305 E.03738
G1 X165.234 Y162.377 E5.10396
G1 X165.227 Y162.644 E.01186
G1 X165.159 Y163.222 E.0258
G1 X165.008 Y163.824 E.02755
G1 X164.771 Y164.398 E.02755
G1 X164.451 Y164.931 E.02755
G1 X164.057 Y165.411 E.02755
G1 X163.597 Y165.828 E.02755
G1 X163.174 Y166.127 E.02298
G1 X162.711 Y166.359 E.02298
G1 X162.227 Y166.546 E.02298
G1 X161.668 Y166.668 E.02538
G1 X160.984 Y166.734 E.03051
G1 X89.123 Y166.734 E3.18737
G1 X88.856 Y166.727 E.01185
M73 P1 R68
M73 Q1 S69
G1 X88.278 Y166.659 E.0258
G1 X87.676 Y166.508 E.02755
G1 X87.102 Y166.271 E.02755
G1 X86.569 Y165.951 E.02755
G1 X86.089 Y165.557 E.02755
G1 X85.672 Y165.097 E.02755
G1 X85.373 Y164.674 E.02298
G1 X85.141 Y164.211 E.02299
G1 X84.954 Y163.727 E.02298
G1 X84.832 Y163.168 E.02538
G1 X84.766 Y162.484 E.03051
G1 X84.766 Y47.516 E5.09935
G1 X84.786 Y47.092 E.01884
G1 X84.894 Y46.472 E.02793
G1 X85.089 Y45.88 E.02762
G1 X85.369 Y45.324 E.02762
G1 X85.724 Y44.82 E.02735
G1 X86.277 Y44.267 E.03468
M204 S1000
G1 X86.09 Y43.951 F10800
M204 S800
;TYPE:External perimeter
G1 F1200
G1 X86.839 Y43.457 E.0398
G1 X87.463 Y43.187 E.03013
G1 X88.102 Y42.999 E.02957
G1 X88.777 Y42.916 E.03018
G1 X161.004 Y42.91 E3.20359
G1 X161.895 Y42.999 E.03973
G1 X162.756 Y43.26 E.0399
G1 X163.55 Y43.684 E.0399
G1 X164.245 Y44.255 E.0399
G1 X164.817 Y44.952 E.03998
G1 X165.148 Y45.536 E.02979
G1 X165.452 Y46.385 E.03998
G1 X165.584 Y47.279 E.0401
G1 X165.59 Y162.377 E5.10513
G1 X165.582 Y162.661 E.01263
M73 Q1 S68
G1 X165.51 Y163.282 E.02773
G1 X165.346 Y163.936 E.02987
G1 X165.088 Y164.558 E.02987
G1 X164.742 Y165.135 E.02987
G1 X164.315 Y165.656 E.02987
G1 X163.816 Y166.108 E.02987
G1 X163.357 Y166.432 E.02492
G1 X162.855 Y166.684 E.02492
G1 X162.331 Y166.887 E.02492
G1 X161.729 Y167.019 E.02731
G1 X160.992 Y167.09 E.03284
G1 X89.123 Y167.09 E3.18775
G1 X88.839 Y167.082 E.01262
G1 X88.218 Y167.01 E.02773
G1 X87.564 Y166.846 E.02987
G1 X86.942 Y166.588 E.02987
G1 X86.365 Y166.242 E.02987
G1 X85.844 Y165.815 E.02987
G1 X85.392 Y165.316 E.02987
G1 X85.068 Y164.857 E.02492
G1 X84.816 Y164.355 E.02492
G1 X84.613 Y163.831 E.02492
G1 X84.481 Y163.229 E.02731
G1 X84.41 Y162.492 E.03284
G1 X84.41 Y47.508 E5.10012
G1 X84.432 Y47.053 E.0202
G1 X84.548 Y46.385 E.03006
G1 X84.76 Y45.744 E.02995
G1 X85.064 Y45.141 E.02995
G1 X85.451 Y44.59 E.02987
G1 X86.048 Y43.994 E.0374
M204 S1000
G1 X86.463 Y44.097 F10800
;WIPE_START
G1 F8640
G1 X86.839 Y43.457 E-.2208
G1 X87.463 Y43.187 E-.15686
G1 X88.102 Y42.999 E-.15394
G1 X88.777 Y42.916 E-.15711
G1 X91.555 Y42.916 E-.6413
;WIPE_END
G1 E-.07 F2100
G1 Z.5 F720
G1 X93.791 Y55.036 F10800
G1 Z.3 F720
M73 P1 R67
G1 E1.4 F2100
M204 S800
;TYPE:Perimeter
G1 F1200
G1 X94.042 Y54.559 E.02391
G1 X94.354 Y54.087 E.02509
G1 X94.711 Y53.648 E.02509
G1 X95.109 Y53.246 E.02509
G1 X95.544 Y52.885 E.02508
G1 X96.248 Y52.435 E.03706
G1 X96.77 Y52.184 E.02567
G1 X97.301 Y51.991 E.02509
G1 X97.85 Y51.851 E.02509
G1 X98.409 Y51.765 E.02509
G1 X98.997 Y51.734 E.02611
G1 X151.004 Y51.734 E2.30675
G1 X152.074 Y51.838 E.04768
G1 X152.648 Y51.975 E.02621
G1 X153.429 Y52.273 E.03707
G1 X154.149 Y52.672 E.03651
G1 X154.636 Y53.026 E.02668
G1 X155.058 Y53.405 E.02515
G1 X155.44 Y53.823 E.02513
G1 X155.924 Y54.503 E.03704
G1 X156.311 Y55.258 E.03762
G1 X156.509 Y55.801 E.02565
G1 X156.649 Y56.35 E.02509
G1 X156.735 Y56.909 E.02509
G1 X156.766 Y57.497 E.02611
G1 X156.766 Y67.504 E.44385
G1 X156.708 Y68.307 E.03571
G1 X156.527 Y69.136 E.03763
G1 X156.228 Y69.929 E.03761
G1 X155.814 Y70.67 E.03764
G1 X155.297 Y71.342 E.03762
G1 X154.891 Y71.754 E.02564
G1 X154.235 Y72.271 E.03706
G1 X153.5 Y72.694 E.0376
G1 X152.711 Y73.004 E.0376
G1 X152.151 Y73.149 E.02569
G1 X151.322 Y73.255 E.03708
G1 X98.996 Y73.266 E2.32087
G1 X97.835 Y73.145 E.05179
G1 X97.071 Y72.932 E.03518
G1 X96.316 Y72.602 E.03655
G1 X95.819 Y72.308 E.02562
G1 X95.363 Y71.973 E.02509
G1 X94.942 Y71.595 E.02508
G1 X94.56 Y71.177 E.02513
G1 X94.221 Y70.725 E.02508
G1 X93.928 Y70.241 E.02509
G1 X93.586 Y69.478 E.03706
G1 X93.414 Y68.926 E.02565
G1 X93.301 Y68.371 E.02511
G1 X93.234 Y67.504 E.0386
G1 X93.234 Y57.497 E.44385
G1 X93.26 Y56.961 E.02379
G1 X93.341 Y56.401 E.02509
G1 X93.476 Y55.852 E.02509
G1 X93.765 Y55.09 E.03614
M204 S1000
G1 X93.821 Y55.938 F10800
M204 S800
;TYPE:External perimeter
G1 F1200
G1 X94.104 Y55.199 E.03513
G1 X94.355 Y54.726 E.02372
G1 X94.65 Y54.284 E.02355
G1 X94.986 Y53.873 E.02355
G1 X95.36 Y53.497 E.02355
G1 X95.77 Y53.16 E.02353
G1 X96.438 Y52.735 E.03513
G1 X96.922 Y52.505 E.02374
G1 X97.421 Y52.326 E.02355
G1 X97.936 Y52.196 E.02355
G1 X98.461 Y52.117 E.02355
G1 X98.997 Y52.09 E.02379
G1 X151.004 Y52.09 E2.30675
G1 X152.039 Y52.191 E.04613
G1 X152.562 Y52.32 E.0239
G1 X153.301 Y52.604 E.03514
G1 X153.974 Y52.982 E.03422
G1 X154.425 Y53.312 E.02478
G1 X154.819 Y53.668 E.02356
G1 X155.177 Y54.062 E.02358
G1 X155.633 Y54.708 E.03511
G1 X155.993 Y55.418 E.0353
G1 X156.174 Y55.921 E.02372
G1 X156.304 Y56.436 E.02355
G1 X156.383 Y56.961 E.02355
G1 X156.41 Y57.497 E.02379
G1 X156.41 Y67.504 E.44385
G1 X156.353 Y68.28 E.03455
G1 X156.18 Y69.058 E.03532
G1 X155.896 Y69.801 E.0353
G1 X155.505 Y70.495 E.03532
G1 X155.017 Y71.123 E.0353
G1 X154.64 Y71.502 E.02371
G1 X154.016 Y71.991 E.03513
G1 X153.325 Y72.384 E.03529
G1 X152.584 Y72.673 E.03528
G1 X152.064 Y72.804 E.02376
G1 X151.278 Y72.902 E.03515
G1 X98.996 Y72.91 E2.31894
G1 X98.174 Y72.83 E.03667
M73 P2 R67
M73 Q2 S68
G1 X97.604 Y72.712 E.02578
G1 X97.143 Y72.58 E.02129
G1 X96.461 Y72.277 E.03311
G1 X96.002 Y72.003 E.02371
G1 X95.575 Y71.687 E.02355
G1 X95.181 Y71.332 E.02353
G1 X94.823 Y70.938 E.02358
G1 X94.507 Y70.513 E.02353
G1 X94.233 Y70.058 E.02355
G1 X93.911 Y69.334 E.03513
G1 X93.754 Y68.823 E.02372
G1 X93.65 Y68.302 E.02356
G1 X93.59 Y67.504 E.03551
G1 X93.59 Y57.497 E.44385
G1 X93.615 Y56.978 E.02302
G1 X93.692 Y56.453 E.02355
G1 X93.806 Y55.996 E.02089
M204 S1000
G1 X93.551 Y55.642 F10800
;WIPE_START
G1 F8640
G1 X94.104 Y55.199 E-.19663
G1 X94.355 Y54.726 E-.1235
G1 X94.65 Y54.284 E-.12259
G1 X94.986 Y53.873 E-.12258
G1 X95.36 Y53.497 E-.12258
G1 X95.77 Y53.16 E-.12252
G1 X96.438 Y52.735 E-.18285
G1 X96.922 Y52.505 E-.12359
G1 X97.421 Y52.326 E-.12259
G1 X97.802 Y52.23 E-.09057
;WIPE_END
G1 E-.07 F2100
G1 Z.5 F720
G1 X93.579 Y88.046 F10800
G1 Z.3 F720
G1 E1.4 F2100
M204 S800
;TYPE:Perimeter
G1 F1200
G1 X93.898 Y87.317 E.03528
G1 X94.192 Y86.819 E.02565
G1 X94.527 Y86.363 E.02509
G1 X94.905 Y85.942 E.02509
G1 X95.322 Y85.56 E.02509
G1 X95.775 Y85.221 E.0251
G1 X96.259 Y84.928 E.02508
G1 X96.77 Y84.684 E.02511
G1 X97.301 Y84.491 E.02509
G1 X97.85 Y84.351 E.02509
G1 X98.409 Y84.265 E.02509
G1 X98.997 Y84.234 E.02612
G1 X151.004 Y84.234 E2.30674
G1 X152.074 Y84.338 E.04768
G1 X152.648 Y84.475 E.02621
G1 X153.428 Y84.772 E.03701
G1 X154.17 Y85.185 E.03766
G1 X154.656 Y85.543 E.02681
G1 X155.245 Y86.1 E.03592
G1 X155.771 Y86.765 E.03761
G1 X156.072 Y87.259 E.02567
G1 X156.316 Y87.77 E.0251
G1 X156.516 Y88.326 E.02622
G1 X156.696 Y89.116 E.03593
G1 X156.757 Y89.691 E.02565
G1 X156.759 Y120.256 E1.35572
G1 X156.659 Y121.099 E.03764
G1 X156.44 Y121.905 E.03706
G1 X156.223 Y122.441 E.02564
G1 X155.815 Y123.17 E.03706
G1 X155.457 Y123.656 E.0268
G1 X154.9 Y124.245 E.03592
G1 X154.235 Y124.771 E.03761
G1 X153.5 Y125.194 E.03764
G1 X152.967 Y125.419 E.02565
G1 X152.426 Y125.586 E.0251
G1 X151.871 Y125.699 E.02511
G1 X151.004 Y125.766 E.0386
G1 X98.996 Y125.766 E2.30677
G1 X97.849 Y125.649 E.05114
G1 X97.352 Y125.524 E.02276
G1 X96.818 Y125.336 E.02508
G1 X96.305 Y125.097 E.02511
G1 X95.819 Y124.808 E.0251
G1 X95.344 Y124.457 E.02622
G1 X94.755 Y123.9 E.03595
G1 X94.243 Y123.255 E.03649
G1 X93.929 Y122.742 E.02668
G1 X93.684 Y122.23 E.02518
G1 X93.484 Y121.674 E.02622
G1 X93.304 Y120.884 E.03593
G1 X93.243 Y120.309 E.02565
G1 X93.241 Y89.743 E1.35574
G1 X93.293 Y89.18 E.02509
G1 X93.401 Y88.625 E.02509
G1 X93.557 Y88.102 E.02421
M204 S1000
G1 X93.903 Y88.186 F10800
M204 S800
;TYPE:External perimeter
G1 F1200
G1 X94.223 Y87.461 E.03513
G1 X94.497 Y87.002 E.02372
G1 X94.813 Y86.575 E.02355
G1 X95.168 Y86.181 E.02355
G1 X95.561 Y85.824 E.02355
G1 X95.987 Y85.507 E.02355
G1 X96.442 Y85.233 E.02353
G1 X96.922 Y85.005 E.02357
G1 X97.421 Y84.826 E.02355
G1 X97.936 Y84.696 E.02355
G1 X98.461 Y84.617 E.02355
G1 X98.997 Y84.59 E.0238
G1 X151.004 Y84.59 E2.30674
G1 X152.039 Y84.691 E.04613
G1 X152.562 Y84.82 E.0239
G1 X153.3 Y85.104 E.03507
G1 X153.994 Y85.495 E.03534
G1 X154.444 Y85.828 E.02483
G1 X154.999 Y86.357 E.03401
G1 X155.491 Y86.984 E.03532
G1 X155.767 Y87.442 E.02374
G1 X155.995 Y87.922 E.02355
G1 X156.181 Y88.445 E.02462
G1 X156.349 Y89.193 E.03403
G1 X156.403 Y89.726 E.02375
G1 X156.404 Y120.256 E1.35417
G1 X156.308 Y121.047 E.03532
G1 X156.098 Y121.811 E.03513
G1 X155.894 Y122.305 E.02371
G1 X155.505 Y122.995 E.03513
G1 X155.172 Y123.444 E.02482
G1 X154.643 Y123.999 E.03401
G1 X154.016 Y124.491 E.03532
G1 X153.324 Y124.885 E.03532
G1 X152.831 Y125.091 E.02372
G1 X152.323 Y125.246 E.02355
G1 X151.802 Y125.35 E.02356
G1 X151.004 Y125.41 E.03551
G1 X98.996 Y125.41 E2.30677
G1 X98.173 Y125.33 E.03667
G1 X97.438 Y125.179 E.0333
G1 X96.938 Y125.002 E.02353
G1 X96.458 Y124.775 E.02357
G1 X96.002 Y124.503 E.02355
G1 X95.556 Y124.172 E.02462
G1 X95 Y123.642 E.03404
G1 X94.523 Y123.036 E.03422
G1 X94.233 Y122.558 E.02478
G1 X94.005 Y122.078 E.02358
G1 X93.819 Y121.555 E.02462
G1 X93.651 Y120.807 E.03403
G1 X93.597 Y120.274 E.02375
G1 X93.596 Y89.743 E1.35419
G1 X93.647 Y89.215 E.02355
G1 X93.75 Y88.694 E.02355
G1 X93.886 Y88.243 E.02089
M204 S1000
G1 X93.649 Y87.877 F10800
;WIPE_START
G1 F8640
G1 X94.223 Y87.461 E-.19663
G1 X94.497 Y87.002 E-.12349
G1 X94.813 Y86.575 E-.12259
G1 X95.168 Y86.181 E-.12259
G1 X95.561 Y85.824 E-.12258
G1 X95.987 Y85.507 E-.12259
G1 X96.442 Y85.233 E-.12249
G1 X96.922 Y85.005 E-.12268
G1 X97.421 Y84.826 E-.12259
G1 X97.936 Y84.696 E-.12259
G1 X98.061 Y84.677 E-.02918
;WIPE_END
G1 E-.07 F2100
G1 Z.5 F720
G1 X93.791 Y140.036 F10800
G1 Z.3 F720
G1 E1.4 F2100
M204 S800
;TYPE:Perimeter
G1 F1200
G1 X94.042 Y139.559 E.02391
G1 X94.354 Y139.087 E.02509
G1 X94.711 Y138.648 E.02509
G1 X95.313 Y138.069 E.03706
G1 X95.775 Y137.721 E.02565
G1 X96.259 Y137.428 E.02508
G1 X96.77 Y137.184 E.02511
G1 X97.301 Y136.991 E.02509
G1 X97.849 Y136.851 E.02508
G1 X98.409 Y136.765 E.02511
G1 X98.997 Y136.734 E.02611
G1 X151.004 Y136.734 E2.30675
G1 X152.151 Y136.851 E.05114
G1 X152.653 Y136.977 E.02296
G1 X153.429 Y137.273 E.03686
G1 X154.149 Y137.672 E.03651
G1 X154.636 Y138.026 E.02668
G1 X155.058 Y138.405 E.02515
G1 X155.44 Y138.823 E.02513
G1 X155.924 Y139.503 E.03704
G1 X156.311 Y140.258 E.03762
G1 X156.509 Y140.801 E.02565
G1 X156.649 Y141.35 E.02509
G1 X156.735 Y141.909 E.02509
G1 X156.766 Y142.497 E.02611
G1 X156.766 Y152.504 E.44385
G1 X156.708 Y153.307 E.03571
G1 X156.527 Y154.136 E.03763
G1 X156.228 Y154.929 E.03761
G1 X155.814 Y155.67 E.03764
G1 X155.297 Y156.342 E.03762
G1 X154.891 Y156.754 E.02564
G1 X154.235 Y157.271 E.03706
G1 X153.5 Y157.694 E.03764
G1 X152.71 Y158.005 E.03762
G1 X152.15 Y158.149 E.02565
G1 X151.322 Y158.255 E.03706
G1 X98.996 Y158.266 E2.32087
G1 X97.926 Y158.162 E.04768
G1 X97.095 Y157.94 E.03819
G1 X96.559 Y157.723 E.02564
G1 X95.83 Y157.315 E.03706
G1 X95.363 Y156.973 E.02567
G1 X94.942 Y156.595 E.02508
G1 X94.56 Y156.177 E.02513
G1 X94.221 Y155.725 E.02508
G1 X93.928 Y155.241 E.02509
G1 X93.586 Y154.478 E.03706
G1 X93.414 Y153.926 E.02565
G1 X93.301 Y153.371 E.02511
G1 X93.234 Y152.504 E.0386
G1 X93.234 Y142.497 E.44385
G1 X93.26 Y141.961 E.02379
G1 X93.341 Y141.401 E.02509
G1 X93.476 Y140.852 E.02509
G1 X93.765 Y140.09 E.03614
M204 S1000
G1 X94.104 Y140.199 F10800
M204 S800
;TYPE:External perimeter
G1 F1200
G1 X94.355 Y139.726 E.02372
G1 X94.65 Y139.284 E.02355
G1 X94.986 Y138.873 E.02355
M73 Q2 S67
G1 X95.558 Y138.326 E.03513
G1 X95.987 Y138.007 E.02372
G1 X96.442 Y137.733 E.02353
G1 X96.922 Y137.505 E.02356
G1 X97.421 Y137.326 E.02355
G1 X97.936 Y137.196 E.02353
G1 X98.461 Y137.117 E.02356
G1 X98.997 Y137.09 E.02379
G1 X151.004 Y137.09 E2.30675
G1 X152.064 Y137.196 E.04728
G1 X152.563 Y137.321 E.02281
G1 X153.301 Y137.604 E.03507
G1 X153.974 Y137.982 E.03422
G1 X154.425 Y138.312 E.02478
G1 X154.819 Y138.668 E.02356
G1 X155.177 Y139.062 E.02358
