; generated by PrusaSlicer 2.5.0 on 2023-02-25 at 17:59:19 UTC


;
;
; 

; external perimeters extrusion width = 0.60mm
; perimeters extrusion width = 0.50mm
; infill extrusion width = 0.50mm
; solid infill extrusion width = 0.50mm
; top infill extrusion width = 0.45mm
; first layer extrusion width = 0.42mm

M73 P0 R84
M73 Q0 S85
M201 X1000 Y1000 Z200 E5000 ; sets maximum accelerations, mm/sec^2
M203 X200 Y200 Z12 E120 ; sets maximum feedrates, mm / sec
M204 P1250 R1250 T1250 ; sets acceleration (P, T) and retract acceleration (R), mm/sec^2
M205 X8.00 Y8.00 Z0.40 E4.50 ; sets the jerk limits, mm/sec
M205 S0 T0 ; sets the minimum extruding and travel feed rate, mm/sec
M107
;TYPE:Custom
M862.3 P "MK3S" ; printer model check
M862.1 P0.4 ; nozzle diameter check
M115 U3.11.0 ; tell printer latest fw version
G90 ; use absolute coordinates
M83 ; extruder relative mode
M104 S240 ; set extruder temp
M140 S95 ; set bed temp
M190 S95 ; wait for bed temp
M109 S240 ; wait for extruder temp
G28 W ; home all without mesh bed level
G80 ; mesh bed leveling

G1 Z0.2 F720
G1 Y-3 F1000 ; go outside print area
G92 E0
G1 X60 E9 F1000 ; intro line
G1 X100 E12.5 F1000 ; intro line

G92 E0
M221 S95

; Don't change E values below. Excessive value can damage the printer.

M907 E538 ; set extruder motor current
G21 ; set units to millimeters
G90 ; use absolute coordinates
M83 ; use relative distances for extrusion
M900 K0.08 ; Filament gcode LA 1.5
M900 K45 ; Filament gcode LA 1.0
M107
;LAYER_CHANGE
;Z:0.3
;HEIGHT:0.3
;BEFORE_LAYER_CHANGE
G92 E0.0
;0.3


G1 E-1.4 F2100
G1 Z.2 F720
G1 Z.3
;AFTER_LAYER_CHANGE
;0.3
G1 Z.5
G1 X82.662 Y43.768 F10800
G1 Z.3 F720
G1 E1.4 F2100
M204 S800
;TYPE:Skirt/Brim
;WIDTH:0.42
G1 F1200
G1 X83.127 Y43.072 E.03714
G1 X83.759 Y42.34 E.04289
G1 X84.572 Y41.627 E.04799
G1 X85.268 Y41.162 E.03714
G1 X86.132 Y40.727 E.04288
G1 X86.92 Y40.445 E.03714
G1 X87.864 Y40.233 E.04288
G1 X88.697 Y40.151 E.03713
G1 X161.058 Y40.145 E3.20956
G1 X162.492 Y40.298 E.06395
G1 X163.761 Y40.683 E.05885
G1 X165.038 Y41.353 E.06395
G1 X166.146 Y42.246 E.06314
G1 X166.942 Y43.165 E.05392
G1 X167.673 Y44.408 E.06395
G1 X168.12 Y45.657 E.05885
G1 X168.343 Y47.081 E.06395
G1 X168.356 Y162.5 E5.11937
G1 X168.284 Y163.522 E.04544
G1 X168.12 Y164.343 E.03713
G1 X167.817 Y165.261 E.04289
G1 X167.338 Y166.232 E.048
G1 X166.873 Y166.928 E.03713
G1 X166.241 Y167.66 E.04289
G1 X165.621 Y168.222 E.03713
G1 X164.732 Y168.838 E.048
G1 X163.868 Y169.273 E.04289
G1 X163.08 Y169.555 E.03713
G1 X162.136 Y169.767 E.04288
G1 X161.303 Y169.849 E.03713
G1 X88.942 Y169.855 E3.20956
G1 X87.864 Y169.767 E.048
G1 X86.92 Y169.555 E.04288
G1 X86.132 Y169.273 E.03714
G1 X85.268 Y168.838 E.04288
G1 X84.572 Y168.373 E.03714
G1 X83.84 Y167.742 E.04289
G1 X83.278 Y167.121 E.03713
G1 X82.662 Y166.232 E.048
G1 X82.227 Y165.368 E.04288
G1 X81.945 Y164.58 E.03714
G1 X81.733 Y163.636 E.04289
G1 X81.645 Y162.558 E.04799
G1 X81.644 Y47.5 E5.10337
G1 X81.716 Y46.478 E.04544
G1 X81.88 Y45.657 E.03713
G1 X82.227 Y44.632 E.048
G1 X82.635 Y43.822 E.04022
M204 S1000
; printing object 1L_foot-Body.stl id:0 copy 0
;WIPE_START
G1 F8640
G1 X83.127 Y43.072 E-.20708
G1 X83.759 Y42.34 E-.22329
G1 X84.572 Y41.627 E-.24984
G1 X85.268 Y41.162 E-.19332
G1 X86.132 Y40.727 E-.22325
G1 X86.92 Y40.445 E-.19333
G1 X87.089 Y40.407 E-.0399
;WIPE_END
G1 E-.07 F2100
G1 Z.5 F720
G1 X86.32 Y44.224 F10800
G1 Z.3 F720
G1 E1.4 F2100
M204 S800
;TYPE:Perimeter
;WIDTH:0.42
G1 F1200
G1 X87.007 Y43.771 E.03651
G1 X87.591 Y43.519 E.0282
G1 X88.167 Y43.349 E.02667
G1 X88.799 Y43.271 E.02824
G1 X161.188 Y43.271 E3.21078
G1 X161.82 Y43.348 E.02825
G1 X162.619 Y43.59 E.03705
G1 X163.351 Y43.981 E.0368
G1 X163.992 Y44.508 E.03679
G1 X164.522 Y45.154 E.03707
G1 X164.823 Y45.685 E.02707
G1 X165.105 Y46.472 E.03707
G1 X165.229 Y47.305 E.03738
G1 X165.227 Y162.644 E5.11582
G1 X165.159 Y163.222 E.0258
G1 X165.008 Y163.824 E.02755
G1 X164.771 Y164.398 E.02755
G1 X164.451 Y164.931 E.02755
G1 X164.055 Y165.413 E.02771
G1 X163.6 Y165.826 E.02725
G1 X163.181 Y166.122 E.02274
G1 X162.711 Y166.359 E.02337
G1 X162.227 Y166.546 E.02298
G1 X161.668 Y166.668 E.02538
G1 X160.984 Y166.734 E.03051
G1 X88.856 Y166.727 E3.19921
G1 X88.278 Y166.659 E.0258
M73 P0 R83
G1 X87.676 Y166.508 E.02755
G1 X87.102 Y166.271 E.02755
G1 X86.569 Y165.951 E.02755
G1 X86.087 Y165.555 E.02771
G1 X85.674 Y165.1 E.02725
G1 X85.378 Y164.681 E.02274
G1 X85.141 Y164.211 E.02337
G1 X84.954 Y163.727 E.02298
G1 X84.832 Y163.168 E.02538
G1 X84.766 Y162.484 E.03051
G1 X84.766 Y47.623 E5.09463
G1 X84.786 Y47.092 E.02356
M73 Q0 S84
G1 X84.894 Y46.472 E.02793
G1 X85.089 Y45.88 E.02762
G1 X85.369 Y45.324 E.02762
G1 X85.724 Y44.82 E.02735
G1 X86.277 Y44.267 E.03468
M204 S1000
G1 X86.09 Y43.951 F10800
M204 S800
;TYPE:External perimeter
G1 F1200
G1 X86.839 Y43.457 E.0398
G1 X87.463 Y43.187 E.03013
G1 X88.102 Y42.999 E.02957
G1 X88.777 Y42.916 E.03018
G1 X161.209 Y42.916 E3.2127
G1 X161.894 Y42.999 E.03058
M73 P1 R83
M73 Q1 S84
G1 X162.756 Y43.26 E.03997
G1 X163.55 Y43.684 E.0399
G1 X164.245 Y44.255 E.0399
G1 X164.817 Y44.952 E.03998
G1 X165.148 Y45.536 E.02979
G1 X165.452 Y46.385 E.03998
G1 X165.584 Y47.279 E.0401
G1 X165.582 Y162.661 E5.11775
G1 X165.51 Y163.282 E.02773
G1 X165.346 Y163.936 E.02987
G1 X165.088 Y164.558 E.02987
G1 X164.742 Y165.135 E.02987
G1 X164.312 Y165.659 E.03003
G1 X163.819 Y166.106 E.02956
G1 X163.365 Y166.427 E.02465
G1 X162.855 Y166.684 E.02533
G1 X162.331 Y166.887 E.02492
G1 X161.729 Y167.019 E.02731
G1 X160.992 Y167.09 E.03284
G1 X88.839 Y167.082 E3.20037
G1 X88.218 Y167.01 E.02773
G1 X87.564 Y166.846 E.02987
G1 X86.942 Y166.588 E.02987
G1 X86.365 Y166.242 E.02987
G1 X85.841 Y165.812 E.03003
G1 X85.394 Y165.319 E.02956
G1 X85.073 Y164.865 E.02465
G1 X84.816 Y164.355 E.02533
G1 X84.613 Y163.831 E.02492
G1 X84.481 Y163.229 E.02731
G1 X84.41 Y162.492 E.03284
G1 X84.41 Y47.623 E5.09501
G1 X84.432 Y47.053 E.02531
G1 X84.548 Y46.385 E.03007
G1 X84.76 Y45.744 E.02995
G1 X85.064 Y45.141 E.02995
G1 X85.451 Y44.59 E.02987
G1 X86.048 Y43.994 E.0374
M204 S1000
G1 X86.463 Y44.097 F10800
;WIPE_START
G1 F8640
G1 X86.839 Y43.457 E-.2208
G1 X87.463 Y43.187 E-.15686
G1 X88.102 Y42.999 E-.15394
G1 X88.777 Y42.916 E-.15711
G1 X91.555 Y42.916 E-.64129
;WIPE_END
G1 E-.07 F2100
G1 Z.5 F720
G1 X92.344 Y50.843 F10800
G1 Z.3 F720
G1 E1.4 F2100
M204 S800
;TYPE:Perimeter
G1 F1200
G1 X92.866 Y50.4 E.03036
G1 X93.512 Y50.043 E.03272
G1 X94.215 Y49.819 E.03272
G1 X94.997 Y49.734 E.0349
G1 X155.003 Y49.734 E2.66157
G1 X155.683 Y49.799 E.03029
G1 X156.392 Y50.003 E.03272
G1 X157.188 Y50.44 E.04029
G1 X157.634 Y50.81 E.02571
G1 X158 Y51.226 E.02457
G1 X158.301 Y51.691 E.02457
G1 X158.531 Y52.195 E.02457
G1 X158.684 Y52.727 E.02457
G1 X158.758 Y53.276 E.02455
G1 X158.766 Y74.003 E.91936
G1 X158.74 Y74.421 E.01856
G1 X158.616 Y75.042 E.02811
G1 X158.26 Y75.878 E.04029
G1 X157.935 Y76.358 E.02571
G1 X157.557 Y76.763 E.02457
G1 X157.124 Y77.108 E.02457
G1 X156.645 Y77.386 E.02455
G1 X155.798 Y77.677 E.03973
G1 X155.224 Y77.758 E.0257
G1 X94.997 Y77.766 E2.67138
G1 X94.579 Y77.74 E.01856
G1 X93.958 Y77.616 E.02811
G1 X93.122 Y77.26 E.04029
G1 X92.642 Y76.935 E.02571
G1 X92.237 Y76.557 E.02455
G1 X91.713 Y75.831 E.03973
G1 X91.367 Y74.977 E.04088
G1 X91.238 Y74.069 E.04069
G1 X91.238 Y53.341 E.91936
G1 X91.285 Y52.896 E.01986
G1 X91.439 Y52.281 E.0281
G1 X91.745 Y51.61 E.03272
G1 X92.299 Y50.882 E.04055
M204 S1000
G1 X92.574 Y51.105 F10800
M204 S800
;TYPE:External perimeter
G1 F1200
G1 X93.091 Y50.675 E.02985
G1 X93.679 Y50.357 E.02964
G1 X94.318 Y50.16 E.02964
G1 X94.997 Y50.09 E.03027
G1 X155.003 Y50.09 E2.66157
G1 X155.648 Y50.153 E.02874
G1 X156.289 Y50.344 E.02964
G1 X157.013 Y50.749 E.03683
G1 X157.402 Y51.08 E.02263
G1 X157.731 Y51.458 E.02225
G1 X158.001 Y51.881 E.02225
G1 X158.206 Y52.339 E.02225
G1 X158.342 Y52.822 E.02225
G1 X158.405 Y53.319 E.02223
G1 X158.41 Y74.003 E.91743
G1 X158.391 Y74.352 E.01547
G1 X158.267 Y74.973 E.02811
G1 X157.935 Y75.734 E.03683
G1 X157.644 Y76.153 E.02263
G1 X157.299 Y76.518 E.02225
G1 X156.905 Y76.828 E.02225
G1 X156.47 Y77.077 E.02223
G1 X155.686 Y77.339 E.03665
G1 X155.181 Y77.405 E.02262
G1 X94.997 Y77.41 E2.66945
G1 X94.648 Y77.391 E.01547
G1 X94.027 Y77.267 E.02811
G1 X93.266 Y76.935 E.03683
G1 X92.847 Y76.644 E.02263
G1 X92.483 Y76.3 E.02223
G1 X92.004 Y75.626 E.03666
G1 X91.699 Y74.849 E.03704
G1 X91.59 Y74.003 E.03782
G1 X91.594 Y53.341 E.91645
G1 X91.63 Y52.983 E.016
G1 X91.784 Y52.368 E.0281
G1 X92.067 Y51.762 E.02964
G1 X92.537 Y51.153 E.03415
M204 S1000
G1 X92.465 Y50.72 F10800
;WIPE_START
G1 F8640
G1 X93.091 Y50.675 E-.16895
G1 X93.679 Y50.357 E-.15432
G1 X94.318 Y50.16 E-.15432
G1 X94.997 Y50.09 E-.1576
G1 X98.006 Y50.09 E-.69482
;WIPE_END
G1 E-.07 F2100
G1 Z.5 F720
G1 X91.28 Y93.443 F10800
G1 Z.3 F720
G1 E1.4 F2100
M204 S800
;TYPE:Perimeter
G1 F1200
G1 X91.439 Y92.781 E.03018
G1 X91.745 Y92.11 E.03272
G1 X92.294 Y91.387 E.04027
G1 X92.866 Y90.9 E.03331
G1 X93.512 Y90.543 E.03272
G1 X94.215 Y90.319 E.03272
G1 X94.997 Y90.234 E.03492
G1 X155.004 Y90.234 E2.66157
G1 X155.977 Y90.367 E.04358
G1 X156.715 Y90.651 E.03508
G1 X157.477 Y91.169 E.04085
G1 X158.091 Y91.856 E.04087
G1 X158.386 Y92.355 E.02571
G1 X158.585 Y92.853 E.0238
G1 X158.762 Y93.841 E.0445
G1 X158.766 Y124.004 E1.33786
G1 X158.729 Y124.513 E.02266
G1 X158.507 Y125.363 E.03895
G1 X158.061 Y126.187 E.04154
G1 X157.437 Y126.866 E.04094
G1 X156.969 Y127.209 E.02572
G1 X156.477 Y127.463 E.02455
G1 X155.617 Y127.711 E.03973
G1 X155.004 Y127.766 E.02729
G1 X94.996 Y127.766 E2.66161
G1 X94.023 Y127.633 E.04359
G1 X93.285 Y127.349 E.03508
G1 X92.523 Y126.831 E.04085
G1 X91.909 Y126.144 E.04087
G1 X91.614 Y125.645 E.02572
G1 X91.409 Y125.131 E.02455
G1 X91.238 Y124.159 E.04376
G1 X91.238 Y93.841 E1.34473
G1 X91.274 Y93.503 E.01511
M204 S1000
G1 X91.63 Y93.483 F10800
M204 S800
;TYPE:External perimeter
G1 F1200
G1 X91.784 Y92.868 E.02811
G1 X92.067 Y92.262 E.02964
G1 X92.574 Y91.605 E.03681
G1 X93.091 Y91.175 E.02985
G1 X93.679 Y90.857 E.02964
G1 X94.318 Y90.66 E.02964
G1 X94.997 Y90.59 E.03029
G1 X155.004 Y90.59 E2.66157
G1 X155.849 Y90.699 E.03782
M73 P2 R82
G1 X156.587 Y90.983 E.03508
G1 X157.273 Y91.459 E.03702
G1 X157.822 Y92.088 E.03704
G1 X158.077 Y92.53 E.02263
G1 X158.263 Y93.015 E.02304
G1 X158.406 Y93.841 E.03717
G1 X158.41 Y124.004 E1.33786
G1 X158.373 Y124.505 E.02228
M73 Q2 S84
G1 X158.164 Y125.269 E.03513
G1 X157.751 Y126.012 E.03771
G1 X157.179 Y126.621 E.03706
G1 X156.764 Y126.918 E.02263
G1 X156.317 Y127.145 E.02223
G1 X155.522 Y127.369 E.03666
G1 X155.004 Y127.41 E.02305
G1 X94.996 Y127.41 E2.66161
G1 X94.193 Y127.312 E.03591
M73 Q2 S83
G1 X93.413 Y127.017 E.03699
G1 X92.727 Y126.541 E.03702
G1 X92.178 Y125.912 E.03703
G1 X91.923 Y125.47 E.02263
G1 X91.741 Y125.003 E.02223
G1 X91.594 Y124.159 E.03799
G1 X91.594 Y93.841 E1.34473
G1 X91.624 Y93.542 E.01334
M204 S1000
G1 X91.321 Y93.229 F10800
;WIPE_START
G1 F8640
G1 X91.784 Y92.868 E-.16003
G1 X92.067 Y92.262 E-.15432
G1 X92.574 Y91.605 E-.19163
G1 X93.091 Y91.175 E-.1554
G1 X93.679 Y90.857 E-.15432
G1 X94.318 Y90.66 E-.15432
G1 X94.997 Y90.59 E-.15769
G1 X95.873 Y90.59 E-.20228
;WIPE_END
G1 E-.07 F2100
G1 Z.5 F720
G1 X157.383 Y159.405 F10800
G1 Z.3 F720
G1 E1.4 F2100
M204 S800
;TYPE:Perimeter
G1 F1200
G1 X156.667 Y159.873 E.03792
G1 X155.798 Y160.177 E.04085
G1 X155.159 Y160.262 E.02859
G1 X94.996 Y160.266 E2.6685
G1 X94.487 Y160.229 E.02266
G1 X93.621 Y160 E.03973
G1 X93.098 Y159.749 E.02572
G1 X92.642 Y159.435 E.02457
G1 X92.264 Y159.082 E.02294
G1 X91.892 Y158.624 E.02618
G1 X91.614 Y158.145 E.02457
G1 X91.409 Y157.63 E.02457
G1 X91.282 Y157.091 E.02457
G1 X91.234 Y156.503 E.02615
G1 X91.238 Y143.841 E.56163
G1 X91.285 Y143.396 E.01985
G1 X91.439 Y142.781 E.0281
G1 X91.745 Y142.11 E.03272
G1 X92.294 Y141.387 E.04027
G1 X92.866 Y140.9 E.03331
G1 X93.512 Y140.543 E.03272
G1 X94.215 Y140.319 E.03272
G1 X94.997 Y140.234 E.0349
G1 X155.004 Y140.234 E2.66159
G1 X155.513 Y140.271 E.02266
G1 X156.379 Y140.5 E.03973
G1 X156.902 Y140.751 E.02572
G1 X157.358 Y141.065 E.02457
G1 X157.763 Y141.443 E.02457
G1 X158.108 Y141.876 E.02457
G1 X158.386 Y142.355 E.02457
G1 X158.591 Y142.87 E.02457
G1 X158.718 Y143.409 E.02457
G1 X158.766 Y143.996 E.02614
G1 X158.766 Y156.504 E.55476
G1 X158.729 Y157.013 E.02266
G1 X158.5 Y157.879 E.03973
G1 X158.06 Y158.688 E.04086
G1 X157.426 Y159.363 E.04108
M204 S1000
G1 X157.146 Y159.149 F10800
M204 S800
;TYPE:External perimeter
G1 F1200
G1 X156.477 Y159.572 E.0351
G1 X155.686 Y159.839 E.03701
G1 X155.159 Y159.906 E.02358
G1 X94.996 Y159.91 E2.6685
G1 X94.479 Y159.869 E.02303
G1 X93.716 Y159.658 E.03512
G1 X93.258 Y159.431 E.02263
G1 X92.847 Y159.144 E.02225
G1 X92.482 Y158.799 E.02225
G1 X92.172 Y158.405 E.02225
G1 X91.923 Y157.97 E.02225
G1 X91.741 Y157.502 E.02225
G1 X91.629 Y157.013 E.02225
G1 X91.59 Y156.504 E.02267
G1 X91.594 Y143.841 E.56163
G1 X91.63 Y143.483 E.016
G1 X91.784 Y142.868 E.0281
G1 X92.067 Y142.262 E.02964
G1 X92.574 Y141.605 E.03681
G1 X93.091 Y141.175 E.02985
G1 X93.679 Y140.857 E.02964
G1 X94.318 Y140.66 E.02964
G1 X94.997 Y140.59 E.03027
G1 X155.004 Y140.59 E2.66159
G1 X155.505 Y140.627 E.02228
G1 X156.284 Y140.842 E.03587
G1 X156.742 Y141.069 E.02263
G1 X157.153 Y141.356 E.02225
G1 X157.518 Y141.701 E.02225
G1 X157.828 Y142.095 E.02225
G1 X158.077 Y142.53 E.02225
G1 X158.259 Y142.998 E.02225
G1 X158.371 Y143.487 E.02225
G1 X158.41 Y143.996 E.02267
G1 X158.41 Y156.504 E.55476
G1 X158.373 Y157.005 E.02228
G1 X158.158 Y157.784 E.03587
G1 X157.751 Y158.513 E.03702
G1 X157.188 Y159.106 E.03627
M204 S1000
G1 X157.211 Y159.544 F10800
;WIPE_START
G1 F8640
G1 X156.477 Y159.572 E-.19625
G1 X155.686 Y159.839 E-.19269
G1 X155.159 Y159.906 E-.12277
G1 X151.615 Y159.906 E-.81829
;WIPE_END
G1 E-.07 F2100
G1 Z.5 F720
G1 X162.169 Y43.565 F10800
G1 Z.3 F720
G1 E1.4 F2100
M204 S800
;TYPE:Solid infill
;WIDTH:0.420102
G1 F1200
G1 X164.68 Y46.077 E.15759
G1 X164.845 Y46.537 E.02168
G1 X164.881 Y46.781 E.01093
G1 X161.703 Y43.602 E.19942
G1 X161.135 Y43.538 E.02534
G1 X164.962 Y47.364 E.2401
G1 X164.962 Y47.868 E.02232
G1 X160.632 Y43.538 E.27167
G1 X160.129 Y43.538 E.02232
G1 X164.962 Y48.371 E.30323
G1 X164.962 Y48.874 E.02232
G1 X159.626 Y43.538 E.3348
G1 X159.123 Y43.538 E.02232
G1 X164.962 Y49.377 E.36637
G1 X164.962 Y49.88 E.02232
G1 X158.62 Y43.538 E.39793
G1 X158.117 Y43.538 E.02232
G1 X164.962 Y50.383 E.4295
G1 X164.962 Y50.886 E.02232
G1 X157.614 Y43.538 E.46107
G1 X157.111 Y43.538 E.02232
G1 X164.962 Y51.389 E.49263
G1 X164.962 Y51.892 E.02232
G1 X156.608 Y43.538 E.5242
G1 X156.105 Y43.538 E.02232
G1 X164.962 Y52.395 E.55576
G1 X164.962 Y52.898 E.02232
G1 X155.602 Y43.538 E.58733
G1 X155.098 Y43.538 E.02232
G1 X164.962 Y53.402 E.6189
G1 X164.962 Y53.905 E.02232
G1 X154.595 Y43.538 E.65046
G1 X154.092 Y43.538 E.02232
G1 X164.962 Y54.408 E.68203
G1 X164.962 Y54.911 E.02232
G1 X153.589 Y43.538 E.7136
G1 X153.086 Y43.538 E.02232
G1 X164.962 Y55.414 E.74516
G1 X164.962 Y55.917 E.02232
G1 X152.583 Y43.538 E.77673
G1 X152.08 Y43.538 E.02232
G1 X164.962 Y56.42 E.80829
G1 X164.962 Y56.923 E.02232
G1 X151.577 Y43.538 E.83986
G1 X151.074 Y43.538 E.02232
G1 X164.962 Y57.426 E.87143
G1 X164.962 Y57.929 E.02232
G1 X150.571 Y43.538 E.90299
G1 X150.068 Y43.538 E.02232
G1 X156.202 Y49.672 E.3849
G1 X155.717 Y49.534 E.02238
G1 X155.545 Y49.518 E.00766
G1 X149.565 Y43.538 E.37523
G1 X149.062 Y43.538 E.02232
G1 X154.992 Y49.468 E.37207
G1 X154.488 Y49.468 E.02232
G1 X148.559 Y43.538 E.37207
G1 X148.056 Y43.538 E.02232
G1 X153.985 Y49.468 E.37206
G1 X153.482 Y49.468 E.02232
G1 X147.553 Y43.538 E.37206
G1 X147.049 Y43.538 E.02232
G1 X152.979 Y49.468 E.37206
G1 X152.476 Y49.468 E.02232
G1 X146.546 Y43.538 E.37206
G1 X146.043 Y43.538 E.02232
G1 X151.973 Y49.468 E.37206
G1 X151.47 Y49.468 E.02232
G1 X145.54 Y43.538 E.37206
G1 X145.037 Y43.538 E.02232
G1 X150.967 Y49.468 E.37206
G1 X150.464 Y49.468 E.02232
G1 X144.534 Y43.538 E.37206
G1 X144.031 Y43.538 E.02232
G1 X149.961 Y49.468 E.37206
G1 X149.458 Y49.468 E.02232
G1 X143.528 Y43.538 E.37206
G1 X143.025 Y43.538 E.02232
