; generated by PrusaSlicer 2.5.0 on 2023-03-12 at 09:45:28 UTC


;
;
; 

; external perimeters extrusion width = 0.60mm
; perimeters extrusion width = 0.50mm
; infill extrusion width = 0.50mm
; solid infill extrusion width = 0.50mm
; top infill extrusion width = 0.45mm
; support material extrusion width = 0.38mm
; first layer extrusion width = 0.42mm

M73 P0 R89
M73 Q0 S90
M201 X1000 Y1000 Z200 E5000 ; sets maximum accelerations, mm/sec^2
M203 X200 Y200 Z12 E120 ; sets maximum feedrates, mm / sec
M204 P1250 R1250 T1250 ; sets acceleration (P, T) and retract acceleration (R), mm/sec^2
M205 X8.00 Y8.00 Z0.40 E4.50 ; sets the jerk limits, mm/sec
M205 S0 T0 ; sets the minimum extruding and travel feed rate, mm/sec
M107 ; disable fan
;TYPE:Custom
M862.3 P "MK3S" ; printer model check
M862.1 P0.4 ; nozzle diameter check
M115 U3.11.0 ; tell printer latest fw version
G90 ; use absolute coordinates
M83 ; extruder relative mode
M104 S240 ; set extruder temp
M140 S95 ; set bed temp
M190 S95 ; wait for bed temp
M109 S240 ; wait for extruder temp
G28 W ; home all without mesh bed level
G80 ; mesh bed leveling

G1 Z0.2 F720
G1 Y-3 F1000 ; go outside print area
G92 E0
G1 X60 E9 F1000 ; intro line
G1 X100 E12.5 F1000 ; intro line

G92 E0
M221 S95

; Don't change E values below. Excessive value can damage the printer.

M907 E538 ; set extruder motor current
G21 ; set units to millimeters
G90 ; use absolute coordinates
M83 ; use relative distances for extrusion
M900 K0.08 ; Filament gcode LA 1.5
M900 K45 ; Filament gcode LA 1.0
M107 ; disable fan
;LAYER_CHANGE
;Z:0.3
;HEIGHT:0.3
;BEFORE_LAYER_CHANGE
G92 E0.0
;0.3


M73 P0 R88
G1 E-1.4 F2100 ; retract
M73 Q0 S89
G1 Z.2 F720 ; lift Z
G1 Z.3 ; move to next layer (0)
;AFTER_LAYER_CHANGE
;0.3
G1 Z.5 ; lift Z
G1 X82.662 Y43.768 F10800 ; move to first skirt point
G1 Z.3 F720 ; restore layer Z
G1 E1.4 F2100 ;  ; unretract
M204 S800 ; adjust acceleration
;TYPE:Skirt/Brim
;WIDTH:0.42
G1 F1200
G1 X83.278 Y42.879 E.048 ; skirt
G1 X83.84 Y42.258 E.03713 ; skirt
G1 X84.572 Y41.627 E.04289 ; skirt
G1 X85.268 Y41.162 E.03714 ; skirt
G1 X86.132 Y40.727 E.04289 ; skirt
G1 X86.92 Y40.445 E.03714 ; skirt
G1 X87.864 Y40.233 E.04288 ; skirt
G1 X88.697 Y40.151 E.03713 ; skirt
G1 X161.058 Y40.145 E3.20956 ; skirt
G1 X162.492 Y40.298 E.06395 ; skirt
G1 X163.761 Y40.683 E.05885 ; skirt
G1 X164.846 Y41.231 E.05392 ; skirt
G1 X165.982 Y42.089 E.06314 ; skirt
G1 X166.942 Y43.165 E.06395 ; skirt
G1 X167.673 Y44.408 E.06396 ; skirt
G1 X168.12 Y45.657 E.05885 ; skirt
G1 X168.343 Y47.081 E.06395 ; skirt
G1 X168.356 Y162.5 E5.11937 ; skirt
G1 X168.284 Y163.522 E.04544 ; skirt
G1 X168.12 Y164.343 E.03713 ; skirt
G1 X167.773 Y165.368 E.048 ; skirt
G1 X167.338 Y166.232 E.04289 ; skirt
G1 X166.873 Y166.928 E.03713 ; skirt
G1 X166.16 Y167.741 E.04799 ; skirt
G1 X165.428 Y168.373 E.04289 ; skirt
G1 X164.732 Y168.838 E.03713 ; skirt
G1 X163.868 Y169.273 E.04289 ; skirt
G1 X163.08 Y169.555 E.03714 ; skirt
G1 X162.136 Y169.767 E.04288 ; skirt
G1 X161.303 Y169.849 E.03713 ; skirt
G1 X88.942 Y169.855 E3.20956 ; skirt
G1 X87.864 Y169.767 E.048 ; skirt
G1 X86.92 Y169.555 E.04288 ; skirt
G1 X86.132 Y169.273 E.03714 ; skirt
G1 X85.268 Y168.838 E.04288 ; skirt
G1 X84.379 Y168.222 E.048 ; skirt
G1 X83.759 Y167.66 E.03713 ; skirt
G1 X83.127 Y166.928 E.04289 ; skirt
G1 X82.662 Y166.232 E.03714 ; skirt
G1 X82.227 Y165.368 E.04289 ; skirt
G1 X81.945 Y164.58 E.03714 ; skirt
G1 X81.716 Y163.522 E.04799 ; skirt
G1 X81.645 Y162.558 E.04288 ; skirt
G1 X81.644 Y47.5 E5.10337 ; skirt
G1 X81.716 Y46.478 E.04544 ; skirt
G1 X81.88 Y45.657 E.03713 ; skirt
G1 X82.227 Y44.632 E.048 ; skirt
G1 X82.635 Y43.822 E.04022 ; skirt
M204 S1000 ; adjust acceleration
; printing object 1L_foot_bearing_Body.stl id:0 copy 0
;WIPE_START
G1 F8640
G1 X83.278 Y42.879 E-.26359 ; wipe and retract
G1 X83.84 Y42.258 E-.19331 ; wipe and retract
G1 X84.572 Y41.627 E-.22327 ; wipe and retract
G1 X85.268 Y41.162 E-.19332 ; wipe and retract
G1 X86.132 Y40.727 E-.22325 ; wipe and retract
G1 X86.92 Y40.445 E-.19332 ; wipe and retract
G1 X87.089 Y40.407 E-.03994 ; wipe and retract
;WIPE_END
G1 E-.07 F2100 ; retract
G1 Z.5 F720 ; lift Z
G1 X86.32 Y44.224 F10800 ; move to first perimeter point
G1 Z.3 F720 ; restore layer Z
G1 E1.4 F2100 ;  ; unretract
M204 S800 ; adjust acceleration
;TYPE:Perimeter
;WIDTH:0.42
G1 F1200
G1 X87.007 Y43.771 E.03651 ; perimeter
G1 X87.591 Y43.519 E.0282 ; perimeter
G1 X88.167 Y43.349 E.02667 ; perimeter
G1 X88.799 Y43.271 E.02824 ; perimeter
G1 X161.188 Y43.271 E3.21078 ; perimeter
G1 X161.82 Y43.348 E.02825 ; perimeter
G1 X162.619 Y43.59 E.03705 ; perimeter
G1 X163.351 Y43.981 E.0368 ; perimeter
G1 X163.992 Y44.508 E.03679 ; perimeter
G1 X164.522 Y45.154 E.03707 ; perimeter
G1 X164.823 Y45.685 E.02707 ; perimeter
G1 X165.105 Y46.472 E.03707 ; perimeter
G1 X165.229 Y47.305 E.03738 ; perimeter
G1 X165.227 Y162.644 E5.11582 ; perimeter
G1 X165.159 Y163.222 E.0258 ; perimeter
G1 X165.008 Y163.824 E.02755 ; perimeter
G1 X164.771 Y164.398 E.02755 ; perimeter
G1 X164.451 Y164.931 E.02755 ; perimeter
G1 X164.057 Y165.411 E.02755 ; perimeter
G1 X163.597 Y165.828 E.02755 ; perimeter
G1 X163.174 Y166.127 E.02298 ; perimeter
G1 X162.711 Y166.359 E.02299 ; perimeter
G1 X162.227 Y166.546 E.02298 ; perimeter
G1 X161.668 Y166.668 E.02538 ; perimeter
G1 X160.984 Y166.734 E.03051 ; perimeter
G1 X88.856 Y166.727 E3.19921 ; perimeter
G1 X88.278 Y166.659 E.0258 ; perimeter
G1 X87.676 Y166.508 E.02755 ; perimeter
G1 X87.102 Y166.271 E.02755 ; perimeter
G1 X86.569 Y165.951 E.02755 ; perimeter
G1 X86.089 Y165.557 E.02755 ; perimeter
G1 X85.672 Y165.097 E.02755 ; perimeter
G1 X85.373 Y164.674 E.02298 ; perimeter
G1 X85.141 Y164.211 E.02299 ; perimeter
G1 X84.954 Y163.727 E.02298 ; perimeter
G1 X84.832 Y163.168 E.02538 ; perimeter
G1 X84.766 Y162.484 E.03051 ; perimeter
G1 X84.766 Y47.516 E5.09935 ; perimeter
G1 X84.786 Y47.092 E.01884 ; perimeter
G1 X84.894 Y46.472 E.02793 ; perimeter
G1 X85.089 Y45.88 E.02762 ; perimeter
G1 X85.369 Y45.324 E.02762 ; perimeter
G1 X85.724 Y44.82 E.02735 ; perimeter
G1 X86.277 Y44.267 E.03468 ; perimeter
M204 S1000 ; adjust acceleration
G1 X86.09 Y43.951 F10800 ; move to first perimeter point
M204 S800 ; adjust acceleration
;TYPE:External perimeter
G1 F1200
G1 X86.839 Y43.457 E.0398 ; perimeter
G1 X87.463 Y43.187 E.03013 ; perimeter
G1 X88.102 Y42.999 E.02957 ; perimeter
G1 X88.777 Y42.916 E.03018 ; perimeter
G1 X161.209 Y42.916 E3.2127 ; perimeter
G1 X161.894 Y42.999 E.03058 ; perimeter
G1 X162.756 Y43.26 E.03997 ; perimeter
G1 X163.55 Y43.684 E.0399 ; perimeter
G1 X164.245 Y44.255 E.0399 ; perimeter
G1 X164.817 Y44.952 E.03998 ; perimeter
G1 X165.148 Y45.536 E.02979 ; perimeter
G1 X165.452 Y46.385 E.03998 ; perimeter
G1 X165.584 Y47.279 E.0401 ; perimeter
G1 X165.582 Y162.661 E5.11775 ; perimeter
G1 X165.51 Y163.282 E.02773 ; perimeter
M73 P1 R88
M73 Q1 S89
G1 X165.346 Y163.936 E.02987 ; perimeter
G1 X165.088 Y164.558 E.02987 ; perimeter
G1 X164.742 Y165.135 E.02987 ; perimeter
G1 X164.315 Y165.656 E.02987 ; perimeter
G1 X163.816 Y166.108 E.02987 ; perimeter
G1 X163.357 Y166.432 E.02492 ; perimeter
G1 X162.855 Y166.684 E.02492 ; perimeter
G1 X162.331 Y166.887 E.02492 ; perimeter
G1 X161.729 Y167.019 E.02731 ; perimeter
G1 X160.992 Y167.09 E.03284 ; perimeter
G1 X88.839 Y167.082 E3.20037 ; perimeter
G1 X88.218 Y167.01 E.02773 ; perimeter
G1 X87.564 Y166.846 E.02987 ; perimeter
G1 X86.942 Y166.588 E.02987 ; perimeter
G1 X86.365 Y166.242 E.02987 ; perimeter
G1 X85.844 Y165.815 E.02987 ; perimeter
G1 X85.392 Y165.316 E.02987 ; perimeter
G1 X85.068 Y164.857 E.02492 ; perimeter
G1 X84.816 Y164.355 E.02492 ; perimeter
G1 X84.613 Y163.831 E.02492 ; perimeter
G1 X84.481 Y163.229 E.02731 ; perimeter
G1 X84.41 Y162.492 E.03284 ; perimeter
G1 X84.41 Y47.508 E5.10012 ; perimeter
G1 X84.432 Y47.053 E.0202 ; perimeter
M73 P1 R87
M73 Q1 S88
G1 X84.548 Y46.385 E.03006 ; perimeter
G1 X84.76 Y45.744 E.02995 ; perimeter
G1 X85.064 Y45.141 E.02995 ; perimeter
G1 X85.451 Y44.59 E.02987 ; perimeter
G1 X86.048 Y43.994 E.0374 ; perimeter
M204 S1000 ; adjust acceleration
G1 X86.463 Y44.097 F10800 ; move inwards before travel
;WIPE_START
G1 F8640
G1 X86.839 Y43.457 E-.2208 ; wipe and retract
G1 X87.463 Y43.187 E-.15686 ; wipe and retract
G1 X88.102 Y42.999 E-.15394 ; wipe and retract
G1 X88.777 Y42.916 E-.15711 ; wipe and retract
G1 X91.555 Y42.916 E-.6413 ; wipe and retract
;WIPE_END
G1 E-.07 F2100 ; retract
G1 Z.5 F720 ; lift Z
G1 X92.344 Y50.843 F10800 ; move to first perimeter point
G1 Z.3 F720 ; restore layer Z
G1 E1.4 F2100 ;  ; unretract
M204 S800 ; adjust acceleration
;TYPE:Perimeter
G1 F1200
G1 X92.866 Y50.4 E.03036 ; perimeter
G1 X93.512 Y50.043 E.03272 ; perimeter
G1 X94.215 Y49.819 E.03272 ; perimeter
G1 X94.997 Y49.734 E.0349 ; perimeter
G1 X155.003 Y49.734 E2.66157 ; perimeter
G1 X155.421 Y49.76 E.01856 ; perimeter
G1 X156.042 Y49.884 E.0281 ; perimeter
G1 X156.878 Y50.24 E.04029 ; perimeter
G1 X157.358 Y50.565 E.02572 ; perimeter
G1 X157.736 Y50.917 E.02293 ; perimeter
G1 X158.287 Y51.669 E.04133 ; perimeter
G1 X158.531 Y52.195 E.02571 ; perimeter
G1 X158.684 Y52.727 E.02457 ; perimeter
G1 X158.758 Y53.276 E.02455 ; perimeter
G1 X158.766 Y74.003 E.91936 ; perimeter
G1 X158.74 Y74.421 E.01856 ; perimeter
G1 X158.616 Y75.042 E.0281 ; perimeter
G1 X158.26 Y75.878 E.04029 ; perimeter
G1 X157.935 Y76.358 E.02572 ; perimeter
G1 X157.557 Y76.763 E.02457 ; perimeter
G1 X157.124 Y77.108 E.02457 ; perimeter
G1 X156.645 Y77.386 E.02457 ; perimeter
G1 X156.131 Y77.591 E.02455 ; perimeter
G1 X155.543 Y77.703 E.02653 ; perimeter
G1 X155.003 Y77.762 E.02408 ; perimeter
G1 X94.997 Y77.766 E2.66157 ; perimeter
G1 X94.317 Y77.701 E.03029 ; perimeter
G1 X93.608 Y77.497 E.03272 ; perimeter
G1 X92.812 Y77.06 E.04029 ; perimeter
G1 X92.366 Y76.69 E.02571 ; perimeter
G1 X92 Y76.274 E.02457 ; perimeter
G1 X91.699 Y75.809 E.02455 ; perimeter
G1 X91.367 Y74.977 E.03973 ; perimeter
G1 X91.234 Y74.003 E.04361 ; perimeter
G1 X91.238 Y53.341 E.91645 ; perimeter
G1 X91.285 Y52.896 E.01986 ; perimeter
G1 X91.439 Y52.281 E.02811 ; perimeter
G1 X91.745 Y51.61 E.03272 ; perimeter
G1 X92.299 Y50.882 E.04055 ; perimeter
M204 S1000 ; adjust acceleration
G1 X92.574 Y51.105 F10800 ; move to first perimeter point
M204 S800 ; adjust acceleration
;TYPE:External perimeter
G1 F1200
G1 X93.091 Y50.675 E.02985 ; perimeter
G1 X93.679 Y50.357 E.02964 ; perimeter
G1 X94.318 Y50.16 E.02964 ; perimeter
G1 X94.997 Y50.09 E.03027 ; perimeter
G1 X155.003 Y50.09 E2.66157 ; perimeter
G1 X155.352 Y50.109 E.01547 ; perimeter
G1 X155.973 Y50.232 E.0281 ; perimeter
G1 X156.734 Y50.565 E.03683 ; perimeter
G1 X157.153 Y50.856 E.02263 ; perimeter
G1 X157.517 Y51.2 E.02224 ; perimeter
G1 X157.996 Y51.874 E.03665 ; perimeter
G1 X158.206 Y52.339 E.02263 ; perimeter
G1 X158.342 Y52.822 E.02225 ; perimeter
G1 X158.405 Y53.319 E.02223 ; perimeter
G1 X158.41 Y74.003 E.91743 ; perimeter
G1 X158.391 Y74.352 E.01547 ; perimeter
G1 X158.267 Y74.973 E.0281 ; perimeter
G1 X157.935 Y75.734 E.03683 ; perimeter
G1 X157.644 Y76.153 E.02263 ; perimeter
G1 X157.299 Y76.518 E.02225 ; perimeter
G1 X156.905 Y76.828 E.02225 ; perimeter
G1 X156.47 Y77.077 E.02225 ; perimeter
G1 X156.003 Y77.259 E.02224 ; perimeter
G1 X155.482 Y77.353 E.02346 ; perimeter
G1 X155.003 Y77.406 E.02138 ; perimeter
G1 X94.997 Y77.41 E2.66157 ; perimeter
G1 X94.352 Y77.347 E.02874 ; perimeter
G1 X93.711 Y77.156 E.02964 ; perimeter
G1 X92.987 Y76.751 E.03683 ; perimeter
G1 X92.598 Y76.42 E.02263 ; perimeter
G1 X92.269 Y76.042 E.02225 ; perimeter
G1 X91.999 Y75.619 E.02224 ; perimeter
G1 X91.699 Y74.849 E.03665 ; perimeter
G1 X91.59 Y74.003 E.03784 ; perimeter
G1 X91.594 Y53.341 E.91645 ; perimeter
G1 X91.63 Y52.983 E.016 ; perimeter
G1 X91.784 Y52.368 E.02811 ; perimeter
G1 X92.067 Y51.762 E.02964 ; perimeter
G1 X92.537 Y51.153 E.03415 ; perimeter
M204 S1000 ; adjust acceleration
G1 X92.465 Y50.72 F10800 ; move inwards before travel
;WIPE_START
G1 F8640
G1 X93.091 Y50.675 E-.16895 ; wipe and retract
G1 X93.679 Y50.357 E-.15432 ; wipe and retract
G1 X94.318 Y50.16 E-.15432 ; wipe and retract
G1 X94.997 Y50.09 E-.15759 ; wipe and retract
G1 X98.006 Y50.09 E-.69481 ; wipe and retract
;WIPE_END
G1 E-.07 F2100 ; retract
G1 Z.5 F720 ; lift Z
G1 X91.786 Y92.056 F10800 ; move to first perimeter point
G1 Z.3 F720 ; restore layer Z
G1 E1.4 F2100 ;  ; unretract
M204 S800 ; adjust acceleration
;TYPE:Perimeter
G1 F1200
G1 X92.294 Y91.387 E.03728 ; perimeter
G1 X92.866 Y90.9 E.03331 ; perimeter
G1 X93.512 Y90.543 E.03272 ; perimeter
G1 X94.215 Y90.319 E.03272 ; perimeter
G1 X94.997 Y90.234 E.03492 ; perimeter
G1 X155.004 Y90.234 E2.66157 ; perimeter
G1 X155.977 Y90.367 E.04359 ; perimeter
G1 X156.715 Y90.651 E.03508 ; perimeter
G1 X157.478 Y91.169 E.04085 ; perimeter
G1 X158.092 Y91.856 E.04087 ; perimeter
G1 X158.386 Y92.355 E.02571 ; perimeter
G1 X158.591 Y92.87 E.02457 ; perimeter
G1 X158.762 Y93.841 E.04376 ; perimeter
G1 X158.766 Y124.004 E1.33784 ; perimeter
G1 X158.729 Y124.513 E.02266 ; perimeter
G1 X158.507 Y125.363 E.03896 ; perimeter
G1 X158.061 Y126.187 E.04154 ; perimeter
G1 X157.437 Y126.866 E.04094 ; perimeter
G1 X156.969 Y127.208 E.0257 ; perimeter
G1 X156.155 Y127.581 E.03973 ; perimeter
G1 X155.591 Y127.718 E.02572 ; perimeter
G1 X155.004 Y127.766 E.02614 ; perimeter
G1 X94.996 Y127.766 E2.66161 ; perimeter
G1 X94.023 Y127.633 E.04359 ; perimeter
G1 X93.284 Y127.348 E.0351 ; perimeter
G1 X92.522 Y126.831 E.04086 ; perimeter
G1 X91.908 Y126.144 E.04085 ; perimeter
G1 X91.614 Y125.645 E.02571 ; perimeter
G1 X91.409 Y125.131 E.02455 ; perimeter
G1 X91.238 Y124.159 E.04376 ; perimeter
G1 X91.238 Y93.841 E1.34473 ; perimeter
G1 X91.285 Y93.396 E.01986 ; perimeter
G1 X91.439 Y92.781 E.02811 ; perimeter
G1 X91.75 Y92.104 E.03304 ; perimeter
M204 S1000 ; adjust acceleration
G1 X92.067 Y92.262 F10800 ; move to first perimeter point
M204 S800 ; adjust acceleration
;TYPE:External perimeter
G1 F1200
G1 X92.574 Y91.605 E.03681 ; perimeter
G1 X93.091 Y91.175 E.02985 ; perimeter
G1 X93.679 Y90.857 E.02964 ; perimeter
G1 X94.318 Y90.66 E.02964 ; perimeter
G1 X94.997 Y90.59 E.03029 ; perimeter
G1 X155.004 Y90.59 E2.66157 ; perimeter
G1 X155.849 Y90.699 E.03782 ; perimeter
G1 X156.587 Y90.983 E.03508 ; perimeter
G1 X157.273 Y91.459 E.03702 ; perimeter
G1 X157.822 Y92.088 E.03704 ; perimeter
G1 X158.077 Y92.53 E.02263 ; perimeter
G1 X158.259 Y92.998 E.02225 ; perimeter
G1 X158.406 Y93.841 E.03799 ; perimeter
G1 X158.41 Y124.004 E1.33784 ; perimeter
G1 X158.373 Y124.505 E.02228 ; perimeter
G1 X158.164 Y125.269 E.03514 ; perimeter
G1 X157.751 Y126.012 E.03771 ; perimeter
G1 X157.179 Y126.621 E.03706 ; perimeter
G1 X156.764 Y126.918 E.02262 ; perimeter
G1 X156.01 Y127.256 E.03665 ; perimeter
G1 X155.513 Y127.371 E.02263 ; perimeter
G1 X155.01 Y127.41 E.02238 ; perimeter
G1 X94.996 Y127.41 E2.6619 ; perimeter
G1 X94.193 Y127.312 E.03591 ; perimeter
G1 X93.412 Y127.017 E.03701 ; perimeter
G1 X92.727 Y126.54 E.03702 ; perimeter
G1 X92.178 Y125.912 E.03702 ; perimeter
G1 X91.923 Y125.47 E.02263 ; perimeter
G1 X91.741 Y125.003 E.02223 ; perimeter
G1 X91.594 Y124.159 E.03799 ; perimeter
G1 X91.594 Y93.841 E1.34473 ; perimeter
M73 P2 R87
G1 X91.63 Y93.483 E.016 ; perimeter
M73 Q2 S88
G1 X91.784 Y92.868 E.02811 ; perimeter
G1 X92.041 Y92.317 E.02698 ; perimeter
M204 S1000 ; adjust acceleration
G1 X91.877 Y91.91 F10800 ; move inwards before travel
;WIPE_START
G1 F8640
G1 X92.574 Y91.605 E-.20517 ; wipe and retract
G1 X93.091 Y91.175 E-.1554 ; wipe and retract
G1 X93.679 Y90.857 E-.15432 ; wipe and retract
G1 X94.318 Y90.66 E-.15432 ; wipe and retract
G1 X94.997 Y90.59 E-.1577 ; wipe and retract
G1 X97.176 Y90.59 E-.50309 ; wipe and retract
;WIPE_END
G1 E-.07 F2100 ; retract
G1 Z.5 F720 ; lift Z
G1 X91.28 Y143.443 F10800 ; move to first perimeter point
G1 Z.3 F720 ; restore layer Z
G1 E1.4 F2100 ;  ; unretract
M204 S800 ; adjust acceleration
;TYPE:Perimeter
G1 F1200
G1 X91.439 Y142.781 E.03018 ; perimeter
G1 X91.745 Y142.11 E.03272 ; perimeter
