; generated by PrusaSlicer 2.5.0 on 2022-11-26 at 15:58:07 UTC


;
;
; 

; external perimeters extrusion width = 0.60mm
; perimeters extrusion width = 0.50mm
; infill extrusion width = 0.50mm
; solid infill extrusion width = 0.50mm
; top infill extrusion width = 0.45mm
; first layer extrusion width = 0.42mm

; external perimeters extrusion width = 0.60mm
; perimeters extrusion width = 0.50mm
; infill extrusion width = 0.50mm
; solid infill extrusion width = 0.50mm
; top infill extrusion width = 0.45mm
; first layer extrusion width = 0.42mm

M73 P0 R156
M73 Q0 S158
M201 X1000 Y1000 Z200 E5000 ; sets maximum accelerations, mm/sec^2
M203 X200 Y200 Z12 E120 ; sets maximum feedrates, mm / sec
M204 P1250 R1250 T1250 ; sets acceleration (P, T) and retract acceleration (R), mm/sec^2
M205 X8.00 Y8.00 Z0.40 E4.50 ; sets the jerk limits, mm/sec
M205 S0 T0 ; sets the minimum extruding and travel feed rate, mm/sec
M107
;TYPE:Custom
M862.3 P "MK3S" ; printer model check
M862.1 P0.4 ; nozzle diameter check
M115 U3.11.0 ; tell printer latest fw version
G90 ; use absolute coordinates
M83 ; extruder relative mode
M104 S240 ; set extruder temp
M140 S95 ; set bed temp
M190 S95 ; wait for bed temp
M109 S240 ; wait for extruder temp
G28 W ; home all without mesh bed level
G80 ; mesh bed leveling

G1 Z0.2 F720
G1 Y-3 F1000 ; go outside print area
G92 E0
G1 X60 E9 F1000 ; intro line
G1 X100 E12.5 F1000 ; intro line

G92 E0
M221 S95

; Don't change E values below. Excessive value can damage the printer.

M907 E538 ; set extruder motor current
G21 ; set units to millimeters
G90 ; use absolute coordinates
M83 ; use relative distances for extrusion
M900 K0.08 ; Filament gcode LA 1.5
M900 K45 ; Filament gcode LA 1.0
M107
;LAYER_CHANGE
;Z:0.3
;HEIGHT:0.3
;BEFORE_LAYER_CHANGE
G92 E0.0
;0.3


G1 E-1.4 F2100
G1 Z.2 F720
G1 Z.3
;AFTER_LAYER_CHANGE
;0.3
G1 Z.5
G1 X45.608 Y42.879 F10800
G1 Z.3 F720
G1 E1.4 F2100
M204 S800
;TYPE:Skirt/Brim
;WIDTH:0.42
G1 F1200
G1 X46.709 Y41.778 E.06906
G1 X47.812 Y41.041 E.05885
G1 X48.906 Y40.556 E.05311
G1 X50.193 Y40.233 E.05885
G1 X51.33 Y40.144 E.05055
G1 X206.934 Y40.145 E6.90179
G1 X208.367 Y40.298 E.06395
M73 P0 R155
G1 X209.744 Y40.727 E.06395
G1 X211.01 Y41.417 E.06396
G1 X212.036 Y42.258 E.05885
G1 X212.959 Y43.366 E.06395
G1 X213.572 Y44.458 E.05555
G1 X214.024 Y45.769 E.06151
G1 X214.225 Y47.197 E.06396
G1 X214.231 Y162.558 E5.11681
G1 X214.024 Y164.231 E.07478
G1 X213.5 Y165.697 E.06905
G1 X212.598 Y167.121 E.07478
G1 X211.497 Y168.222 E.06906
G1 X210.394 Y168.959 E.05885
G1 X209.299 Y169.444 E.05311
G1 X208.012 Y169.767 E.05885
G1 X206.876 Y169.856 E.05055
G1 X51.33 Y169.856 E6.89922
G1 X50.551 Y169.814 E.03458
M73 Q0 S157
G1 X49.599 Y169.649 E.04288
G1 X48.133 Y169.124 E.06905
G1 X46.709 Y168.222 E.07478
G1 X45.608 Y167.121 E.06906
G1 X44.87 Y166.018 E.05885
G1 X44.385 Y164.923 E.05311
G1 X44.105 Y163.878 E.048
G1 X43.975 Y162.558 E.05885
G1 X43.974 Y47.5 E5.10337
G1 X44.016 Y46.722 E.03458
G1 X44.181 Y45.769 E.04288
G1 X44.706 Y44.303 E.06905
G1 X45.575 Y42.929 E.07211
M204 S1000
; printing object 1L_foot-Body.stl id:0 copy 0
;WIPE_START
G1 F8640
G1 X46.709 Y41.778 E-.37303
G1 X47.812 Y41.041 E-.30635
G1 X48.906 Y40.556 E-.27648
G1 X50.193 Y40.233 E-.30637
G1 X50.486 Y40.21 E-.06777
;WIPE_END
G1 E-.07 F2100
G1 Z.5 F720
G1 X132.196 Y44.224 F10800
G1 Z.3 F720
G1 E1.4 F2100
M204 S800
;TYPE:Perimeter
;WIDTH:0.42
G1 F1200
G1 X132.883 Y43.771 E.03651
G1 X133.466 Y43.519 E.0282
G1 X134.043 Y43.349 E.02667
G1 X134.675 Y43.271 E.02824
G1 X206.862 Y43.266 E3.20184
G1 X207.701 Y43.35 E.0374
G1 X208.495 Y43.59 E.03681
G1 X209.227 Y43.981 E.0368
G1 X209.868 Y44.508 E.03679
G1 X210.398 Y45.154 E.03707
G1 X210.699 Y45.685 E.02707
G1 X210.981 Y46.472 E.03707
G1 X211.104 Y47.305 E.03738
G1 X211.11 Y162.377 E5.10396
G1 X211.102 Y162.644 E.01186
G1 X211.035 Y163.222 E.0258
G1 X210.884 Y163.824 E.02755
G1 X210.646 Y164.398 E.02755
G1 X210.327 Y164.931 E.02755
G1 X209.933 Y165.411 E.02755
G1 X209.473 Y165.828 E.02755
G1 X209.05 Y166.127 E.02298
G1 X208.586 Y166.359 E.02299
G1 X208.103 Y166.546 E.02298
G1 X207.544 Y166.668 E.02538
G1 X206.86 Y166.734 E.03051
G1 X134.999 Y166.734 E3.18737
G1 X134.732 Y166.727 E.01185
G1 X134.154 Y166.659 E.0258
G1 X133.552 Y166.508 E.02755
G1 X132.978 Y166.271 E.02755
G1 X132.445 Y165.951 E.02755
G1 X131.965 Y165.557 E.02755
G1 X131.548 Y165.097 E.02755
G1 X131.249 Y164.674 E.02298
G1 X131.017 Y164.211 E.02299
G1 X130.829 Y163.727 E.02298
G1 X130.707 Y163.168 E.02538
G1 X130.641 Y162.484 E.03051
G1 X130.641 Y47.516 E5.09935
G1 X130.662 Y47.092 E.01884
G1 X130.77 Y46.472 E.02793
G1 X130.965 Y45.88 E.02762
G1 X131.245 Y45.324 E.02762
G1 X131.6 Y44.82 E.02735
G1 X132.153 Y44.267 E.03468
M204 S1000
G1 X131.966 Y43.951 F10800
M204 S800
;TYPE:External perimeter
G1 F1200
G1 X132.715 Y43.457 E.0398
G1 X133.338 Y43.187 E.03013
G1 X133.978 Y42.999 E.02957
G1 X134.653 Y42.916 E.03018
G1 X206.88 Y42.91 E3.20359
G1 X207.771 Y42.999 E.03973
G1 X208.632 Y43.26 E.03991
G1 X209.425 Y43.684 E.0399
G1 X210.121 Y44.255 E.0399
G1 X210.693 Y44.952 E.03998
G1 X211.024 Y45.536 E.02979
G1 X211.327 Y46.385 E.03998
G1 X211.46 Y47.279 E.0401
G1 X211.466 Y162.377 E5.10513
G1 X211.458 Y162.661 E.01263
G1 X211.385 Y163.282 E.02773
G1 X211.222 Y163.936 E.02987
G1 X210.964 Y164.558 E.02987
G1 X210.618 Y165.135 E.02987
G1 X210.191 Y165.656 E.02987
G1 X209.692 Y166.108 E.02987
G1 X209.233 Y166.432 E.02492
G1 X208.731 Y166.684 E.02492
G1 X208.207 Y166.887 E.02492
G1 X207.605 Y167.019 E.02731
G1 X206.868 Y167.09 E.03284
G1 X134.999 Y167.09 E3.18775
G1 X134.714 Y167.082 E.01262
M73 P0 R154
G1 X134.093 Y167.01 E.02773
G1 X133.44 Y166.846 E.02987
G1 X132.818 Y166.588 E.02987
G1 X132.24 Y166.242 E.02987
G1 X131.72 Y165.815 E.02987
G1 X131.268 Y165.316 E.02987
G1 X130.944 Y164.857 E.02492
G1 X130.692 Y164.355 E.02492
G1 X130.489 Y163.831 E.02492
G1 X130.357 Y163.229 E.02731
G1 X130.286 Y162.492 E.03284
G1 X130.286 Y47.508 E5.10012
G1 X130.308 Y47.053 E.0202
G1 X130.424 Y46.385 E.03006
G1 X130.636 Y45.744 E.02995
G1 X130.939 Y45.141 E.02995
G1 X131.327 Y44.59 E.02987
G1 X131.923 Y43.994 E.0374
M204 S1000
G1 X132.338 Y44.097 F10800
;WIPE_START
G1 F8640
G1 X132.715 Y43.457 E-.2208
G1 X133.338 Y43.187 E-.15686
G1 X133.978 Y42.999 E-.15394
G1 X134.653 Y42.916 E-.15711
G1 X137.431 Y42.916 E-.6413
;WIPE_END
G1 E-.07 F2100
G1 Z.5 F720
G1 X141.454 Y52.864 F10800
G1 Z.3 F720
G1 E1.4 F2100
M204 S800
;TYPE:Perimeter
G1 F1200
G1 X142.124 Y52.435 E.03528
G1 X142.645 Y52.184 E.02567
G1 X143.177 Y51.991 E.02509
G1 X143.725 Y51.851 E.02509
G1 X144.285 Y51.765 E.02509
G1 X144.873 Y51.734 E.02611
G1 X196.879 Y51.734 E2.30675
G1 X197.949 Y51.838 E.04768
G1 X198.524 Y51.975 E.02621
G1 X199.305 Y52.273 E.03707
G1 X200.025 Y52.672 E.03651
G1 X200.512 Y53.026 E.02668
G1 X200.934 Y53.405 E.02515
G1 X201.316 Y53.823 E.02513
G1 X201.8 Y54.503 E.03704
G1 X202.186 Y55.258 E.03762
G1 X202.385 Y55.801 E.02565
G1 X202.525 Y56.35 E.02509
G1 X202.611 Y56.909 E.02509
G1 X202.641 Y57.497 E.02611
G1 X202.641 Y67.504 E.44385
G1 X202.584 Y68.307 E.03571
G1 X202.403 Y69.136 E.03763
G1 X202.103 Y69.929 E.03761
G1 X201.69 Y70.67 E.03764
G1 X201.173 Y71.342 E.03762
G1 X200.767 Y71.754 E.02564
G1 X200.111 Y72.271 E.03706
G1 X199.376 Y72.694 E.0376
G1 X198.587 Y73.004 E.0376
G1 X198.027 Y73.149 E.02569
G1 X197.197 Y73.255 E.03708
G1 X144.872 Y73.266 E2.32087
G1 X143.711 Y73.145 E.05179
G1 X142.947 Y72.932 E.03518
G1 X142.192 Y72.602 E.03655
G1 X141.695 Y72.308 E.02562
G1 X141.239 Y71.973 E.02509
G1 X140.818 Y71.595 E.02508
G1 X140.436 Y71.177 E.02513
G1 X140.097 Y70.725 E.02508
G1 X139.804 Y70.241 E.02509
G1 X139.462 Y69.478 E.03706
G1 X139.29 Y68.926 E.02565
G1 X139.177 Y68.371 E.02511
G1 X139.11 Y67.504 E.0386
G1 X139.11 Y57.497 E.44385
G1 X139.136 Y56.961 E.02379
G1 X139.216 Y56.401 E.02509
G1 X139.351 Y55.852 E.02509
G1 X139.648 Y55.071 E.03706
G1 X139.918 Y54.559 E.02565
G1 X140.23 Y54.087 E.02509
G1 X140.587 Y53.648 E.02509
G1 X140.985 Y53.246 E.02509
G1 X141.405 Y52.898 E.0242
M204 S1000
G1 X141.646 Y53.16 F10800
M204 S800
;TYPE:External perimeter
G1 F1200
G1 X142.314 Y52.735 E.03513
G1 X142.797 Y52.505 E.02374
G1 X143.297 Y52.326 E.02355
G1 X143.812 Y52.196 E.02355
G1 X144.337 Y52.117 E.02355
G1 X144.873 Y52.09 E.02379
G1 X196.879 Y52.09 E2.30675
M73 Q0 S156
G1 X197.914 Y52.191 E.04613
G1 X198.438 Y52.32 E.0239
G1 X199.177 Y52.604 E.03514
G1 X199.85 Y52.982 E.03422
G1 X200.301 Y53.312 E.02478
G1 X200.695 Y53.668 E.02356
G1 X201.052 Y54.062 E.02358
G1 X201.509 Y54.708 E.03511
G1 X201.869 Y55.418 E.0353
G1 X202.05 Y55.921 E.02372
G1 X202.18 Y56.436 E.02355
G1 X202.259 Y56.961 E.02355
G1 X202.286 Y57.497 E.02379
G1 X202.286 Y67.504 E.44385
G1 X202.229 Y68.28 E.03455
G1 X202.056 Y69.058 E.03532
G1 X201.772 Y69.801 E.0353
G1 X201.381 Y70.495 E.03532
G1 X200.893 Y71.123 E.0353
G1 X200.516 Y71.502 E.02371
G1 X199.892 Y71.991 E.03513
G1 X199.201 Y72.384 E.03529
G1 X198.459 Y72.673 E.03528
G1 X197.94 Y72.804 E.02376
G1 X197.154 Y72.902 E.03515
G1 X144.872 Y72.91 E2.31894
G1 X144.049 Y72.83 E.03667
G1 X143.48 Y72.712 E.02578
G1 X143.019 Y72.58 E.02129
G1 X142.337 Y72.277 E.03311
G1 X141.878 Y72.003 E.02371
G1 X141.451 Y71.687 E.02355
G1 X141.057 Y71.332 E.02353
G1 X140.699 Y70.938 E.02358
G1 X140.383 Y70.513 E.02353
G1 X140.109 Y70.058 E.02355
G1 X139.787 Y69.334 E.03513
G1 X139.63 Y68.823 E.02372
G1 X139.526 Y68.302 E.02356
G1 X139.466 Y67.504 E.03551
G1 X139.466 Y57.497 E.44385
G1 X139.491 Y56.978 E.02302
M73 P1 R154
G1 X139.568 Y56.453 E.02355
G1 X139.696 Y55.938 E.02355
G1 X139.98 Y55.199 E.03513
G1 X140.231 Y54.726 E.02372
G1 X140.525 Y54.284 E.02355
G1 X140.862 Y53.873 E.02355
G1 X141.236 Y53.497 E.02355
G1 X141.6 Y53.198 E.02087
M204 S1000
G1 X141.606 Y52.762 F10800
;WIPE_START
G1 F8640
G1 X142.314 Y52.735 E-.19661
G1 X142.797 Y52.505 E-.12359
G1 X143.297 Y52.326 E-.12259
G1 X143.812 Y52.196 E-.12258
G1 X144.337 Y52.117 E-.12259
G1 X144.873 Y52.09 E-.12385
G1 X147.117 Y52.09 E-.51819
;WIPE_END
G1 E-.07 F2100
G1 Z.5 F720
G1 X139.794 Y87.283 F10800
G1 Z.3 F720
M73 Q1 S156
G1 E1.4 F2100
M204 S800
;TYPE:Perimeter
G1 F1200
G1 X140.068 Y86.819 E.02391
G1 X140.403 Y86.363 E.02509
G1 X140.781 Y85.942 E.02509
G1 X141.198 Y85.56 E.02509
G1 X141.651 Y85.221 E.0251
G1 X142.135 Y84.928 E.02508
G1 X142.645 Y84.684 E.02511
G1 X143.177 Y84.491 E.02509
G1 X143.725 Y84.351 E.02509
G1 X144.285 Y84.265 E.02509
G1 X144.846 Y84.235 E.02495
G1 X196.879 Y84.234 E2.30792
G1 X197.949 Y84.338 E.04768
G1 X198.524 Y84.475 E.02621
G1 X199.304 Y84.772 E.03701
G1 X200.045 Y85.185 E.03766
G1 X200.532 Y85.543 E.02681
G1 X201.121 Y86.1 E.03592
G1 X201.647 Y86.765 E.03761
G1 X201.948 Y87.259 E.02567
G1 X202.192 Y87.77 E.0251
G1 X202.392 Y88.326 E.02622
G1 X202.572 Y89.116 E.03593
G1 X202.635 Y89.743 E.02797
G1 X202.635 Y120.256 E1.3534
G1 X202.535 Y121.099 E.03764
G1 X202.316 Y121.905 E.03706
G1 X202.099 Y122.441 E.02564
G1 X201.69 Y123.17 E.03706
G1 X201.332 Y123.656 E.0268
G1 X200.776 Y124.245 E.03592
G1 X200.111 Y124.771 E.03761
G1 X199.376 Y125.194 E.03763
G1 X198.843 Y125.419 E.02566
G1 X198.302 Y125.586 E.0251
G1 X197.747 Y125.699 E.02511
G1 X196.879 Y125.766 E.0386
G1 X144.872 Y125.766 E2.30677
G1 X143.712 Y125.646 E.05172
G1 X142.97 Y125.44 E.03415
G1 X142.499 Y125.238 E.02275
G1 X141.849 Y124.901 E.03247
G1 X141.034 Y124.297 E.04502
G1 X140.622 Y123.891 E.02564
G1 X140.105 Y123.235 E.03706
G1 X139.804 Y122.741 E.02567
G1 X139.56 Y122.23 E.0251
G1 X139.36 Y121.674 E.02622
G1 X139.18 Y120.884 E.03593
G1 X139.119 Y120.309 E.02565
G1 X139.116 Y89.743 E1.35574
G1 X139.169 Y89.18 E.02509
G1 X139.277 Y88.625 E.02509
G1 X139.439 Y88.082 E.0251
G1 X139.766 Y87.336 E.03614
M204 S1000
G1 X140.099 Y87.461 F10800
M204 S800
;TYPE:External perimeter
G1 F1200
G1 X140.373 Y87.002 E.02372
G1 X140.688 Y86.575 E.02355
G1 X141.044 Y86.181 E.02355
G1 X141.437 Y85.824 E.02355
G1 X141.863 Y85.507 E.02355
G1 X142.318 Y85.233 E.02353
G1 X142.798 Y85.005 E.02357
G1 X143.297 Y84.826 E.02355
G1 X143.812 Y84.696 E.02355
G1 X144.337 Y84.617 E.02355
G1 X144.864 Y84.59 E.0234
G1 X196.879 Y84.59 E2.30714
G1 X197.914 Y84.691 E.04613
G1 X198.438 Y84.82 E.0239
G1 X199.176 Y85.104 E.03507
G1 X199.87 Y85.495 E.03534
G1 X200.32 Y85.828 E.02483
G1 X200.875 Y86.357 E.03401
G1 X201.367 Y86.984 E.03532
G1 X201.643 Y87.442 E.02374
G1 X201.871 Y87.922 E.02355
G1 X202.057 Y88.445 E.02462
G1 X202.225 Y89.193 E.03403
G1 X202.28 Y89.743 E.02452
G1 X202.28 Y120.256 E1.3534
G1 X202.183 Y121.047 E.03532
G1 X201.973 Y121.811 E.03513
G1 X201.77 Y122.305 E.02371
G1 X201.381 Y122.995 E.03513
G1 X201.047 Y123.444 E.02482
G1 X200.519 Y123.999 E.03401
G1 X199.892 Y124.491 E.03532
G1 X199.2 Y124.885 E.03531
G1 X198.707 Y125.091 E.02373
G1 X198.199 Y125.246 E.02355
G1 X197.678 Y125.35 E.02356
G1 X196.879 Y125.41 E.03551
G1 X144.872 Y125.41 E2.30677
G1 X144.049 Y125.33 E.03667
G1 X143.463 Y125.208 E.02657
G1 X143.041 Y125.089 E.01945
G1 X142.337 Y124.777 E.03415
G1 X141.878 Y124.503 E.02372
G1 X141.252 Y124.017 E.03513
G1 X140.873 Y123.64 E.02371
G1 X140.385 Y123.016 E.03513
G1 X140.109 Y122.558 E.02374
G1 X139.881 Y122.078 E.02355
G1 X139.695 Y121.555 E.02462
G1 X139.527 Y120.807 E.03403
G1 X139.473 Y120.274 E.02375
G1 X139.472 Y89.743 E1.35419
G1 X139.523 Y89.215 E.02355
G1 X139.626 Y88.694 E.02355
G1 X139.779 Y88.186 E.02355
G1 X140.075 Y87.516 E.03247
M204 S1000
G1 X139.884 Y87.124 F10800
;WIPE_START
G1 F8640
G1 X140.373 Y87.002 E-.13725
G1 X140.688 Y86.575 E-.12259
G1 X141.044 Y86.181 E-.12259
G1 X141.437 Y85.824 E-.12258
G1 X141.863 Y85.507 E-.12259
G1 X142.318 Y85.233 E-.12249
G1 X142.798 Y85.005 E-.12268
G1 X143.297 Y84.826 E-.12259
G1 X143.812 Y84.696 E-.12259
G1 X144.337 Y84.617 E-.12259
G1 X144.724 Y84.597 E-.08947
;WIPE_END
G1 E-.07 F2100
G1 Z.5 F720
G1 X139.667 Y140.036 F10800
G1 Z.3 F720
G1 E1.4 F2100
M204 S800
;TYPE:Perimeter
G1 F1200
G1 X139.918 Y139.559 E.02391
G1 X140.23 Y139.087 E.02509
G1 X140.587 Y138.648 E.02509
G1 X141.189 Y138.069 E.03706
G1 X141.651 Y137.721 E.02565
G1 X142.135 Y137.428 E.02508
G1 X142.645 Y137.184 E.02511
G1 X143.177 Y136.991 E.02509
G1 X143.725 Y136.851 E.02509
G1 X144.285 Y136.765 E.02509
G1 X144.873 Y136.734 E.02611
G1 X196.879 Y136.734 E2.30675
G1 X198.027 Y136.851 E.05114
G1 X198.529 Y136.977 E.02296
G1 X199.305 Y137.272 E.03682
G1 X200.045 Y137.685 E.03762
G1 X200.513 Y138.027 E.02568
G1 X200.934 Y138.405 E.02508
G1 X201.316 Y138.823 E.02513
G1 X201.8 Y139.503 E.03704
G1 X202.186 Y140.258 E.03762
G1 X202.385 Y140.801 E.02565
G1 X202.525 Y141.35 E.02509
G1 X202.611 Y141.909 E.02509
G1 X202.641 Y142.497 E.02611
G1 X202.641 Y152.504 E.44385
G1 X202.538 Y153.574 E.04768
G1 X202.4 Y154.148 E.02622
G1 X202.103 Y154.929 E.03705
G1 X201.69 Y155.67 E.03761
G1 X201.173 Y156.342 E.03764
G1 X200.563 Y156.931 E.03762
G1 X200.101 Y157.279 E.02565
G1 X199.375 Y157.694 E.03706
G1 X198.586 Y158.005 E.03762
G1 X198.026 Y158.149 E.02565
G1 X197.197 Y158.255 E.03706
G1 X144.872 Y158.266 E2.32087
G1 X143.802 Y158.162 E.04768
G1 X142.97 Y157.94 E.03819
G1 X142.435 Y157.723 E.02564
G1 X141.706 Y157.315 E.03706
G1 X141.239 Y156.973 E.02567
G1 X140.818 Y156.595 E.02508
G1 X140.436 Y156.177 E.02513
G1 X140.097 Y155.725 E.02508
G1 X139.804 Y155.241 E.02509
G1 X139.462 Y154.478 E.03706
G1 X139.29 Y153.926 E.02565
G1 X139.177 Y153.371 E.02511
G1 X139.11 Y152.504 E.0386
G1 X139.11 Y142.497 E.44385
G1 X139.136 Y141.961 E.02379
G1 X139.216 Y141.401 E.02509
G1 X139.351 Y140.852 E.02509
G1 X139.641 Y140.09 E.03614
M204 S1000
G1 X139.98 Y140.199 F10800
M204 S800
;TYPE:External perimeter
G1 F1200
G1 X140.231 Y139.726 E.02372
G1 X140.525 Y139.284 E.02355
G1 X140.862 Y138.873 E.02355
G1 X141.434 Y138.326 E.03513
G1 X141.863 Y138.007 E.02372
G1 X142.318 Y137.733 E.02353
G1 X142.797 Y137.505 E.02357
G1 X143.297 Y137.326 E.02355
G1 X143.812 Y137.196 E.02355
G1 X144.337 Y137.117 E.02355
G1 X144.873 Y137.09 E.02379
G1 X196.879 Y137.09 E2.30675
G1 X197.94 Y137.196 E.04728
G1 X198.439 Y137.321 E.02282
G1 X199.177 Y137.604 E.03504
G1 X199.87 Y137.995 E.03531
G1 X200.301 Y138.313 E.02375
G1 X200.695 Y138.668 E.02353
