; generated by PrusaSlicer 2.4.2 on 2022-08-19 at 11:52:05 UTC

; 

; external perimeters extrusion width = 0.60mm
; perimeters extrusion width = 0.50mm
; infill extrusion width = 0.50mm
; solid infill extrusion width = 0.50mm
; top infill extrusion width = 0.45mm
; first layer extrusion width = 0.42mm

M73 P0 R69
M73 Q0 S69
M201 X1000 Y1000 Z200 E5000 ; sets maximum accelerations, mm/sec^2
M203 X200 Y200 Z12 E120 ; sets maximum feedrates, mm / sec
M204 P1250 R1250 T1250 ; sets acceleration (P, T) and retract acceleration (R), mm/sec^2
M205 X8.00 Y8.00 Z0.40 E4.50 ; sets the jerk limits, mm/sec
M205 S0 T0 ; sets the minimum extruding and travel feed rate, mm/sec
M107
;TYPE:Custom
M862.3 P "MK3S" ; printer model check
M862.1 P0.4 ; nozzle diameter check
M115 U3.10.1 ; tell printer latest fw version
G90 ; use absolute coordinates
M83 ; extruder relative mode
M104 S240 ; set extruder temp
M140 S95 ; set bed temp
M190 S95 ; wait for bed temp
M109 S240 ; wait for extruder temp
G28 W ; home all without mesh bed level
G80 ; mesh bed leveling
G1 Z0.2 F720
G1 Y-3 F1000 ; go outside print area
G92 E0
G1 X60 E9 F1000 ; intro line
G1 X100 E12.5 F1000 ; intro line
G92 E0
M221 S95

; Don't change E values below. Excessive value can damage the printer.

M907 E538 ; set extruder motor current
G21 ; set units to millimeters
G90 ; use absolute coordinates
M83 ; use relative distances for extrusion
M900 K0.08 ; Filament gcode LA 1.5
M900 K45 ; Filament gcode LA 1.0
M107
;LAYER_CHANGE
;Z:0.3
;HEIGHT:0.3
;BEFORE_LAYER_CHANGE
G92 E0.0
;0.3


G1 E-1.4 F2100
G1 Z.2 F720
G1 Z.3
;AFTER_LAYER_CHANGE
;0.3
G1 Z.5
G1 X82.662 Y43.768 F10800
G1 Z.3 F720
G1 E1.4 F2100
M204 S800
;TYPE:Skirt/Brim
;WIDTH:0.42
G1 F1200
G1 X83.127 Y43.072 E.03714
G1 X83.759 Y42.34 E.04289
G1 X84.572 Y41.627 E.04799
G1 X85.268 Y41.162 E.03714
G1 X86.132 Y40.727 E.04288
G1 X86.92 Y40.445 E.03714
G1 X87.864 Y40.233 E.04289
G1 X88.697 Y40.151 E.03712
G1 X161.058 Y40.145 E3.20956
G1 X162.492 Y40.298 E.06395
M73 P0 R68
G1 X163.761 Y40.683 E.05885
G1 X165.038 Y41.353 E.06395
G1 X166.146 Y42.246 E.06314
G1 X166.942 Y43.165 E.05392
G1 X167.673 Y44.408 E.06395
G1 X168.12 Y45.657 E.05885
G1 X168.343 Y47.081 E.06395
G1 X168.356 Y162.5 E5.11937
G1 X168.284 Y163.522 E.04544
G1 X168.12 Y164.343 E.03713
G1 X167.817 Y165.261 E.04289
G1 X167.338 Y166.232 E.048
G1 X166.873 Y166.928 E.03713
G1 X166.241 Y167.66 E.04289
G1 X165.621 Y168.222 E.03713
G1 X164.732 Y168.838 E.048
G1 X163.868 Y169.273 E.04288
G1 X163.08 Y169.555 E.03714
G1 X162.136 Y169.767 E.04289
G1 X161.303 Y169.849 E.03713
G1 X88.942 Y169.855 E3.20956
G1 X87.864 Y169.767 E.048
G1 X86.92 Y169.555 E.04288
G1 X86.132 Y169.273 E.03714
G1 X85.268 Y168.838 E.04288
G1 X84.572 Y168.373 E.03714
G1 X83.84 Y167.742 E.04289
G1 X83.278 Y167.121 E.03713
G1 X82.662 Y166.232 E.048
G1 X82.227 Y165.368 E.04288
G1 X81.945 Y164.58 E.03713
G1 X81.733 Y163.636 E.04289
G1 X81.645 Y162.558 E.04799
G1 X81.644 Y47.5 E5.10337
G1 X81.716 Y46.478 E.04544
G1 X81.88 Y45.657 E.03713
G1 X82.227 Y44.632 E.048
G1 X82.635 Y43.822 E.04022
M204 S1000
; printing object 1R_foot-BodyFillet003.stl id:0 copy 0
;WIPE_START
G1 F8640
G1 X83.127 Y43.072 E-.20708
G1 X83.759 Y42.34 E-.22329
G1 X84.572 Y41.627 E-.24984
G1 X85.268 Y41.162 E-.19332
G1 X86.132 Y40.727 E-.22324
G1 X86.92 Y40.445 E-.19332
G1 X87.089 Y40.407 E-.03991
;WIPE_END
G1 E-.07 F2100
G1 Z.5 F720
G1 X97.199 Y84.527 F10800
G1 Z.3 F720
G1 E1.4 F2100
M204 S800
;TYPE:Perimeter
G1 F1200
G1 X97.875 Y84.344 E.03105
G1 X98.435 Y84.261 E.0251
G1 X98.984 Y84.234 E.02437
G1 X151.023 Y84.234 E2.30821
G1 X151.832 Y84.294 E.03598
G1 X152.132 Y84.346 E.01348
G1 X152.674 Y84.482 E.02479
G1 X153.2 Y84.67 E.02479
G1 X153.465 Y84.788 E.01286
G1 X153.724 Y84.918 E.01286
G1 X154.203 Y85.205 E.02478
G1 X154.633 Y85.523 E.02371
G1 X154.877 Y85.731 E.01422
G1 X155.277 Y86.132 E.02513
G1 X155.777 Y86.77 E.03594
G1 X156.085 Y87.281 E.02646
G1 X156.327 Y87.793 E.02514
G1 X156.52 Y88.332 E.02539
G1 X156.699 Y89.123 E.03594
G1 X156.759 Y89.716 E.02646
G1 X156.759 Y120.289 E1.35607
G1 X156.661 Y121.094 E.03594
G1 X156.518 Y121.673 E.02646
G1 X156.33 Y122.2 E.02483
G1 X156.212 Y122.465 E.01286
G1 X156.082 Y122.724 E.01286
G1 X155.795 Y123.204 E.02479
G1 X155.462 Y123.653 E.02479
G1 X155.268 Y123.877 E.01317
G1 X154.877 Y124.268 E.02448
G1 X154.653 Y124.462 E.01317
G1 X154.204 Y124.795 E.02479
G1 X153.718 Y125.085 E.0251
G1 X153.207 Y125.327 E.0251
G1 X152.68 Y125.516 E.02479
G1 X152.394 Y125.595 E.01317
G1 X151.839 Y125.705 E.0251
G1 X151.023 Y125.766 E.03629
G1 X98.977 Y125.766 E2.30852
G1 X98.168 Y125.706 E.03598
G1 X97.868 Y125.654 E.01348
G1 X97.326 Y125.518 E.02479
G1 X96.8 Y125.33 E.02479
G1 X96.535 Y125.212 E.01286
G1 X96.276 Y125.082 E.01286
G1 X95.797 Y124.795 E.02478
G1 X95.367 Y124.477 E.02371
G1 X95.123 Y124.269 E.01422
G1 X94.727 Y123.872 E.02484
G1 X94.364 Y123.43 E.02539
G1 X93.93 Y122.746 E.03594
G1 X93.673 Y122.208 E.02646
G1 X93.48 Y121.668 E.02543
G1 X93.301 Y120.877 E.03594
G1 X93.241 Y120.284 E.02646
G1 X93.241 Y89.717 E1.35578
G1 X93.296 Y89.154 E.0251
G1 X93.405 Y88.606 E.02479
G1 X93.484 Y88.32 E.01317
G1 X93.673 Y87.793 E.02479
G1 X93.915 Y87.282 E.0251
G1 X94.205 Y86.796 E.0251
G1 X94.543 Y86.342 E.0251
G1 X94.923 Y85.923 E.0251
G1 X95.342 Y85.543 E.0251
G1 X95.796 Y85.205 E.0251
G1 X96.282 Y84.915 E.0251
G1 X96.793 Y84.673 E.0251
G1 X97.143 Y84.548 E.01647
M204 S1000
G1 X97.319 Y84.862 F10800
M204 S800
;TYPE:External perimeter
G1 F1200
G1 X97.944 Y84.694 E.02873
G1 X98.47 Y84.616 E.02355
G1 X98.992 Y84.59 E.02321
G1 X151.01 Y84.59 E2.30724
G1 X151.789 Y84.648 E.03463
G1 X152.058 Y84.694 E.01212
G1 X152.571 Y84.823 E.02343
G1 X153.068 Y85.001 E.02344
G1 X153.313 Y85.109 E.01189
G1 X153.553 Y85.23 E.01189
G1 X154.006 Y85.501 E.02343
M73 P1 R68
G1 X154.411 Y85.802 E.02238
G1 X154.635 Y85.993 E.01304
G1 X155.011 Y86.368 E.02356
G1 X155.483 Y86.973 E.03403
G1 X155.771 Y87.449 E.0247
G1 X155.998 Y87.93 E.02356
G1 X156.178 Y88.432 E.02366
G1 X156.347 Y89.18 E.03403
M73 Q1 S69
G1 X156.404 Y89.734 E.0247
G1 X156.404 Y120.268 E1.35432
G1 X156.311 Y121.03 E.03403
G1 X156.177 Y121.57 E.0247
G1 X155.999 Y122.068 E.02345
G1 X155.891 Y122.313 E.01189
G1 X155.77 Y122.553 E.01189
G1 X155.499 Y123.006 E.02343
G1 X155.184 Y123.43 E.02344
G1 X155.007 Y123.635 E.01201
G1 X154.635 Y124.007 E.02332
G1 X154.43 Y124.184 E.01201
G1 X154.006 Y124.499 E.02343
G1 X153.55 Y124.771 E.02355
G1 X153.07 Y124.998 E.02355
G1 X152.573 Y125.176 E.02344
G1 X152.312 Y125.249 E.01201
G1 X151.791 Y125.352 E.02355
G1 X151.01 Y125.41 E.03474
G1 X98.99 Y125.41 E2.30736
G1 X98.211 Y125.352 E.03463
G1 X97.942 Y125.306 E.01212
G1 X97.429 Y125.177 E.02343
G1 X96.932 Y124.999 E.02344
G1 X96.687 Y124.891 E.01189
G1 X96.447 Y124.77 E.01189
G1 X95.994 Y124.499 E.02343
G1 X95.589 Y124.198 E.02238
G1 X95.365 Y124.007 E.01304
G1 X94.991 Y123.633 E.02346
G1 X94.653 Y123.221 E.02366
G1 X94.241 Y122.573 E.03403
G1 X94.002 Y122.071 E.0247
G1 X93.822 Y121.568 E.02367
G1 X93.653 Y120.82 E.03403
G1 X93.596 Y120.266 E.0247
G1 X93.596 Y89.735 E1.35421
G1 X93.648 Y89.206 E.02355
G1 X93.751 Y88.688 E.02344
G1 X93.824 Y88.427 E.01201
G1 X94.002 Y87.93 E.02344
G1 X94.229 Y87.45 E.02355
G1 X94.501 Y86.994 E.02355
G1 X94.818 Y86.568 E.02355
G1 X95.174 Y86.174 E.02355
G1 X95.568 Y85.818 E.02355
G1 X95.994 Y85.501 E.02355
G1 X96.45 Y85.229 E.02355
G1 X96.93 Y85.002 E.02355
G1 X97.263 Y84.882 E.01569
M204 S1000
G1 X97.405 Y84.471 F10800
;WIPE_START
G1 F8640
G1 X97.944 Y84.694 E-.16336
G1 X98.47 Y84.616 E-.1226
G1 X98.992 Y84.59 E-.12083
G1 X102.991 Y84.59 E-.92321
;WIPE_END
G1 E-.07 F2100
G1 Z.5 F720
G1 X98.168 Y73.206 F10800
G1 Z.3 F720
G1 E1.4 F2100
M204 S800
;TYPE:Perimeter
G1 F1200
G1 X97.868 Y73.154 E.01348
G1 X97.333 Y73.02 E.02448
G1 X97.051 Y72.927 E.01317
G1 X96.535 Y72.713 E.02479
G1 X96.041 Y72.449 E.02484
G1 X95.771 Y72.276 E.01422
G1 X95.336 Y71.953 E.02399
G1 X94.749 Y71.396 E.03593
G1 X94.369 Y70.936 E.02645
G1 X94.071 Y70.491 E.02375
G1 X93.912 Y70.213 E.01422
G1 X93.676 Y69.713 E.02453
G1 X93.569 Y69.436 E.01317
G1 X93.406 Y68.901 E.02479
G1 X93.295 Y68.339 E.02541
G1 X93.234 Y67.523 E.03629
G1 X93.234 Y57.484 E.44531
G1 X93.261 Y56.935 E.02437
G1 X93.344 Y56.375 E.0251
G1 X93.48 Y55.833 E.02479
G1 X93.573 Y55.551 E.01317
G1 X93.787 Y55.035 E.02479
G1 X94.054 Y54.536 E.0251
G1 X94.368 Y54.065 E.0251
G1 X94.727 Y53.628 E.0251
G1 X95.123 Y53.232 E.02479
G1 X95.347 Y53.038 E.01317
G1 X95.796 Y52.705 E.02479
G1 X96.282 Y52.415 E.0251
G1 X96.793 Y52.173 E.0251
G1 X97.326 Y51.982 E.0251
G1 X97.875 Y51.844 E.0251
G1 X98.435 Y51.761 E.0251
G1 X98.984 Y51.734 E.02437
G1 X151.023 Y51.734 E2.30821
G1 X151.832 Y51.794 E.03598
G1 X152.132 Y51.846 E.01348
G1 X152.667 Y51.98 E.02448
G1 X152.949 Y52.073 E.01317
G1 X153.471 Y52.29 E.02508
G1 X154.177 Y52.688 E.03594
G1 X154.652 Y53.038 E.02615
G1 X154.877 Y53.232 E.01321
G1 X155.268 Y53.623 E.02448
G1 X155.462 Y53.847 E.01317
G1 X155.798 Y54.302 E.02508
G1 X156.199 Y55.006 E.03595
G1 X156.426 Y55.55 E.02615
G1 X156.52 Y55.833 E.01321
G1 X156.656 Y56.375 E.02479
G1 X156.739 Y56.935 E.0251
G1 X156.766 Y57.484 E.02437
G1 X156.766 Y67.523 E.44531
G1 X156.706 Y68.332 E.03598
G1 X156.654 Y68.632 E.01348
G1 X156.52 Y69.167 E.02448
G1 X156.427 Y69.449 E.01317
G1 X156.213 Y69.965 E.02479
G1 X155.949 Y70.458 E.02479
G1 X155.79 Y70.709 E.01317
G1 X155.462 Y71.153 E.02448
G1 X155.268 Y71.377 E.01317
G1 X154.877 Y71.768 E.02448
G1 X154.653 Y71.962 E.01317
G1 X154.209 Y72.29 E.02448
G1 X153.958 Y72.449 E.01317
G1 X153.466 Y72.713 E.02478
G1 X152.972 Y72.918 E.02371
G1 X152.668 Y73.019 E.01422
G1 X152.125 Y73.156 E.02484
G1 X151.572 Y73.238 E.02479
G1 X151.276 Y73.259 E.01317
G1 X98.977 Y73.266 E2.31973
G1 X98.227 Y73.21 E.03332
M204 S1000
M73 Q1 S68
G1 X98.211 Y72.852 F10800
M204 S800
;TYPE:External perimeter
G1 F1200
G1 X97.942 Y72.806 E.01212
G1 X97.432 Y72.678 E.02332
G1 X97.175 Y72.593 E.01201
G1 X96.687 Y72.391 E.02344
G1 X96.22 Y72.142 E.02345
G1 X95.973 Y71.983 E.01305
G1 X95.566 Y71.681 E.02249
G1 X95.009 Y71.153 E.03403
G1 X94.655 Y70.723 E.0247
G1 X94.374 Y70.304 E.0224
G1 X94.228 Y70.048 E.01305
G1 X94.003 Y69.573 E.02334
G1 X93.905 Y69.32 E.01201
G1 X93.752 Y68.815 E.02344
G1 X93.648 Y68.291 E.02366
G1 X93.59 Y67.51 E.03474
G1 X93.59 Y57.492 E.44434
G1 X93.616 Y56.97 E.02321
G1 X93.694 Y56.444 E.02355
G1 X93.822 Y55.932 E.02343
G1 X93.907 Y55.675 E.01201
G1 X94.109 Y55.187 E.02343
G1 X94.359 Y54.719 E.02355
G1 X94.654 Y54.277 E.02355
G1 X94.991 Y53.867 E.02355
G1 X95.365 Y53.493 E.02344
G1 X95.57 Y53.316 E.01201
G1 X95.994 Y53.001 E.02343
G1 X96.45 Y52.729 E.02355
G1 X96.93 Y52.502 E.02355
G1 X97.429 Y52.323 E.02355
G1 X97.944 Y52.194 E.02355
G1 X98.47 Y52.116 E.02355
G1 X98.992 Y52.09 E.02321
G1 X151.01 Y52.09 E2.30724
G1 X151.789 Y52.148 E.03463
G1 X152.058 Y52.194 E.01212
G1 X152.568 Y52.322 E.02332
G1 X152.825 Y52.407 E.01201
G1 X153.315 Y52.61 E.02354
G1 X153.984 Y52.987 E.03403
G1 X154.43 Y53.316 E.02459
G1 X154.635 Y53.493 E.01202
G1 X155.007 Y53.865 E.02332
G1 X155.184 Y54.07 E.01201
G1 X155.5 Y54.496 E.02354
G1 X155.879 Y55.163 E.03403
G1 X156.093 Y55.675 E.02459
G1 X156.178 Y55.932 E.01202
G1 X156.306 Y56.444 E.02343
G1 X156.384 Y56.97 E.02355
G1 X156.41 Y57.492 E.02321
G1 X156.41 Y67.51 E.44434
G1 X156.352 Y68.289 E.03463
G1 X156.306 Y68.558 E.01212
G1 X156.178 Y69.068 E.02332
G1 X156.093 Y69.325 E.01201
G1 X155.891 Y69.813 E.02344
G1 X155.642 Y70.279 E.02344
G1 X155.497 Y70.508 E.01201
G1 X155.184 Y70.93 E.02332
G1 X155.007 Y71.135 E.01201
G1 X154.635 Y71.507 E.02332
G1 X154.43 Y71.684 E.01201
G1 X154.008 Y71.997 E.02332
G1 X153.779 Y72.142 E.01201
G1 X153.313 Y72.391 E.02343
G1 X152.847 Y72.584 E.02238
G1 X152.568 Y72.678 E.01305
G1 X152.056 Y72.806 E.02345
G1 X151.533 Y72.884 E.02344
G1 X151.263 Y72.904 E.01201
G1 X98.99 Y72.91 E2.31856
G1 X98.271 Y72.857 E.03197
M204 S1000
G1 X98.048 Y73.072 F10800
;WIPE_START
G1 F8640
G1 X97.942 Y72.806 E-.0769
G1 X97.432 Y72.678 E-.1214
G1 X97.175 Y72.593 E-.06251
G1 X96.687 Y72.391 E-.122
G1 X96.22 Y72.142 E-.1221
G1 X95.973 Y71.983 E-.06791
G1 X95.566 Y71.681 E-.11708
G1 X95.009 Y71.153 E-.17714
G1 X94.655 Y70.723 E-.12857
G1 X94.374 Y70.304 E-.11659
G1 X94.228 Y70.048 E-.06791
G1 X94.003 Y69.573 E-.1215
G1 X93.958 Y69.458 E-.02839
;WIPE_END
G1 E-.07 F2100
G1 Z.5 F720
G1 X98.417 Y136.764 F10800
G1 Z.3 F720
G1 E1.4 F2100
M204 S800
;TYPE:Perimeter
G1 F1200
G1 X98.984 Y136.734 E.02514
G1 X151.023 Y136.734 E2.30821
G1 X151.832 Y136.794 E.03598
G1 X152.132 Y136.846 E.01348
G1 X152.667 Y136.98 E.02448
G1 X152.949 Y137.073 E.01317
G1 X153.459 Y137.285 E.02448
G1 X153.724 Y137.418 E.01317
G1 X154.204 Y137.705 E.02479
G1 X154.653 Y138.038 E.02479
G1 X154.877 Y138.232 E.01317
G1 X155.268 Y138.623 E.02448
G1 X155.462 Y138.847 E.01317
G1 X155.798 Y139.302 E.02508
G1 X156.199 Y140.006 E.03595
G1 X156.426 Y140.55 E.02615
G1 X156.52 Y140.833 E.01321
G1 X156.656 Y141.375 E.02479
G1 X156.739 Y141.935 E.0251
G1 X156.766 Y142.484 E.02437
G1 X156.766 Y152.523 E.44531
G1 X156.706 Y153.332 E.03598
G1 X156.654 Y153.632 E.01348
G1 X156.52 Y154.167 E.02448
G1 X156.427 Y154.449 E.01317
G1 X156.213 Y154.965 E.02479
G1 X155.949 Y155.458 E.02479
G1 X155.79 Y155.709 E.01317
G1 X155.462 Y156.153 E.02448
G1 X155.268 Y156.377 E.01317
G1 X154.877 Y156.768 E.02448
G1 X154.653 Y156.962 E.01317
G1 X154.209 Y157.29 E.02448
G1 X153.958 Y157.449 E.01317
G1 X153.466 Y157.713 E.02478
G1 X152.972 Y157.918 E.02371
G1 X152.668 Y158.019 E.01422
G1 X152.125 Y158.156 E.02484
G1 X151.572 Y158.238 E.02479
G1 X151.276 Y158.259 E.01317
G1 X98.977 Y158.266 E2.31973
G1 X98.168 Y158.206 E.03598
M73 P1 R67
G1 X97.868 Y158.154 E.01348
G1 X97.333 Y158.02 E.02448
G1 X97.051 Y157.927 E.01317
G1 X96.535 Y157.713 E.02479
G1 X96.042 Y157.449 E.02479
G1 X95.791 Y157.29 E.01317
G1 X95.337 Y156.954 E.02508
G1 X94.749 Y156.396 E.03594
G1 X94.369 Y155.936 E.02645
G1 X94.071 Y155.491 E.02375
G1 X93.912 Y155.213 E.01422
G1 X93.676 Y154.713 E.02453
G1 X93.569 Y154.436 E.01317
G1 X93.406 Y153.901 E.02479
G1 X93.295 Y153.339 E.02541
G1 X93.234 Y152.523 E.03629
G1 X93.234 Y142.484 E.44531
G1 X93.261 Y141.935 E.02437
G1 X93.344 Y141.375 E.0251
G1 X93.48 Y140.833 E.02479
G1 X93.573 Y140.551 E.01317
G1 X93.787 Y140.035 E.02479
G1 X94.054 Y139.536 E.0251
G1 X94.368 Y139.065 E.0251
G1 X94.727 Y138.628 E.0251
G1 X95.123 Y138.232 E.02479
G1 X95.347 Y138.038 E.01317
G1 X95.796 Y137.705 E.02479
G1 X96.282 Y137.415 E.0251
G1 X96.793 Y137.173 E.0251
G1 X97.326 Y136.982 E.0251
G1 X97.875 Y136.844 E.0251
G1 X98.358 Y136.773 E.02166
M204 S1000
G1 X98.47 Y137.116 F10800
M204 S800
;TYPE:External perimeter
G1 F1200
G1 X98.992 Y137.09 E.02321
G1 X151.01 Y137.09 E2.30724
G1 X151.789 Y137.148 E.03463
G1 X152.058 Y137.194 E.01212
G1 X152.568 Y137.322 E.02332
G1 X152.825 Y137.407 E.01201
G1 X153.311 Y137.608 E.02332
G1 X153.553 Y137.73 E.01201
G1 X154.006 Y138.001 E.02344
G1 X154.43 Y138.316 E.02343
G1 X154.635 Y138.493 E.01201
G1 X155.007 Y138.865 E.02332
G1 X155.184 Y139.07 E.01201
G1 X155.5 Y139.496 E.02354
G1 X155.879 Y140.163 E.03403
G1 X156.093 Y140.675 E.02459
G1 X156.178 Y140.932 E.01202
G1 X156.306 Y141.444 E.02343
G1 X156.384 Y141.97 E.02355
G1 X156.41 Y142.492 E.02321
G1 X156.41 Y152.51 E.44434
G1 X156.352 Y153.289 E.03463
G1 X156.306 Y153.558 E.01212
G1 X156.178 Y154.068 E.02332
G1 X156.093 Y154.325 E.01201
G1 X155.891 Y154.813 E.02344
G1 X155.642 Y155.279 E.02344
G1 X155.497 Y155.508 E.01201
G1 X155.184 Y155.93 E.02332
G1 X155.007 Y156.135 E.01201
G1 X154.635 Y156.507 E.02332
G1 X154.43 Y156.684 E.01201
G1 X154.008 Y156.997 E.02332
G1 X153.779 Y157.142 E.01201
G1 X153.313 Y157.391 E.02343
G1 X152.847 Y157.584 E.02238
G1 X152.568 Y157.678 E.01305
G1 X152.056 Y157.806 E.02345
G1 X151.533 Y157.884 E.02344
G1 X151.263 Y157.904 E.01201
G1 X98.99 Y157.91 E2.31856
G1 X98.211 Y157.852 E.03463
G1 X97.942 Y157.806 E.01212
G1 X97.432 Y157.678 E.02332
G1 X97.175 Y157.593 E.01201
G1 X96.687 Y157.391 E.02344
G1 X96.221 Y157.142 E.02344
G1 X95.992 Y156.997 E.01201
G1 X95.566 Y156.681 E.02354
G1 X95.009 Y156.153 E.03403
G1 X94.655 Y155.723 E.0247
