; generated by PrusaSlicer 2.4.2 on 2022-08-18 at 19:48:29 UTC

; 

; external perimeters extrusion width = 0.45mm
; perimeters extrusion width = 0.45mm
; infill extrusion width = 0.45mm
; solid infill extrusion width = 0.45mm
; top infill extrusion width = 0.40mm
; first layer extrusion width = 0.42mm

M73 P0 R128
M73 Q0 S129
M201 X1000 Y1000 Z200 E5000 ; sets maximum accelerations, mm/sec^2
M203 X200 Y200 Z12 E120 ; sets maximum feedrates, mm / sec
M204 P1250 R1250 T1250 ; sets acceleration (P, T) and retract acceleration (R), mm/sec^2
M205 X8.00 Y8.00 Z0.40 E4.50 ; sets the jerk limits, mm/sec
M205 S0 T0 ; sets the minimum extruding and travel feed rate, mm/sec
M107
;TYPE:Custom
M862.3 P "MK3S" ; printer model check
M862.1 P0.4 ; nozzle diameter check
M115 U3.10.1 ; tell printer latest fw version
G90 ; use absolute coordinates
M83 ; extruder relative mode
M104 S230 ; set extruder temp
M140 S85 ; set bed temp
M190 S85 ; wait for bed temp
M109 S230 ; wait for extruder temp
G28 W ; home all without mesh bed level
G80 ; mesh bed leveling
G1 Z0.2 F720
G1 Y-3 F1000 ; go outside print area
G92 E0
G1 X60 E9 F1000 ; intro line
G1 X100 E12.5 F1000 ; intro line
G92 E0
M221 S95

; Don't change E values below. Excessive value can damage the printer.
M907 E430 ; set extruder motor current
G21 ; set units to millimeters
G90 ; use absolute coordinates
M83 ; use relative distances for extrusion
M900 K0.08 ; Filament gcode LA 1.5
M900 K45 ; Filament gcode LA 1.0
M107
;LAYER_CHANGE
;Z:0.2
;HEIGHT:0.2
;BEFORE_LAYER_CHANGE
G92 E0.0
;0.2


G1 E-1 F2100
G1 Z.2 F720
;AFTER_LAYER_CHANGE
;0.2
G1 Z.4
G1 X82.643 Y43.758 F10800
G1 Z.2 F720
G1 E1 F2100
M204 S800
;TYPE:Skirt/Brim
;WIDTH:0.42
G1 F1200
G1 X83.11 Y43.059 E.02635
G1 X83.743 Y42.325 E.03038
G1 X84.366 Y41.761 E.02635
G1 X85.258 Y41.143 E.03403
G1 X86.123 Y40.707 E.03038
G1 X86.914 Y40.424 E.02635
G1 X87.86 Y40.212 E.03039
G1 X88.696 Y40.13 E.02635
G1 X161.058 Y40.124 E2.26886
G1 X162.382 Y40.254 E.0417
G1 X163.769 Y40.663 E.04534
G1 X165.05 Y41.334 E.04534
G1 X166.166 Y42.234 E.04496
G1 X166.959 Y43.153 E.03806
G1 X167.693 Y44.399 E.04534
G1 X168.169 Y45.764 E.04534
G1 X168.365 Y47.08 E.0417
G1 X168.377 Y162.5 E3.61892
G1 X168.305 Y163.525 E.03221
M73 P0 R127
G1 X168.141 Y164.349 E.02635
G1 X167.837 Y165.269 E.03038
G1 X167.357 Y166.242 E.03403
G1 X166.89 Y166.941 E.02635
G1 X166.257 Y167.675 E.03038
G1 X165.634 Y168.239 E.02635
G1 X164.842 Y168.797 E.03038
G1 X164.101 Y169.193 E.02635
G1 X163.197 Y169.542 E.03039
G1 X162.173 Y169.782 E.03297
G1 X161.304 Y169.87 E.0274
G1 X88.942 Y169.876 E2.26886
G1 X87.975 Y169.805 E.03038
G1 X86.926 Y169.579 E.03365
G1 X86.123 Y169.293 E.02673
G1 X85.258 Y168.857 E.03038
G1 X84.559 Y168.39 E.02635
G1 X83.825 Y167.757 E.03038
G1 X83.261 Y167.134 E.02635
G1 X82.643 Y166.242 E.03403
G1 X82.207 Y165.377 E.03038
G1 X81.921 Y164.574 E.02673
G1 X81.695 Y163.525 E.03365
G1 X81.624 Y162.558 E.03038
G1 X81.623 Y47.5 E3.60757
G1 X81.695 Y46.475 E.03221
G1 X81.859 Y45.651 E.02635
G1 X82.163 Y44.731 E.03038
G1 X82.617 Y43.812 E.03215
M204 S1000
; printing object 1R_foot-BodyFillet003.stl id:0 copy 0
;WIPE_START
G1 F8640
G1 X83.11 Y43.059 E-.20779
G1 X83.743 Y42.325 E-.22376
G1 X84.366 Y41.761 E-.19403
G1 X85.258 Y41.143 E-.25059
G1 X85.543 Y40.999 E-.07382
;WIPE_END
G1 E-.05 F2100
G1 Z.4 F720
G1 X97.179 Y84.512 F10800
G1 Z.2 F720
G1 E1 F2100
M204 S800
;TYPE:Perimeter
G1 F1200
G1 X97.871 Y84.323 E.02248
G1 X98.433 Y84.24 E.01781
G1 X98.983 Y84.213 E.01728
G1 X151.024 Y84.213 E1.63171
G1 X151.835 Y84.273 E.02549
G1 X152.136 Y84.325 E.00958
G1 X152.673 Y84.46 E.01736
G1 X152.957 Y84.553 E.00936
G1 X153.468 Y84.765 E.01736
G1 X153.735 Y84.899 E.00936
G1 X154.216 Y85.188 E.01758
G1 X154.666 Y85.522 E.01758
G1 X154.892 Y85.717 E.00936
G1 X155.283 Y86.108 E.01736
G1 X155.478 Y86.334 E.00936
G1 X155.812 Y86.784 E.01758
G1 X156.104 Y87.272 E.01781
G1 X156.348 Y87.786 E.01783
G1 X156.546 Y88.344 E.01858
G1 X156.725 Y89.144 E.02569
G1 X156.781 Y89.716 E.01803
G1 X156.781 Y120.277 E.95821
G1 X156.759 Y120.574 E.00936
G1 X156.677 Y121.129 E.01758
G1 X156.545 Y121.655 E.01702
G1 X156.447 Y121.956 E.0099
G1 X156.235 Y122.468 E.01738
G1 X156.101 Y122.735 E.00936
G1 X155.812 Y123.216 E.01758
G1 X155.478 Y123.666 E.01758
G1 X155.283 Y123.892 E.00936
G1 X154.892 Y124.283 E.01736
G1 X154.666 Y124.478 E.00936
G1 X154.216 Y124.812 E.01758
G1 X153.728 Y125.104 E.01781
G1 X153.215 Y125.347 E.01781
G1 X152.687 Y125.536 E.01758
G1 X152.399 Y125.616 E.00936
G1 X151.842 Y125.727 E.01781
G1 X151.024 Y125.787 E.02572
G1 X98.976 Y125.787 E1.63194
G1 X98.165 Y125.727 E.02549
G1 X97.864 Y125.675 E.00958
G1 X97.327 Y125.54 E.01736
G1 X97.043 Y125.447 E.00936
G1 X96.532 Y125.235 E.01736
G1 X96.265 Y125.101 E.00936
G1 X95.784 Y124.812 E.01758
G1 X95.334 Y124.478 E.01758
G1 X95.108 Y124.283 E.00936
G1 X94.717 Y123.892 E.01736
G1 X94.522 Y123.666 E.00936
G1 X94.188 Y123.216 E.01758
G1 X93.896 Y122.728 E.01781
G1 X93.652 Y122.214 E.01783
G1 X93.454 Y121.656 E.01858
G1 X93.275 Y120.856 E.02569
G1 X93.219 Y120.284 E.01802
G1 X93.219 Y89.716 E.95844
G1 X93.275 Y89.151 E.01781
G1 X93.386 Y88.594 E.01781
G1 X93.55 Y88.05 E.01781
G1 X93.765 Y87.532 E.01758
G1 X93.899 Y87.265 E.00936
G1 X94.188 Y86.784 E.01758
G1 X94.526 Y86.328 E.01781
G1 X94.907 Y85.907 E.01781
G1 X95.328 Y85.526 E.01781
G1 X95.784 Y85.188 E.01781
G1 X96.272 Y84.896 E.01781
G1 X96.785 Y84.653 E.01781
G1 X97.123 Y84.532 E.01124
M204 S1000
G1 X97.306 Y84.867 F10800
M204 S800
;TYPE:External perimeter
G1 F1200
G1 X97.944 Y84.694 E.02073
G1 X98.47 Y84.616 E.01665
G1 X98.992 Y84.59 E.01641
G1 X151.01 Y84.59 E1.63098
G1 X151.789 Y84.648 E.02448
G1 X152.058 Y84.694 E.00857
G1 X152.568 Y84.822 E.01648
G1 X152.825 Y84.907 E.00849
G1 X153.311 Y85.108 E.01649
G1 X153.553 Y85.23 E.00849
G1 X154.006 Y85.501 E.01657
G1 X154.43 Y85.816 E.01657
G1 X154.635 Y85.993 E.00849
G1 X155.007 Y86.365 E.01649
G1 X155.184 Y86.57 E.00849
G1 X155.499 Y86.994 E.01657
G1 X155.771 Y87.45 E.01665
G1 X155.999 Y87.93 E.01666
G1 X156.183 Y88.449 E.01727
G1 X156.352 Y89.204 E.02425
G1 X156.404 Y89.735 E.01672
G1 X156.404 Y120.263 E.9572
G1 X156.384 Y120.533 E.00849
G1 X156.306 Y121.055 E.01656
G1 X156.183 Y121.551 E.01602
G1 X156.093 Y121.825 E.00903
G1 X155.892 Y122.311 E.0165
G1 X155.77 Y122.553 E.00849
G1 X155.499 Y123.006 E.01657
G1 X155.184 Y123.43 E.01657
G1 X155.007 Y123.635 E.00849
G1 X154.635 Y124.007 E.01649
G1 X154.43 Y124.184 E.00849
G1 X154.006 Y124.499 E.01657
G1 X153.55 Y124.771 E.01665
G1 X153.07 Y124.998 E.01665
G1 X152.573 Y125.176 E.01657
G1 X152.312 Y125.249 E.00849
G1 X151.791 Y125.352 E.01665
G1 X151.01 Y125.41 E.02456
G1 X98.99 Y125.41 E1.63106
G1 X98.211 Y125.352 E.02448
M73 Q0 S128
G1 X97.942 Y125.306 E.00857
G1 X97.432 Y125.178 E.01648
G1 X97.175 Y125.093 E.00849
G1 X96.689 Y124.892 E.01649
G1 X96.447 Y124.77 E.00849
G1 X95.994 Y124.499 E.01657
G1 X95.57 Y124.184 E.01657
G1 X95.365 Y124.007 E.00849
G1 X94.993 Y123.635 E.01649
G1 X94.816 Y123.43 E.00849
G1 X94.501 Y123.006 E.01657
G1 X94.229 Y122.55 E.01665
G1 X94.001 Y122.07 E.01666
G1 X93.817 Y121.551 E.01727
G1 X93.648 Y120.796 E.02425
G1 X93.596 Y120.265 E.01672
G1 X93.596 Y89.735 E.95728
G1 X93.648 Y89.206 E.01665
G1 X93.752 Y88.685 E.01665
G1 X93.906 Y88.177 E.01665
G1 X94.108 Y87.689 E.01657
G1 X94.23 Y87.447 E.00849
G1 X94.501 Y86.994 E.01657
G1 X94.818 Y86.568 E.01665
G1 X95.174 Y86.174 E.01665
G1 X95.568 Y85.818 E.01665
G1 X95.994 Y85.501 E.01665
G1 X96.45 Y85.229 E.01665
G1 X96.93 Y85.002 E.01665
G1 X97.25 Y84.887 E.01066
M204 S1000
G1 X97.391 Y84.476 F10800
;WIPE_START
G1 F8640
G1 X97.944 Y84.694 E-.16651
G1 X98.47 Y84.616 E-.1226
G1 X98.992 Y84.59 E-.12083
G1 X101.331 Y84.59 E-.54006
;WIPE_END
G1 E-.05 F2100
G1 Z.4 F720
G1 X98.183 Y73.228 F10800
G1 Z.2 F720
G1 E1 F2100
M204 S800
;TYPE:Perimeter
G1 F1200
G1 X97.864 Y73.175 E.01016
G1 X97.327 Y73.04 E.01736
G1 X97.043 Y72.947 E.00936
G1 X96.525 Y72.732 E.01758
G1 X96.031 Y72.468 E.01758
G1 X95.779 Y72.308 E.00936
G1 X95.323 Y71.97 E.0178
G1 X94.729 Y71.406 E.02569
G1 X94.352 Y70.948 E.01858
G1 X94.04 Y70.482 E.0176
G1 X93.758 Y69.951 E.01883
G1 X93.55 Y69.45 E.01702
G1 X93.386 Y68.906 E.0178
G1 X93.273 Y68.342 E.01803
G1 X93.213 Y67.524 E.02572
G1 X93.213 Y57.483 E.31483
G1 X93.24 Y56.933 E.01728
G1 X93.323 Y56.371 E.01781
G1 X93.46 Y55.827 E.01758
G1 X93.553 Y55.543 E.00936
G1 X93.768 Y55.025 E.01758
G1 X94.036 Y54.524 E.01781
G1 X94.351 Y54.052 E.01781
G1 X94.711 Y53.613 E.01781
G1 X95.108 Y53.217 E.01758
G1 X95.334 Y53.022 E.00936
G1 X95.784 Y52.688 E.01758
G1 X96.272 Y52.396 E.01781
G1 X96.785 Y52.153 E.01781
G1 X97.32 Y51.961 E.01781
G1 X97.871 Y51.823 E.01781
G1 X98.433 Y51.74 E.01781
G1 X98.983 Y51.713 E.01728
G1 X151.024 Y51.713 E1.63171
G1 X151.835 Y51.773 E.02549
G1 X152.136 Y51.825 E.00958
G1 X152.673 Y51.96 E.01736
G1 X152.957 Y52.053 E.00936
G1 X153.468 Y52.265 E.01736
G1 X153.735 Y52.399 E.00936
G1 X154.216 Y52.688 E.01758
G1 X154.672 Y53.026 E.0178
G1 X155.074 Y53.39 E.01702
G1 X155.288 Y53.613 E.00968
G1 X155.478 Y53.834 E.00916
G1 X155.808 Y54.279 E.01736
G1 X155.968 Y54.531 E.00936
G1 X156.229 Y55.019 E.01736
G1 X156.35 Y55.292 E.00936
G1 X156.539 Y55.82 E.01758
G1 X156.677 Y56.371 E.01781
G1 X156.76 Y56.933 E.01781
G1 X156.787 Y57.483 E.01728
G1 X156.787 Y67.524 E.31483
G1 X156.727 Y68.335 E.02549
G1 X156.675 Y68.636 E.00958
G1 X156.54 Y69.173 E.01736
G1 X156.447 Y69.457 E.00936
G1 X156.232 Y69.975 E.01758
G1 X155.968 Y70.469 E.01758
G1 X155.808 Y70.721 E.00936
G1 X155.478 Y71.166 E.01736
G1 X155.283 Y71.392 E.00936
G1 X154.892 Y71.783 E.01736
G1 X154.666 Y71.978 E.00936
G1 X154.216 Y72.312 E.01758
G1 X153.735 Y72.601 E.01758
G1 X153.468 Y72.735 E.00936
G1 X152.956 Y72.947 E.01738
G1 X152.655 Y73.045 E.0099
G1 X152.129 Y73.177 E.01702
G1 X151.574 Y73.259 E.01757
G1 X151.277 Y73.281 E.00936
G1 X98.976 Y73.287 E1.63986
G1 X98.243 Y73.233 E.02303
M204 S1000
G1 X98.211 Y72.852 F10800
M204 S800
;TYPE:External perimeter
G1 F1200
G1 X97.942 Y72.806 E.00857
G1 X97.432 Y72.678 E.01649
G1 X97.175 Y72.593 E.00849
G1 X96.687 Y72.391 E.01657
G1 X96.221 Y72.142 E.01657
G1 X95.992 Y71.997 E.00849
G1 X95.566 Y71.681 E.01664
G1 X95.005 Y71.148 E.02425
G1 X94.655 Y70.723 E.01727
G1 X94.361 Y70.284 E.01657
G1 X94.101 Y69.795 E.01736
G1 X93.906 Y69.323 E.01602
G1 X93.752 Y68.815 E.01664
G1 X93.648 Y68.291 E.01673
G1 X93.59 Y67.51 E.02456
G1 X93.59 Y57.492 E.3141
G1 X93.616 Y56.97 E.01641
G1 X93.694 Y56.444 E.01665
G1 X93.822 Y55.932 E.01657
G1 X93.907 Y55.675 E.00849
G1 X94.109 Y55.187 E.01657
G1 X94.359 Y54.719 E.01665
G1 X94.654 Y54.277 E.01665
G1 X94.991 Y53.867 E.01665
G1 X95.365 Y53.493 E.01657
G1 X95.57 Y53.316 E.00849
G1 X95.994 Y53.001 E.01657
G1 X96.45 Y52.729 E.01665
G1 X96.93 Y52.502 E.01665
G1 X97.429 Y52.323 E.01665
G1 X97.944 Y52.194 E.01665
G1 X98.47 Y52.116 E.01665
G1 X98.992 Y52.09 E.01641
G1 X151.01 Y52.09 E1.63098
G1 X151.789 Y52.148 E.02448
G1 X152.058 Y52.194 E.00857
G1 X152.568 Y52.322 E.01649
G1 X152.825 Y52.407 E.00849
G1 X153.311 Y52.608 E.01649
G1 X153.553 Y52.73 E.00849
G1 X154.006 Y53.001 E.01657
G1 X154.432 Y53.318 E.01664
G1 X154.811 Y53.66 E.01602
G1 X155.008 Y53.867 E.00895
G1 X155.184 Y54.07 E.00842
G1 X155.497 Y54.492 E.01648
G1 X155.642 Y54.721 E.00849
G1 X155.89 Y55.185 E.01649
G1 X155.999 Y55.432 E.00849
G1 X156.177 Y55.929 E.01657
G1 X156.306 Y56.444 E.01665
G1 X156.384 Y56.97 E.01665
G1 X156.41 Y57.492 E.01641
G1 X156.41 Y67.51 E.3141
G1 X156.352 Y68.289 E.02448
G1 X156.306 Y68.558 E.00857
G1 X156.178 Y69.068 E.01648
G1 X156.093 Y69.325 E.00849
G1 X155.891 Y69.813 E.01657
G1 X155.642 Y70.279 E.01657
G1 X155.497 Y70.508 E.00849
G1 X155.184 Y70.93 E.01648
G1 X155.007 Y71.135 E.00849
G1 X154.635 Y71.507 E.01648
G1 X154.43 Y71.684 E.00849
G1 X154.006 Y71.999 E.01657
G1 X153.553 Y72.27 E.01657
G1 X153.311 Y72.392 E.00849
G1 X152.825 Y72.593 E.01649
G1 X152.551 Y72.683 E.00903
G1 X152.055 Y72.806 E.01602
G1 X151.533 Y72.884 E.01656
G1 X151.263 Y72.904 E.00849
G1 X98.99 Y72.91 E1.63899
G1 X98.271 Y72.857 E.0226
M204 S1000
G1 X98.048 Y73.072 F10800
;WIPE_START
G1 F8640
G1 X97.942 Y72.806 E-.0769
G1 X97.432 Y72.678 E-.12141
G1 X97.175 Y72.593 E-.06251
G1 X96.687 Y72.391 E-.122
G1 X96.221 Y72.142 E-.122
G1 X95.992 Y71.997 E-.06251
G1 X95.566 Y71.681 E-.12257
G1 X95.005 Y71.148 E-.1786
G1 X94.78 Y70.876 E-.08152
;WIPE_END
G1 E-.05 F2100
G1 Z.4 F720
G1 X98.414 Y136.743 F10800
G1 Z.2 F720
G1 E1 F2100
M204 S800
;TYPE:Perimeter
G1 F1200
G1 X98.983 Y136.713 E.01786
G1 X151.024 Y136.713 E1.63171
G1 X151.835 Y136.773 E.02549
G1 X152.136 Y136.825 E.00958
G1 X152.673 Y136.96 E.01736
G1 X152.957 Y137.053 E.00936
G1 X153.468 Y137.265 E.01736
G1 X153.735 Y137.399 E.00936
G1 X154.216 Y137.688 E.01758
G1 X154.672 Y138.026 E.0178
G1 X155.074 Y138.39 E.01702
G1 X155.288 Y138.613 E.00968
G1 X155.478 Y138.834 E.00916
G1 X155.808 Y139.279 E.01736
G1 X155.968 Y139.531 E.00936
G1 X156.229 Y140.019 E.01736
G1 X156.35 Y140.292 E.00936
G1 X156.539 Y140.82 E.01758
G1 X156.677 Y141.371 E.01781
G1 X156.76 Y141.933 E.01781
G1 X156.787 Y142.483 E.01728
G1 X156.787 Y152.524 E.31483
G1 X156.727 Y153.335 E.02549
G1 X156.675 Y153.636 E.00958
G1 X156.54 Y154.173 E.01736
G1 X156.447 Y154.457 E.00936
G1 X156.232 Y154.975 E.01758
G1 X155.968 Y155.469 E.01758
G1 X155.808 Y155.721 E.00936
G1 X155.478 Y156.166 E.01736
G1 X155.283 Y156.392 E.00936
G1 X154.892 Y156.783 E.01736
G1 X154.666 Y156.978 E.00936
G1 X154.221 Y157.308 E.01736
G1 X153.969 Y157.468 E.00936
G1 X153.475 Y157.732 E.01758
G1 X152.974 Y157.94 E.01701
G1 X152.674 Y158.04 E.0099
G1 X152.129 Y158.177 E.01761
G1 X151.574 Y158.259 E.01758
G1 X151.277 Y158.281 E.00936
G1 X98.976 Y158.287 E1.63986
G1 X98.165 Y158.227 E.02549
M73 P0 R126
G1 X97.864 Y158.175 E.00958
G1 X97.327 Y158.04 E.01736
G1 X97.043 Y157.947 E.00936
G1 X96.525 Y157.732 E.01758
G1 X96.031 Y157.468 E.01758
G1 X95.779 Y157.308 E.00936
G1 X95.323 Y156.97 E.0178
G1 X94.729 Y156.406 E.02569
G1 X94.352 Y155.948 E.01858
G1 X94.04 Y155.482 E.0176
G1 X93.896 Y155.227 E.00916
G1 X93.758 Y154.951 E.00968
G1 X93.55 Y154.45 E.01702
G1 X93.386 Y153.906 E.0178
G1 X93.273 Y153.342 E.01803
G1 X93.213 Y152.524 E.02572
G1 X93.213 Y142.483 E.31483
G1 X93.24 Y141.933 E.01728
G1 X93.323 Y141.371 E.01781
G1 X93.46 Y140.827 E.01758
G1 X93.553 Y140.543 E.00936
G1 X93.768 Y140.025 E.01758
G1 X94.036 Y139.524 E.01781
G1 X94.351 Y139.052 E.01781
G1 X94.711 Y138.613 E.01781
G1 X95.108 Y138.217 E.01758
G1 X95.334 Y138.022 E.00936
G1 X95.784 Y137.688 E.01758
G1 X96.272 Y137.396 E.01781
G1 X96.785 Y137.153 E.01781
G1 X97.32 Y136.961 E.01781
G1 X97.871 Y136.823 E.01781
G1 X98.355 Y136.752 E.01535
M204 S1000
G1 X98.47 Y137.116 F10800
M204 S800
;TYPE:External perimeter
G1 F1200
G1 X98.992 Y137.09 E.01641
G1 X151.01 Y137.09 E1.63098
G1 X151.789 Y137.148 E.02448
G1 X152.058 Y137.194 E.00857
G1 X152.568 Y137.322 E.01649
G1 X152.825 Y137.407 E.00849
G1 X153.311 Y137.608 E.01649
G1 X153.553 Y137.73 E.00849
G1 X154.006 Y138.001 E.01657
G1 X154.432 Y138.318 E.01664
G1 X154.811 Y138.66 E.01602
G1 X155.008 Y138.867 E.00895
G1 X155.184 Y139.07 E.00842
G1 X155.497 Y139.492 E.01648
G1 X155.642 Y139.721 E.00849
G1 X155.89 Y140.185 E.01649
G1 X155.999 Y140.432 E.00849
G1 X156.177 Y140.929 E.01657
G1 X156.306 Y141.444 E.01665
G1 X156.384 Y141.97 E.01665
G1 X156.41 Y142.492 E.01641
G1 X156.41 Y152.51 E.3141
M73 P1 R126
G1 X156.352 Y153.289 E.02448
M73 Q1 S128
G1 X156.306 Y153.558 E.00857
G1 X156.178 Y154.068 E.01648
G1 X156.093 Y154.325 E.00849
G1 X155.891 Y154.813 E.01657
G1 X155.642 Y155.279 E.01657
G1 X155.497 Y155.508 E.00849
G1 X155.184 Y155.93 E.01648
G1 X155.007 Y156.135 E.00849
G1 X154.635 Y156.507 E.01648
G1 X154.43 Y156.684 E.00849
G1 X154.008 Y156.997 E.01648
G1 X153.779 Y157.142 E.00849
G1 X153.313 Y157.391 E.01656
G1 X152.841 Y157.587 E.01602
G1 X152.568 Y157.678 E.00903
G1 X152.056 Y157.806 E.01658
G1 X151.533 Y157.884 E.01657
G1 X151.263 Y157.904 E.00849
G1 X98.99 Y157.91 E1.63899
G1 X98.211 Y157.852 E.02448
G1 X97.942 Y157.806 E.00857
G1 X97.432 Y157.678 E.01649
G1 X97.175 Y157.593 E.00849
G1 X96.687 Y157.391 E.01657
