; generated by PrusaSlicer 2.7.1 on 2023-12-29 at 11:56:51 UTC


;
;
; 

; external perimeters extrusion width = 0.60mm
; perimeters extrusion width = 0.50mm
; infill extrusion width = 0.50mm
; solid infill extrusion width = 0.50mm
; top infill extrusion width = 0.45mm
; first layer extrusion width = 0.42mm

M73 P0 R115
M73 Q0 S116
M201 X1000 Y1000 Z200 E5000 ; sets maximum accelerations, mm/sec^2
M203 X200 Y200 Z12 E120 ; sets maximum feedrates, mm / sec
M204 S1250 T1250 ; sets acceleration (S) and retract acceleration (R), mm/sec^2
M205 X8.00 Y8.00 Z0.40 E4.50 ; sets the jerk limits, mm/sec
M205 S0 T0 ; sets the minimum extruding and travel feed rate, mm/sec

; printing object 1R_foot_bearing3-BodySketch.stl id:0 copy 0
; stop printing object 1R_foot_bearing3-BodySketch.stl id:0 copy 0

;TYPE:Custom
M862.3 P "MK3S" ; printer model check
M862.1 P0.4 ; nozzle diameter check
M115 U3.12.2 ; tell printer latest fw version
G90 ; use absolute coordinates
M83 ; extruder relative mode
M104 S240 ; set extruder temp
M140 S95 ; set bed temp
M190 S95 ; wait for bed temp
M109 S240 ; wait for extruder temp
G28 W ; home all without mesh bed level
G80 ; mesh bed leveling

G1 Z0.2 F720
G1 Y-3 F1000 ; go outside print area
G92 E0
G1 X60 E9 F1000 ; intro line
G1 X100 E12.5 F1000 ; intro line
M73 P0 R114

G92 E0
M221 S95

; Don't change E values below. Excessive value can damage the printer.

M907 E538 ; set extruder motor current
G21 ; set units to millimeters
G90 ; use absolute coordinates
M83 ; use relative distances for extrusion
M900 K0.08 ; Filament gcode LA 1.5
M900 K45 ; Filament gcode LA 1.0
M107 ; disable fan
;LAYER_CHANGE
;Z:0.3
;HEIGHT:0.3
;BEFORE_LAYER_CHANGE
G92 E0.0
;0.3


G1 E-1.4 F2100 ; retract
G1 Z.3 F720 ; move to next layer (0)
;AFTER_LAYER_CHANGE
;0.3
G1 X82.662 Y43.768 F10800 ; move to print after unknown position
G1 Z.3 F720 ; move to print after unknown position
G1 E1.4 F2100 ;  ; unretract
M204 S800 ; adjust acceleration
;TYPE:Skirt/Brim
;WIDTH:0.42
G1 F1200
G1 X83.127 Y43.072 E.03713 ; skirt
G1 X83.758 Y42.34 E.04287 ; skirt
G1 X84.379 Y41.778 E.03715 ; skirt
G1 X85.268 Y41.162 E.04797 ; skirt
G1 X86.132 Y40.727 E.04291 ; skirt
G1 X86.92 Y40.445 E.03712 ; skirt
G1 X87.864 Y40.233 E.04291 ; skirt
G1 X88.697 Y40.151 E.03713 ; skirt
G1 X161.058 Y40.145 E3.20956 ; skirt
G1 X162.378 Y40.275 E.05883 ; skirt
G1 X163.761 Y40.683 E.06396 ; skirt
G1 X165.038 Y41.353 E.06396 ; skirt
G1 X166.093 Y42.195 E.05987 ; skirt
G1 X166.942 Y43.165 E.05718 ; skirt
G1 X167.673 Y44.408 E.06396 ; skirt
G1 X168.12 Y45.657 E.05884 ; skirt
G1 X168.343 Y47.081 E.06393 ; skirt
G1 X168.356 Y162.5 E5.11939 ; skirt
G1 X168.284 Y163.522 E.04544 ; skirt
G1 X168.12 Y164.343 E.03713 ; skirt
G1 X167.773 Y165.368 E.048 ; skirt
G1 X167.338 Y166.232 E.04291 ; skirt
G1 X166.873 Y166.928 E.03713 ; skirt
G1 X166.242 Y167.66 E.04287 ; skirt
G1 X165.621 Y168.222 E.03715 ; skirt
G1 X164.831 Y168.779 E.04287 ; skirt
G1 X164.092 Y169.173 E.03715 ; skirt
G1 X163.19 Y169.521 E.04288 ; skirt
G1 X162.378 Y169.725 E.03714 ; skirt
G1 X161.303 Y169.849 E.048 ; skirt
G1 X88.942 Y169.855 E3.20956 ; skirt
G1 X87.978 Y169.784 E.04287 ; skirt
M73 Q0 S115
G1 X86.92 Y169.555 E.04801 ; skirt
G1 X86.132 Y169.273 E.03712 ; skirt
G1 X85.268 Y168.838 E.04291 ; skirt
G1 X84.572 Y168.373 E.03713 ; skirt
G1 X83.84 Y167.742 E.04287 ; skirt
G1 X83.278 Y167.121 E.03715 ; skirt
G1 X82.662 Y166.232 E.04797 ; skirt
G1 X82.227 Y165.368 E.04291 ; skirt
G1 X81.945 Y164.58 E.03712 ; skirt
G1 X81.733 Y163.636 E.04291 ; skirt
G1 X81.645 Y162.558 E.04797 ; skirt
G1 X81.644 Y47.5 E5.10338 ; skirt
G1 X81.716 Y46.478 E.04544 ; skirt
G1 X81.88 Y45.657 E.03713 ; skirt
G1 X82.183 Y44.739 E.04288 ; skirt
G1 X82.635 Y43.822 E.04535 ; skirt
M204 S1000 ; adjust acceleration
; printing object 1R_foot_bearing3-BodySketch.stl id:0 copy 0
;WIPE_START
G1 F8640
G1 X82.662 Y43.768 E-.01394 ; wipe and retract
G1 X83.127 Y43.072 E-.19328 ; wipe and retract
G1 X83.758 Y42.34 E-.22315 ; wipe and retract
G1 X84.379 Y41.778 E-.19339 ; wipe and retract
G1 X85.268 Y41.162 E-.24974 ; wipe and retract
G1 X86.132 Y40.727 E-.22336 ; wipe and retract
G1 X86.92 Y40.445 E-.19325 ; wipe and retract
G1 X87.384 Y40.341 E-.10989 ; wipe and retract
;WIPE_END
G1 Z.5 F720 ; move to first perimeter point
G1 X86.32 Y44.224 F10800 ; move to first perimeter point
G1 Z.3 F720 ; move to first perimeter point
G1 E1.4 F2100 ;  ; unretract
M204 S800 ; adjust acceleration
;TYPE:Perimeter
;WIDTH:0.42
G1 F1200
G1 X87.007 Y43.771 E.0365 ; perimeter
G1 X87.59 Y43.519 E.02817 ; perimeter
G1 X88.167 Y43.349 E.02668 ; perimeter
G1 X88.799 Y43.271 E.02824 ; perimeter
G1 X161.188 Y43.271 E3.2108 ; perimeter
G1 X161.82 Y43.348 E.02824 ; perimeter
G1 X162.619 Y43.59 E.03703 ; perimeter
G1 X163.351 Y43.981 E.03681 ; perimeter
G1 X163.992 Y44.508 E.03681 ; perimeter
G1 X164.515 Y45.143 E.03649 ; perimeter
G1 X164.824 Y45.685 E.02767 ; perimeter
G1 X165.105 Y46.472 E.03707 ; perimeter
G1 X165.181 Y46.988 E.02313 ; perimeter
G1 X165.229 Y47.627 E.02842 ; perimeter
G1 X165.234 Y161.551 E5.05307 ; perimeter
G1 X165.227 Y162.644 E.04848 ; perimeter
G1 X165.159 Y163.222 E.02581 ; perimeter
G1 X165.008 Y163.824 E.02753 ; perimeter
G1 X164.769 Y164.401 E.0277 ; perimeter
G1 X164.453 Y164.928 E.02726 ; perimeter
G1 X164.139 Y165.333 E.02273 ; perimeter
G1 X163.757 Y165.696 E.02337 ; perimeter
G1 X163.258 Y166.066 E.02755 ; perimeter
G1 X162.808 Y166.323 E.02299 ; perimeter
G1 X162.324 Y166.508 E.02298 ; perimeter
G1 X161.669 Y166.668 E.02991 ; perimeter
G1 X160.984 Y166.734 E.03052 ; perimeter
G1 X88.856 Y166.727 E3.19922 ; perimeter
G1 X88.278 Y166.659 E.02581 ; perimeter
G1 X87.676 Y166.508 E.02753 ; perimeter
G1 X87.102 Y166.271 E.02754 ; perimeter
G1 X86.569 Y165.951 E.02757 ; perimeter
G1 X86.087 Y165.555 E.02767 ; perimeter
G1 X85.674 Y165.1 E.02726 ; perimeter
G1 X85.378 Y164.681 E.02275 ; perimeter
G1 X85.141 Y164.211 E.02335 ; perimeter
G1 X84.954 Y163.727 E.02301 ; perimeter
G1 X84.832 Y163.168 E.02538 ; perimeter
G1 X84.766 Y162.484 E.03048 ; perimeter
G1 X84.766 Y47.623 E5.09463 ; perimeter
G1 X84.786 Y47.092 E.02357 ; perimeter
G1 X84.894 Y46.472 E.02791 ; perimeter
G1 X85.089 Y45.88 E.02765 ; perimeter
G1 X85.369 Y45.324 E.02761 ; perimeter
G1 X85.724 Y44.82 E.02734 ; perimeter
G1 X86.277 Y44.267 E.03469 ; perimeter
M204 S1000 ; adjust acceleration
G1 X86.09 Y43.951 F10800 ; move to first perimeter point
M204 S800 ; adjust acceleration
;TYPE:External perimeter
G1 F1200
G1 X86.839 Y43.457 E.0398 ; perimeter
G1 X87.463 Y43.187 E.03016 ; perimeter
G1 X88.102 Y42.999 E.02954 ; perimeter
G1 X88.777 Y42.916 E.03016 ; perimeter
G1 X161.209 Y42.916 E3.2127 ; perimeter
G1 X161.894 Y42.999 E.03061 ; perimeter
G1 X162.756 Y43.26 E.03995 ; perimeter
G1 X163.55 Y43.684 E.03992 ; perimeter
G1 X164.245 Y44.255 E.0399 ; perimeter
G1 X164.809 Y44.941 E.03939 ; perimeter
G1 X165.148 Y45.536 E.03037 ; perimeter
G1 X165.452 Y46.385 E.04 ; perimeter
G1 X165.584 Y47.279 E.04008 ; perimeter
G1 X165.584 Y47.627 E.01544 ; perimeter
G1 X165.59 Y162.377 E5.08971 ; perimeter
G1 X165.568 Y162.947 E.0253 ; perimeter
G1 X165.452 Y163.615 E.03007 ; perimeter
G1 X165.24 Y164.256 E.02995 ; perimeter
G1 X164.936 Y164.859 E.02995 ; perimeter
G1 X164.684 Y165.218 E.01945 ; perimeter
G1 X164.247 Y165.744 E.03033 ; perimeter
G1 X163.734 Y166.186 E.03003 ; perimeter
G1 X163.349 Y166.43 E.02022 ; perimeter
G1 X162.759 Y166.739 E.02954 ; perimeter
G1 X162.115 Y166.952 E.03009 ; perimeter
G1 X161.729 Y167.019 E.01738 ; perimeter
G1 X160.992 Y167.09 E.03284 ; perimeter
G1 X88.839 Y167.082 E3.20033 ; perimeter
G1 X88.217 Y167.01 E.02777 ; perimeter
M73 P0 R113
G1 X87.564 Y166.846 E.02986 ; perimeter
G1 X86.942 Y166.588 E.02987 ; perimeter
G1 X86.365 Y166.242 E.02984 ; perimeter
G1 X85.841 Y165.812 E.03007 ; perimeter
G1 X85.394 Y165.319 E.02952 ; perimeter
G1 X85.073 Y164.865 E.02466 ; perimeter
G1 X84.816 Y164.355 E.02533 ; perimeter
G1 X84.613 Y163.831 E.02493 ; perimeter
G1 X84.481 Y163.229 E.02734 ; perimeter
G1 X84.41 Y162.492 E.03284 ; perimeter
G1 X84.41 Y47.623 E5.09499 ; perimeter
G1 X84.432 Y47.053 E.0253 ; perimeter
G1 X84.548 Y46.385 E.03007 ; perimeter
G1 X84.76 Y45.744 E.02995 ; perimeter
G1 X85.064 Y45.141 E.02995 ; perimeter
G1 X85.451 Y44.59 E.02987 ; perimeter
G1 X86.048 Y43.994 E.03742 ; perimeter
M204 S1000 ; adjust acceleration
;WIPE_START
G1 F8640
G1 X86.09 Y43.951 E-.01388 ; wipe and retract
G1 X86.839 Y43.457 E-.20717 ; wipe and retract
G1 X87.463 Y43.187 E-.15699 ; wipe and retract
G1 X88.102 Y42.999 E-.1538 ; wipe and retract
G1 X88.777 Y42.916 E-.15703 ; wipe and retract
G1 X91.857 Y42.916 E-.71113 ; wipe and retract
;WIPE_END
G1 Z.5 F720 ; move to first perimeter point
G1 X146.357 Y72.905 F10800 ; move to first perimeter point
G1 Z.3 F720 ; move to first perimeter point
M73 P1 R113
G1 E1.4 F2100 ;  ; unretract
M204 S800 ; adjust acceleration
;TYPE:Perimeter
G1 F1200
G1 X146.234 Y72.002 E.04042 ; perimeter
G1 X146.234 Y53.496 E.82083 ; perimeter
G1 X146.352 Y52.566 E.04158 ; perimeter
M73 Q1 S115
G1 X146.651 Y51.785 E.03709 ; perimeter
G1 X147.058 Y51.153 E.03334 ; perimeter
G1 X147.707 Y50.517 E.0403 ; perimeter
G1 X148.5 Y50.05 E.04082 ; perimeter
G1 X149.215 Y49.819 E.03333 ; perimeter
G1 X149.944 Y49.737 E.03254 ; perimeter
G1 X155.004 Y49.734 E.22444 ; perimeter
G1 X155.514 Y49.771 E.02268 ; perimeter
G1 X156.055 Y49.886 E.02453 ; perimeter
G1 X156.574 Y50.08 E.02458 ; perimeter
G1 X157.336 Y50.551 E.03973 ; perimeter
G1 X157.742 Y50.922 E.02439 ; perimeter
G1 X158.286 Y51.668 E.04095 ; perimeter
G1 X158.633 Y52.523 E.04093 ; perimeter
G1 X158.766 Y53.496 E.04356 ; perimeter
G1 X158.766 Y72.003 E.82087 ; perimeter
G1 X158.737 Y72.434 E.01916 ; perimeter
G1 X158.564 Y73.206 E.03509 ; perimeter
G1 X158.164 Y74.036 E.04087 ; perimeter
G1 X157.816 Y74.499 E.02569 ; perimeter
G1 X157.418 Y74.885 E.02459 ; perimeter
G1 X156.969 Y75.209 E.02456 ; perimeter
G1 X156.477 Y75.463 E.02456 ; perimeter
G1 X155.953 Y75.642 E.02456 ; perimeter
G1 X155.004 Y75.766 E.04245 ; perimeter
G1 X149.996 Y75.766 E.22213 ; perimeter
G1 X149.023 Y75.633 E.04356 ; perimeter
G1 X148.284 Y75.348 E.03513 ; perimeter
G1 X147.789 Y75.047 E.0257 ; perimeter
G1 X147.366 Y74.69 E.02455 ; perimeter
G1 X147 Y74.274 E.02458 ; perimeter
G1 X146.699 Y73.809 E.02457 ; perimeter
G1 X146.367 Y72.977 E.03973 ; perimeter
G1 X146.365 Y72.965 E.00054 ; perimeter
M204 S1000 ; adjust acceleration
G1 X146.699 Y72.849 F10800 ; move to first perimeter point
M204 S800 ; adjust acceleration
;TYPE:External perimeter
G1 F1200
G1 X146.59 Y72.002 E.03788 ; perimeter
G1 X146.59 Y53.496 E.82083 ; perimeter
G1 X146.694 Y52.665 E.03715 ; perimeter
G1 X146.983 Y51.913 E.03573 ; perimeter
G1 X147.354 Y51.35 E.02991 ; perimeter
G1 X147.952 Y50.775 E.0368 ; perimeter
G1 X148.675 Y50.359 E.037 ; perimeter
G1 X149.318 Y50.16 E.02985 ; perimeter
G1 X149.979 Y50.091 E.02948 ; perimeter
G1 X155.004 Y50.09 E.22288 ; perimeter
G1 X155.513 Y50.129 E.02264 ; perimeter
G1 X156.002 Y50.241 E.02225 ; perimeter
G1 X156.477 Y50.428 E.02264 ; perimeter
G1 X157.146 Y50.851 E.03511 ; perimeter
G1 X157.529 Y51.215 E.02344 ; perimeter
G1 X157.996 Y51.873 E.03579 ; perimeter
G1 X158.301 Y52.651 E.03707 ; perimeter
G1 X158.41 Y53.496 E.03779 ; perimeter
G1 X158.41 Y72.003 E.82087 ; perimeter
G1 X158.39 Y72.356 E.01568 ; perimeter
G1 X158.217 Y73.128 E.03509 ; perimeter
G1 X157.846 Y73.876 E.03703 ; perimeter
G1 X157.535 Y74.28 E.02261 ; perimeter
G1 X157.173 Y74.627 E.02224 ; perimeter
G1 X156.764 Y74.918 E.02226 ; perimeter
G1 X156.317 Y75.145 E.02224 ; perimeter
G1 X155.842 Y75.304 E.02222 ; perimeter
G1 X155.004 Y75.41 E.03747 ; perimeter
G1 X149.996 Y75.41 E.22213 ; perimeter
G1 X149.193 Y75.312 E.03588 ; perimeter
G1 X148.412 Y75.017 E.03703 ; perimeter
G1 X147.979 Y74.746 E.02266 ; perimeter
G1 X147.598 Y74.42 E.02224 ; perimeter
G1 X147.269 Y74.042 E.02223 ; perimeter
G1 X146.999 Y73.619 E.02226 ; perimeter
G1 X146.721 Y72.905 E.03399 ; perimeter
M204 S1000 ; adjust acceleration
;WIPE_START
G1 F8640
G1 X146.699 Y72.849 E-.01389 ; wipe and retract
G1 X146.59 Y72.002 E-.19719 ; wipe and retract
G1 X146.59 Y66.853 E-1.18892 ; wipe and retract
;WIPE_END
G1 Z.5 F720 ; move to first perimeter point
G1 X133.345 Y73.67 F10800 ; move to first perimeter point
G1 Z.3 F720 ; move to first perimeter point
G1 E1.4 F2100 ;  ; unretract
M204 S800 ; adjust acceleration
;TYPE:Perimeter
G1 F1200
G1 X133.228 Y73.939 E.01301 ; perimeter
G1 X132.706 Y74.614 E.03785 ; perimeter
G1 X132.083 Y75.12 E.0356 ; perimeter
G1 X131.878 Y75.26 E.01101 ; perimeter
G1 X131.154 Y75.581 E.03513 ; perimeter
G1 X130.6 Y75.693 E.02507 ; perimeter
G1 X130.002 Y75.762 E.0267 ; perimeter
G1 X94.996 Y75.766 E1.55268 ; perimeter
G1 X94.486 Y75.729 E.02268 ; perimeter
G1 X93.982 Y75.622 E.02285 ; perimeter
G1 X93.122 Y75.26 E.04139 ; perimeter
G1 X92.386 Y74.706 E.04086 ; perimeter
G1 X91.807 Y73.99 E.04084 ; perimeter
G1 X91.419 Y73.154 E.04088 ; perimeter
G1 X91.238 Y72.159 E.04486 ; perimeter
G1 X91.238 Y53.341 E.83467 ; perimeter
G1 X91.285 Y52.896 E.01985 ; perimeter
G1 X91.439 Y52.281 E.02812 ; perimeter
G1 X91.745 Y51.61 E.03271 ; perimeter
G1 X92.294 Y50.887 E.04027 ; perimeter
G1 X92.866 Y50.4 E.03332 ; perimeter
G1 X93.512 Y50.043 E.03274 ; perimeter
G1 X94.215 Y49.819 E.03273 ; perimeter
G1 X94.997 Y49.734 E.03489 ; perimeter
G1 X130.004 Y49.734 E1.55273 ; perimeter
G1 X130.514 Y49.771 E.02268 ; perimeter
M73 Q1 S114
G1 X131.055 Y49.886 E.02453 ; perimeter
G1 X131.878 Y50.24 E.03974 ; perimeter
G1 X132.614 Y50.794 E.04086 ; perimeter
G1 X133.193 Y51.51 E.04084 ; perimeter
G1 X133.581 Y52.345 E.04084 ; perimeter
G1 X133.703 Y52.956 E.02764 ; perimeter
G1 X133.762 Y53.498 E.02418 ; perimeter
G1 X133.766 Y72.004 E.82083 ; perimeter
G1 X133.729 Y72.514 E.02268 ; perimeter
G1 X133.614 Y73.055 E.02453 ; perimeter
G1 X133.369 Y73.615 E.02711 ; perimeter
M204 S1000 ; adjust acceleration
;WIPE_START
G1 F8640
G1 X133.345 Y73.67 E-.01386 ; wipe and retract
G1 X133.228 Y73.939 E-.06773 ; wipe and retract
G1 X132.706 Y74.614 E-.19703 ; wipe and retract
G1 X132.083 Y75.12 E-.18532 ; wipe and retract
G1 X131.878 Y75.26 E-.05732 ; wipe and retract
G1 X131.154 Y75.581 E-.18287 ; wipe and retract
G1 X130.6 Y75.693 E-.13051 ; wipe and retract
G1 X130.002 Y75.762 E-.139 ; wipe and retract
G1 X128.156 Y75.762 E-.42636 ; wipe and retract
;WIPE_END
G1 Z.5 F720 ; move to first perimeter point
G1 X131.734 Y74.935 F10800 ; move to first perimeter point
G1 Z.3 F720 ; move to first perimeter point
G1 E1.4 F2100 ;  ; unretract
M204 S800 ; adjust acceleration
;TYPE:External perimeter
G1 F1200
G1 X131.01 Y75.256 E.03513 ; perimeter
G1 X130.189 Y75.404 E.037 ; perimeter
G1 X94.996 Y75.41 E1.56098 ; perimeter
G1 X94.496 Y75.373 E.02224 ; perimeter
G1 X94.007 Y75.262 E.02224 ; perimeter
G1 X93.266 Y74.935 E.03592 ; perimeter
G1 X92.605 Y74.425 E.03703 ; perimeter
G1 X92.087 Y73.771 E.037 ; perimeter
G1 X91.744 Y73.01 E.03702 ; perimeter
G1 X91.594 Y72.159 E.03833 ; perimeter
G1 X91.594 Y53.341 E.83467 ; perimeter
G1 X91.63 Y52.983 E.01596 ; perimeter
G1 X91.784 Y52.368 E.02812 ; perimeter
G1 X92.067 Y51.762 E.02967 ; perimeter
G1 X92.574 Y51.105 E.03681 ; perimeter
G1 X93.091 Y50.675 E.02983 ; perimeter
G1 X93.679 Y50.357 E.02965 ; perimeter
G1 X94.318 Y50.16 E.02966 ; perimeter
G1 X94.997 Y50.09 E.03028 ; perimeter
G1 X130.004 Y50.09 E1.55273 ; perimeter
G1 X130.513 Y50.129 E.02264 ; perimeter
G1 X131.01 Y50.244 E.02263 ; perimeter
G1 X131.734 Y50.565 E.03513 ; perimeter
G1 X132.395 Y51.074 E.037 ; perimeter
G1 X132.912 Y51.729 E.03701 ; perimeter
G1 X133.256 Y52.49 E.03704 ; perimeter
G1 X133.353 Y53.017 E.02377 ; perimeter
G1 X133.406 Y53.498 E.02146 ; perimeter
G1 X133.41 Y72.004 E.82083 ; perimeter
G1 X133.373 Y72.504 E.02224 ; perimeter
G1 X133.26 Y72.999 E.02252 ; perimeter
G1 X132.924 Y73.754 E.03665 ; perimeter
G1 X132.425 Y74.395 E.03603 ; perimeter
G1 X131.781 Y74.898 E.03624 ; perimeter
M204 S1000 ; adjust acceleration
;WIPE_START
G1 F8640
