; generated by PrusaSlicer 2.5.0 on 2023-03-12 at 08:08:36 UTC


;
;
; 

; external perimeters extrusion width = 0.60mm
; perimeters extrusion width = 0.50mm
; infill extrusion width = 0.50mm
; solid infill extrusion width = 0.50mm
; top infill extrusion width = 0.45mm
; support material extrusion width = 0.38mm
; first layer extrusion width = 0.42mm

M73 P0 R89
M73 Q0 S90
M201 X1000 Y1000 Z200 E5000 ; sets maximum accelerations, mm/sec^2
M203 X200 Y200 Z12 E120 ; sets maximum feedrates, mm / sec
M204 P1250 R1250 T1250 ; sets acceleration (P, T) and retract acceleration (R), mm/sec^2
M205 X8.00 Y8.00 Z0.40 E4.50 ; sets the jerk limits, mm/sec
M205 S0 T0 ; sets the minimum extruding and travel feed rate, mm/sec
M107 ; disable fan
;TYPE:Custom
M862.3 P "MK3S" ; printer model check
M862.1 P0.4 ; nozzle diameter check
M115 U3.11.0 ; tell printer latest fw version
G90 ; use absolute coordinates
M83 ; extruder relative mode
M104 S240 ; set extruder temp
M140 S95 ; set bed temp
M190 S95 ; wait for bed temp
M109 S240 ; wait for extruder temp
G28 W ; home all without mesh bed level
G80 ; mesh bed leveling

G1 Z0.2 F720
G1 Y-3 F1000 ; go outside print area
G92 E0
G1 X60 E9 F1000 ; intro line
G1 X100 E12.5 F1000 ; intro line

G92 E0
M221 S95

; Don't change E values below. Excessive value can damage the printer.

M907 E538 ; set extruder motor current
G21 ; set units to millimeters
G90 ; use absolute coordinates
M83 ; use relative distances for extrusion
M900 K0.08 ; Filament gcode LA 1.5
M900 K45 ; Filament gcode LA 1.0
M107 ; disable fan
;LAYER_CHANGE
;Z:0.3
;HEIGHT:0.3
;BEFORE_LAYER_CHANGE
G92 E0.0
;0.3


G1 E-1.4 F2100 ; retract
M73 P0 R88
M73 Q0 S89
G1 Z.2 F720 ; lift Z
G1 Z.3 ; move to next layer (0)
;AFTER_LAYER_CHANGE
;0.3
G1 Z.5 ; lift Z
G1 X82.662 Y43.768 F10800 ; move to first skirt point
G1 Z.3 F720 ; restore layer Z
G1 E1.4 F2100 ;  ; unretract
M204 S800 ; adjust acceleration
;TYPE:Skirt/Brim
;WIDTH:0.42
G1 F1200
G1 X83.127 Y43.072 E.03714 ; skirt
G1 X83.759 Y42.34 E.04289 ; skirt
G1 X84.572 Y41.627 E.04799 ; skirt
G1 X85.268 Y41.162 E.03714 ; skirt
G1 X86.132 Y40.727 E.04288 ; skirt
G1 X86.92 Y40.445 E.03714 ; skirt
G1 X87.864 Y40.233 E.04288 ; skirt
G1 X88.697 Y40.151 E.03713 ; skirt
G1 X161.058 Y40.145 E3.20956 ; skirt
G1 X162.492 Y40.298 E.06395 ; skirt
G1 X163.761 Y40.683 E.05885 ; skirt
G1 X165.038 Y41.353 E.06395 ; skirt
G1 X166.146 Y42.246 E.06314 ; skirt
G1 X166.942 Y43.165 E.05392 ; skirt
G1 X167.673 Y44.408 E.06395 ; skirt
G1 X168.12 Y45.657 E.05885 ; skirt
G1 X168.343 Y47.081 E.06395 ; skirt
G1 X168.356 Y162.5 E5.11937 ; skirt
G1 X168.284 Y163.522 E.04544 ; skirt
G1 X168.12 Y164.343 E.03713 ; skirt
G1 X167.817 Y165.261 E.04289 ; skirt
G1 X167.338 Y166.232 E.048 ; skirt
G1 X166.873 Y166.928 E.03713 ; skirt
G1 X166.241 Y167.66 E.04289 ; skirt
G1 X165.621 Y168.222 E.03713 ; skirt
G1 X164.732 Y168.838 E.048 ; skirt
G1 X163.868 Y169.273 E.04289 ; skirt
G1 X163.08 Y169.555 E.03713 ; skirt
G1 X162.136 Y169.767 E.04288 ; skirt
G1 X161.303 Y169.849 E.03713 ; skirt
G1 X88.942 Y169.855 E3.20956 ; skirt
G1 X87.864 Y169.767 E.048 ; skirt
G1 X86.92 Y169.555 E.04288 ; skirt
G1 X86.132 Y169.273 E.03714 ; skirt
G1 X85.268 Y168.838 E.04288 ; skirt
G1 X84.572 Y168.373 E.03714 ; skirt
G1 X83.84 Y167.742 E.04289 ; skirt
G1 X83.278 Y167.121 E.03713 ; skirt
G1 X82.662 Y166.232 E.048 ; skirt
G1 X82.227 Y165.368 E.04288 ; skirt
G1 X81.945 Y164.58 E.03714 ; skirt
G1 X81.733 Y163.636 E.04289 ; skirt
G1 X81.645 Y162.558 E.04799 ; skirt
G1 X81.644 Y47.5 E5.10337 ; skirt
G1 X81.716 Y46.478 E.04544 ; skirt
G1 X81.88 Y45.657 E.03713 ; skirt
G1 X82.227 Y44.632 E.048 ; skirt
G1 X82.635 Y43.822 E.04022 ; skirt
M204 S1000 ; adjust acceleration
; printing object 1R_foot_bearing_Body.stl id:0 copy 0
;WIPE_START
G1 F8640
G1 X83.127 Y43.072 E-.20708 ; wipe and retract
G1 X83.759 Y42.34 E-.22329 ; wipe and retract
G1 X84.572 Y41.627 E-.24984 ; wipe and retract
G1 X85.268 Y41.162 E-.19332 ; wipe and retract
G1 X86.132 Y40.727 E-.22325 ; wipe and retract
G1 X86.92 Y40.445 E-.19333 ; wipe and retract
G1 X87.089 Y40.407 E-.0399 ; wipe and retract
;WIPE_END
G1 E-.07 F2100 ; retract
G1 Z.5 F720 ; lift Z
G1 X86.32 Y44.224 F10800 ; move to first perimeter point
G1 Z.3 F720 ; restore layer Z
G1 E1.4 F2100 ;  ; unretract
M204 S800 ; adjust acceleration
;TYPE:Perimeter
;WIDTH:0.42
G1 F1200
G1 X87.007 Y43.771 E.03651 ; perimeter
G1 X87.591 Y43.519 E.0282 ; perimeter
G1 X88.167 Y43.349 E.02667 ; perimeter
G1 X88.799 Y43.271 E.02824 ; perimeter
G1 X161.188 Y43.271 E3.21078 ; perimeter
G1 X161.82 Y43.348 E.02825 ; perimeter
G1 X162.619 Y43.59 E.03705 ; perimeter
G1 X163.351 Y43.981 E.0368 ; perimeter
G1 X163.992 Y44.508 E.03679 ; perimeter
G1 X164.522 Y45.154 E.03707 ; perimeter
G1 X164.823 Y45.685 E.02707 ; perimeter
G1 X165.105 Y46.472 E.03707 ; perimeter
G1 X165.229 Y47.305 E.03738 ; perimeter
G1 X165.227 Y162.644 E5.11582 ; perimeter
G1 X165.159 Y163.222 E.0258 ; perimeter
G1 X165.008 Y163.824 E.02755 ; perimeter
G1 X164.771 Y164.398 E.02755 ; perimeter
G1 X164.451 Y164.931 E.02755 ; perimeter
G1 X164.055 Y165.413 E.02771 ; perimeter
G1 X163.6 Y165.826 E.02725 ; perimeter
G1 X163.181 Y166.122 E.02274 ; perimeter
G1 X162.711 Y166.359 E.02337 ; perimeter
G1 X162.227 Y166.546 E.02298 ; perimeter
G1 X161.668 Y166.668 E.02538 ; perimeter
G1 X160.984 Y166.734 E.03051 ; perimeter
G1 X88.856 Y166.727 E3.19921 ; perimeter
G1 X88.278 Y166.659 E.0258 ; perimeter
G1 X87.676 Y166.508 E.02755 ; perimeter
G1 X87.102 Y166.271 E.02755 ; perimeter
G1 X86.569 Y165.951 E.02755 ; perimeter
G1 X86.087 Y165.555 E.02771 ; perimeter
G1 X85.674 Y165.1 E.02725 ; perimeter
G1 X85.378 Y164.681 E.02274 ; perimeter
G1 X85.141 Y164.211 E.02337 ; perimeter
G1 X84.954 Y163.727 E.02298 ; perimeter
G1 X84.832 Y163.168 E.02538 ; perimeter
G1 X84.766 Y162.484 E.03051 ; perimeter
G1 X84.766 Y47.623 E5.09463 ; perimeter
G1 X84.786 Y47.092 E.02356 ; perimeter
G1 X84.894 Y46.472 E.02793 ; perimeter
G1 X85.089 Y45.88 E.02762 ; perimeter
G1 X85.369 Y45.324 E.02762 ; perimeter
G1 X85.724 Y44.82 E.02735 ; perimeter
G1 X86.277 Y44.267 E.03468 ; perimeter
M204 S1000 ; adjust acceleration
G1 X86.09 Y43.951 F10800 ; move to first perimeter point
M204 S800 ; adjust acceleration
;TYPE:External perimeter
G1 F1200
G1 X86.839 Y43.457 E.0398 ; perimeter
G1 X87.463 Y43.187 E.03013 ; perimeter
G1 X88.102 Y42.999 E.02957 ; perimeter
G1 X88.777 Y42.916 E.03018 ; perimeter
G1 X161.209 Y42.916 E3.2127 ; perimeter
G1 X161.894 Y42.999 E.03058 ; perimeter
G1 X162.756 Y43.26 E.03997 ; perimeter
G1 X163.55 Y43.684 E.0399 ; perimeter
G1 X164.245 Y44.255 E.0399 ; perimeter
G1 X164.817 Y44.952 E.03998 ; perimeter
G1 X165.148 Y45.536 E.02979 ; perimeter
G1 X165.452 Y46.385 E.03998 ; perimeter
G1 X165.584 Y47.279 E.0401 ; perimeter
G1 X165.582 Y162.661 E5.11775 ; perimeter
G1 X165.51 Y163.282 E.02773 ; perimeter
M73 P1 R88
M73 Q1 S89
G1 X165.346 Y163.936 E.02987 ; perimeter
G1 X165.088 Y164.558 E.02987 ; perimeter
G1 X164.742 Y165.135 E.02987 ; perimeter
G1 X164.312 Y165.659 E.03003 ; perimeter
G1 X163.819 Y166.106 E.02956 ; perimeter
G1 X163.365 Y166.427 E.02465 ; perimeter
G1 X162.855 Y166.684 E.02533 ; perimeter
G1 X162.331 Y166.887 E.02492 ; perimeter
G1 X161.729 Y167.019 E.02731 ; perimeter
G1 X160.992 Y167.09 E.03284 ; perimeter
G1 X88.839 Y167.082 E3.20037 ; perimeter
G1 X88.218 Y167.01 E.02773 ; perimeter
G1 X87.564 Y166.846 E.02987 ; perimeter
G1 X86.942 Y166.588 E.02987 ; perimeter
G1 X86.365 Y166.242 E.02987 ; perimeter
G1 X85.841 Y165.812 E.03003 ; perimeter
G1 X85.394 Y165.319 E.02956 ; perimeter
G1 X85.073 Y164.865 E.02465 ; perimeter
G1 X84.816 Y164.355 E.02533 ; perimeter
G1 X84.613 Y163.831 E.02492 ; perimeter
G1 X84.481 Y163.229 E.02731 ; perimeter
G1 X84.41 Y162.492 E.03284 ; perimeter
G1 X84.41 Y47.623 E5.09501 ; perimeter
G1 X84.432 Y47.053 E.02531 ; perimeter
M73 P1 R87
M73 Q1 S88
G1 X84.548 Y46.385 E.03007 ; perimeter
G1 X84.76 Y45.744 E.02995 ; perimeter
G1 X85.064 Y45.141 E.02995 ; perimeter
G1 X85.451 Y44.59 E.02987 ; perimeter
G1 X86.048 Y43.994 E.0374 ; perimeter
M204 S1000 ; adjust acceleration
G1 X86.463 Y44.097 F10800 ; move inwards before travel
;WIPE_START
G1 F8640
G1 X86.839 Y43.457 E-.2208 ; wipe and retract
G1 X87.463 Y43.187 E-.15686 ; wipe and retract
G1 X88.102 Y42.999 E-.15394 ; wipe and retract
G1 X88.777 Y42.916 E-.15711 ; wipe and retract
G1 X91.555 Y42.916 E-.64129 ; wipe and retract
;WIPE_END
G1 E-.07 F2100 ; retract
G1 Z.5 F720 ; lift Z
G1 X92.344 Y50.843 F10800 ; move to first perimeter point
G1 Z.3 F720 ; restore layer Z
G1 E1.4 F2100 ;  ; unretract
M204 S800 ; adjust acceleration
;TYPE:Perimeter
G1 F1200
G1 X92.866 Y50.4 E.03036 ; perimeter
G1 X93.512 Y50.043 E.03272 ; perimeter
G1 X94.215 Y49.819 E.03272 ; perimeter
G1 X94.997 Y49.734 E.0349 ; perimeter
G1 X155.003 Y49.734 E2.66157 ; perimeter
G1 X155.683 Y49.799 E.03029 ; perimeter
G1 X156.392 Y50.003 E.03272 ; perimeter
G1 X157.188 Y50.44 E.04029 ; perimeter
G1 X157.634 Y50.81 E.02571 ; perimeter
G1 X158 Y51.226 E.02457 ; perimeter
G1 X158.301 Y51.691 E.02457 ; perimeter
G1 X158.531 Y52.195 E.02457 ; perimeter
G1 X158.684 Y52.727 E.02457 ; perimeter
G1 X158.758 Y53.276 E.02455 ; perimeter
G1 X158.766 Y74.003 E.91936 ; perimeter
G1 X158.74 Y74.421 E.01856 ; perimeter
G1 X158.616 Y75.042 E.02811 ; perimeter
G1 X158.26 Y75.878 E.04029 ; perimeter
G1 X157.935 Y76.358 E.02571 ; perimeter
G1 X157.557 Y76.763 E.02457 ; perimeter
G1 X157.124 Y77.108 E.02457 ; perimeter
G1 X156.645 Y77.386 E.02455 ; perimeter
G1 X155.798 Y77.677 E.03973 ; perimeter
G1 X155.224 Y77.758 E.0257 ; perimeter
G1 X94.997 Y77.766 E2.67138 ; perimeter
G1 X94.579 Y77.74 E.01856 ; perimeter
G1 X93.958 Y77.616 E.02811 ; perimeter
G1 X93.122 Y77.26 E.04029 ; perimeter
G1 X92.642 Y76.935 E.02571 ; perimeter
G1 X92.237 Y76.557 E.02455 ; perimeter
G1 X91.713 Y75.831 E.03973 ; perimeter
G1 X91.367 Y74.977 E.04088 ; perimeter
G1 X91.238 Y74.069 E.04069 ; perimeter
G1 X91.238 Y53.341 E.91936 ; perimeter
G1 X91.285 Y52.896 E.01986 ; perimeter
G1 X91.439 Y52.281 E.0281 ; perimeter
G1 X91.745 Y51.61 E.03272 ; perimeter
G1 X92.299 Y50.882 E.04055 ; perimeter
M204 S1000 ; adjust acceleration
G1 X92.574 Y51.105 F10800 ; move to first perimeter point
M204 S800 ; adjust acceleration
;TYPE:External perimeter
G1 F1200
G1 X93.091 Y50.675 E.02985 ; perimeter
G1 X93.679 Y50.357 E.02964 ; perimeter
G1 X94.318 Y50.16 E.02964 ; perimeter
G1 X94.997 Y50.09 E.03027 ; perimeter
G1 X155.003 Y50.09 E2.66157 ; perimeter
G1 X155.648 Y50.153 E.02874 ; perimeter
G1 X156.289 Y50.344 E.02964 ; perimeter
G1 X157.013 Y50.749 E.03683 ; perimeter
G1 X157.402 Y51.08 E.02263 ; perimeter
G1 X157.731 Y51.458 E.02225 ; perimeter
G1 X158.001 Y51.881 E.02225 ; perimeter
G1 X158.206 Y52.339 E.02225 ; perimeter
G1 X158.342 Y52.822 E.02225 ; perimeter
G1 X158.405 Y53.319 E.02223 ; perimeter
G1 X158.41 Y74.003 E.91743 ; perimeter
G1 X158.391 Y74.352 E.01547 ; perimeter
G1 X158.267 Y74.973 E.02811 ; perimeter
G1 X157.935 Y75.734 E.03683 ; perimeter
G1 X157.644 Y76.153 E.02263 ; perimeter
G1 X157.299 Y76.518 E.02225 ; perimeter
G1 X156.905 Y76.828 E.02225 ; perimeter
G1 X156.47 Y77.077 E.02223 ; perimeter
G1 X155.686 Y77.339 E.03665 ; perimeter
G1 X155.181 Y77.405 E.02262 ; perimeter
G1 X94.997 Y77.41 E2.66945 ; perimeter
G1 X94.648 Y77.391 E.01547 ; perimeter
G1 X94.027 Y77.267 E.02811 ; perimeter
G1 X93.266 Y76.935 E.03683 ; perimeter
G1 X92.847 Y76.644 E.02263 ; perimeter
G1 X92.483 Y76.3 E.02223 ; perimeter
G1 X92.004 Y75.626 E.03666 ; perimeter
G1 X91.699 Y74.849 E.03704 ; perimeter
G1 X91.59 Y74.003 E.03782 ; perimeter
G1 X91.594 Y53.341 E.91645 ; perimeter
G1 X91.63 Y52.983 E.016 ; perimeter
G1 X91.784 Y52.368 E.0281 ; perimeter
G1 X92.067 Y51.762 E.02964 ; perimeter
G1 X92.537 Y51.153 E.03415 ; perimeter
M204 S1000 ; adjust acceleration
G1 X92.465 Y50.72 F10800 ; move inwards before travel
;WIPE_START
G1 F8640
G1 X93.091 Y50.675 E-.16895 ; wipe and retract
G1 X93.679 Y50.357 E-.15432 ; wipe and retract
G1 X94.318 Y50.16 E-.15432 ; wipe and retract
G1 X94.997 Y50.09 E-.1576 ; wipe and retract
G1 X98.006 Y50.09 E-.69482 ; wipe and retract
;WIPE_END
G1 E-.07 F2100 ; retract
G1 Z.5 F720 ; lift Z
G1 X157.527 Y91.224 F10800 ; move to first perimeter point
G1 Z.3 F720 ; restore layer Z
G1 E1.4 F2100 ;  ; unretract
M204 S800 ; adjust acceleration
;TYPE:Perimeter
G1 F1200
G1 X158.091 Y91.856 E.03761 ; perimeter
G1 X158.386 Y92.355 E.02571 ; perimeter
G1 X158.585 Y92.853 E.0238 ; perimeter
G1 X158.762 Y93.841 E.0445 ; perimeter
G1 X158.766 Y124.004 E1.33786 ; perimeter
G1 X158.729 Y124.513 E.02266 ; perimeter
G1 X158.507 Y125.363 E.03895 ; perimeter
G1 X158.061 Y126.187 E.04154 ; perimeter
G1 X157.437 Y126.866 E.04094 ; perimeter
G1 X156.969 Y127.209 E.02572 ; perimeter
G1 X156.477 Y127.463 E.02455 ; perimeter
G1 X155.617 Y127.711 E.03973 ; perimeter
G1 X155.004 Y127.766 E.02729 ; perimeter
G1 X94.996 Y127.766 E2.66161 ; perimeter
G1 X94.023 Y127.633 E.04359 ; perimeter
G1 X93.285 Y127.349 E.03508 ; perimeter
G1 X92.523 Y126.831 E.04085 ; perimeter
G1 X91.909 Y126.144 E.04087 ; perimeter
G1 X91.614 Y125.645 E.02572 ; perimeter
G1 X91.409 Y125.131 E.02455 ; perimeter
G1 X91.238 Y124.159 E.04376 ; perimeter
G1 X91.238 Y93.841 E1.34473 ; perimeter
G1 X91.285 Y93.396 E.01986 ; perimeter
G1 X91.439 Y92.781 E.02811 ; perimeter
G1 X91.745 Y92.11 E.03272 ; perimeter
G1 X92.294 Y91.387 E.04027 ; perimeter
G1 X92.866 Y90.9 E.03331 ; perimeter
G1 X93.512 Y90.543 E.03272 ; perimeter
G1 X94.215 Y90.319 E.03272 ; perimeter
G1 X94.997 Y90.234 E.03492 ; perimeter
G1 X155.004 Y90.234 E2.66157 ; perimeter
G1 X155.977 Y90.367 E.04358 ; perimeter
G1 X156.715 Y90.651 E.03508 ; perimeter
G1 X157.487 Y91.179 E.04144 ; perimeter
M204 S1000 ; adjust acceleration
G1 X157.273 Y91.459 F10800 ; move to first perimeter point
M204 S800 ; adjust acceleration
;TYPE:External perimeter
G1 F1200
G1 X157.822 Y92.088 E.03704 ; perimeter
G1 X158.077 Y92.53 E.02263 ; perimeter
G1 X158.263 Y93.015 E.02304 ; perimeter
G1 X158.406 Y93.841 E.03717 ; perimeter
G1 X158.41 Y124.004 E1.33786 ; perimeter
G1 X158.373 Y124.505 E.02228 ; perimeter
G1 X158.164 Y125.269 E.03513 ; perimeter
G1 X157.751 Y126.012 E.03771 ; perimeter
G1 X157.179 Y126.621 E.03706 ; perimeter
G1 X156.764 Y126.918 E.02263 ; perimeter
G1 X156.317 Y127.145 E.02223 ; perimeter
G1 X155.522 Y127.369 E.03666 ; perimeter
G1 X155.004 Y127.41 E.02305 ; perimeter
G1 X94.996 Y127.41 E2.66161 ; perimeter
G1 X94.193 Y127.312 E.03591 ; perimeter
G1 X93.413 Y127.017 E.03699 ; perimeter
G1 X92.727 Y126.541 E.03702 ; perimeter
G1 X92.178 Y125.912 E.03703 ; perimeter
G1 X91.923 Y125.47 E.02263 ; perimeter
G1 X91.741 Y125.003 E.02223 ; perimeter
G1 X91.594 Y124.159 E.03799 ; perimeter
G1 X91.594 Y93.841 E1.34473 ; perimeter
G1 X91.63 Y93.483 E.016 ; perimeter
G1 X91.784 Y92.868 E.02811 ; perimeter
G1 X92.067 Y92.262 E.02964 ; perimeter
G1 X92.574 Y91.605 E.03681 ; perimeter
G1 X93.091 Y91.175 E.02985 ; perimeter
G1 X93.679 Y90.857 E.02964 ; perimeter
G1 X94.318 Y90.66 E.02964 ; perimeter
G1 X94.997 Y90.59 E.03029 ; perimeter
G1 X155.004 Y90.59 E2.66157 ; perimeter
G1 X155.849 Y90.699 E.03782 ; perimeter
M73 P2 R87
M73 Q2 S88
G1 X156.587 Y90.983 E.03508 ; perimeter
G1 X157.223 Y91.425 E.03436 ; perimeter
M204 S1000 ; adjust acceleration
G1 X157.653 Y91.335 F10800 ; move inwards before travel
;WIPE_START
G1 F8640
G1 X157.822 Y92.088 E-.20627 ; wipe and retract
G1 X158.077 Y92.53 E-.11781 ; wipe and retract
G1 X158.263 Y93.015 E-.11994 ; wipe and retract
G1 X158.406 Y93.841 E-.19352 ; wipe and retract
G1 X158.407 Y96.84 E-.69246 ; wipe and retract
;WIPE_END
G1 E-.07 F2100 ; retract
G1 Z.5 F720 ; lift Z
G1 X157.383 Y159.405 F10800 ; move to first perimeter point
G1 Z.3 F720 ; restore layer Z
G1 E1.4 F2100 ;  ; unretract
M204 S800 ; adjust acceleration
;TYPE:Perimeter
G1 F1200
G1 X156.667 Y159.873 E.03792 ; perimeter
G1 X155.798 Y160.177 E.04085 ; perimeter
G1 X155.159 Y160.262 E.02859 ; perimeter
G1 X94.996 Y160.266 E2.6685 ; perimeter
G1 X94.487 Y160.229 E.02266 ; perimeter
