; generated by PrusaSlicer 2.5.0 on 2022-09-17 at 10:28:36 UTC

; 

; external perimeters extrusion width = 0.60mm
; perimeters extrusion width = 0.50mm
; infill extrusion width = 0.50mm
; solid infill extrusion width = 0.50mm
; top infill extrusion width = 0.45mm
; first layer extrusion width = 0.42mm

M73 P0 R66
M73 Q0 S67
M201 X1000 Y1000 Z200 E5000 ; sets maximum accelerations, mm/sec^2
M203 X200 Y200 Z12 E120 ; sets maximum feedrates, mm / sec
M204 P1250 R1250 T1250 ; sets acceleration (P, T) and retract acceleration (R), mm/sec^2
M205 X8.00 Y8.00 Z0.40 E4.50 ; sets the jerk limits, mm/sec
M205 S0 T0 ; sets the minimum extruding and travel feed rate, mm/sec
M107
;TYPE:Custom
M862.3 P "MK3S" ; printer model check
M862.1 P0.4 ; nozzle diameter check
M115 U3.10.1 ; tell printer latest fw version
G90 ; use absolute coordinates
M83 ; extruder relative mode
M104 S240 ; set extruder temp
M140 S95 ; set bed temp
M190 S95 ; wait for bed temp
M109 S240 ; wait for extruder temp
G28 W ; home all without mesh bed level
G80 ; mesh bed leveling
G1 Z0.2 F720
G1 Y-3 F1000 ; go outside print area
G92 E0
G1 X60 E9 F1000 ; intro line
G1 X100 E12.5 F1000 ; intro line
G92 E0
M221 S95

; Don't change E values below. Excessive value can damage the printer.

M907 E538 ; set extruder motor current
G21 ; set units to millimeters
G90 ; use absolute coordinates
M83 ; use relative distances for extrusion
M900 K0.08 ; Filament gcode LA 1.5
M900 K45 ; Filament gcode LA 1.0
M107
;LAYER_CHANGE
;Z:0.3
;HEIGHT:0.3
;BEFORE_LAYER_CHANGE
G92 E0.0
;0.3


G1 E-1.4 F2100
G1 Z.2 F720
G1 Z.3
;AFTER_LAYER_CHANGE
;0.3
G1 Z.5
G1 X94.595 Y92.018 F10800
G1 Z.3 F720
G1 E1.4 F2100
M204 S800
;TYPE:Skirt/Brim
;WIDTH:0.42
G1 F1200
G1 X95.639 Y91.149 E.06024
G1 X96.559 Y90.962 E.04163
G1 X154.859 Y90.962 E2.58589
G1 X156.159 Y91.354 E.06024
G1 X157.028 Y92.398 E.06024
G1 X157.215 Y93.318 E.04163
G1 X157.215 Y133.318 E1.77419
G1 X156.823 Y134.618 E.06024
G1 X155.779 Y135.487 E.06024
G1 X154.859 Y135.674 E.04163
G1 X96.559 Y135.674 E2.58589
G1 X95.259 Y135.282 E.06024
G1 X94.39 Y134.238 E.06024
G1 X94.203 Y133.318 E.04163
G1 X94.203 Y93.318 E1.77419
G1 X94.578 Y92.075 E.05758
M204 S1000
; printing object 2L_footJoint-Body.stl id:0 copy 0
;WIPE_START
G1 F8640
G1 X95.639 Y91.149 E-.32524
G1 X96.559 Y90.962 E-.21671
G1 X99.972 Y90.962 E-.78805
;WIPE_END
G1 E-.07 F2100
G1 Z.5 F720
G1 X97.325 Y94.084 F10800
G1 Z.3 F720
G1 E1.4 F2100
M204 S800
;TYPE:Perimeter
;WIDTH:0.42
G1 F1200
G1 X154.093 Y94.084 E2.51797
G1 X154.093 Y132.552 E1.70627
G1 X97.325 Y132.552 E2.51797
G1 X97.325 Y94.144 E1.70361
M204 S1000
G1 X96.969 Y93.728 F10800
M204 S800
;TYPE:External perimeter
G1 F1200
G1 X154.449 Y93.728 E2.54951
G1 X154.449 Y132.908 E1.73782
G1 X96.969 Y132.908 E2.54951
G1 X96.969 Y93.788 E1.73516
M204 S1000
G1 X97.361 Y93.807 F10800
;WIPE_START
G1 F8640
G1 X102.729 Y93.782 E-1.33
;WIPE_END
G1 E-.07 F2100
G1 Z.5 F720
G1 X153.987 Y94.912 F10800
G1 Z.3 F720
G1 E1.4 F2100
M204 S800
;TYPE:Solid infill
;WIDTH:0.421251
G1 F1200
G1 X153.425 Y94.35 E.03535
G1 X152.921 Y94.35 E.02246
G1 X153.827 Y95.257 E.05704
G1 X153.827 Y95.761 E.02246
G1 X152.416 Y94.35 E.08881
G1 X151.911 Y94.35 E.02246
G1 X153.827 Y96.266 E.12058
G1 X153.827 Y96.771 E.02246
G1 X151.406 Y94.35 E.15235
G1 X150.902 Y94.35 E.02246
G1 X153.827 Y97.275 E.18412
G1 X153.827 Y97.78 E.02246
G1 X150.397 Y94.35 E.21589
G1 X149.892 Y94.35 E.02246
G1 X153.827 Y98.285 E.24766
G1 X153.827 Y98.789 E.02246
G1 X149.388 Y94.35 E.27943
G1 X148.883 Y94.35 E.02246
G1 X153.827 Y99.294 E.3112
M73 Q1 S67
G1 X153.827 Y99.799 E.02246
M73 P1 R66
G1 X148.378 Y94.35 E.34296
G1 X147.874 Y94.35 E.02246
G1 X153.827 Y100.303 E.37473
G1 X153.827 Y100.808 E.02246
G1 X147.369 Y94.35 E.4065
G1 X146.864 Y94.35 E.02246
G1 X153.827 Y101.313 E.43827
G1 X153.827 Y101.817 E.02246
G1 X146.36 Y94.35 E.47004
G1 X145.855 Y94.35 E.02246
M73 Q1 S66
G1 X153.827 Y102.322 E.50181
G1 X153.827 Y102.827 E.02246
G1 X145.35 Y94.35 E.53358
G1 X144.845 Y94.35 E.02246
G1 X153.827 Y103.332 E.56535
G1 X153.827 Y103.836 E.02246
G1 X144.341 Y94.35 E.59712
G1 X143.836 Y94.35 E.02246
G1 X153.827 Y104.341 E.62889
G1 X153.827 Y104.846 E.02246
G1 X143.331 Y94.35 E.66066
G1 X142.827 Y94.35 E.02246
G1 X153.827 Y105.35 E.69242
G1 X153.827 Y105.855 E.02246
G1 X142.322 Y94.35 E.72419
G1 X141.817 Y94.35 E.02246
G1 X153.827 Y106.36 E.75596
G1 X153.827 Y106.864 E.02246
G1 X141.313 Y94.35 E.78773
G1 X140.808 Y94.35 E.02246
G1 X153.827 Y107.369 E.8195
G1 X153.827 Y107.874 E.02246
G1 X140.303 Y94.35 E.85127
G1 X139.799 Y94.35 E.02246
G1 X153.827 Y108.378 E.88304
G1 X153.827 Y108.883 E.02246
G1 X139.294 Y94.35 E.91481
G1 X138.789 Y94.35 E.02246
G1 X153.827 Y109.388 E.94658
G1 X153.827 Y109.893 E.02246
G1 X138.285 Y94.35 E.97835
G1 X137.78 Y94.35 E.02246
M73 P1 R65
G1 X153.827 Y110.397 E1.01012
G1 X153.827 Y110.902 E.02246
G1 X137.275 Y94.35 E1.04189
G1 X136.77 Y94.35 E.02246
G1 X153.827 Y111.407 E1.07365
G1 X153.827 Y111.911 E.02246
G1 X136.266 Y94.35 E1.10542
G1 X135.761 Y94.35 E.02246
G1 X153.827 Y112.416 E1.13719
G1 X153.827 Y112.921 E.02246
G1 X135.256 Y94.35 E1.16896
G1 X134.752 Y94.35 E.02246
G1 X153.827 Y113.425 E1.20073
G1 X153.827 Y113.93 E.02246
G1 X134.247 Y94.35 E1.2325
G1 X133.742 Y94.35 E.02246
G1 X153.827 Y114.435 E1.26427
G1 X153.827 Y114.939 E.02246
G1 X133.238 Y94.35 E1.29604
G1 X132.733 Y94.35 E.02246
G1 X153.827 Y115.444 E1.32781
G1 X153.827 Y115.949 E.02246
G1 X132.228 Y94.35 E1.35958
G1 X131.724 Y94.35 E.02246
G1 X153.827 Y116.453 E1.39135
G1 X153.827 Y116.958 E.02246
G1 X131.219 Y94.35 E1.42311
G1 X130.714 Y94.35 E.02246
G1 X153.827 Y117.463 E1.45488
G1 X153.827 Y117.968 E.02246
G1 X130.209 Y94.35 E1.48665
G1 X129.705 Y94.35 E.02246
G1 X153.827 Y118.472 E1.51842
G1 X153.827 Y118.977 E.02246
M73 P2 R65
M73 Q2 S66
G1 X129.2 Y94.35 E1.55019
G1 X128.695 Y94.35 E.02246
G1 X153.827 Y119.482 E1.58196
G1 X153.827 Y119.986 E.02246
G1 X128.191 Y94.35 E1.61373
G1 X127.686 Y94.35 E.02246
G1 X153.827 Y120.491 E1.6455
G1 X153.827 Y120.996 E.02246
G1 X127.181 Y94.35 E1.67727
G1 X126.677 Y94.35 E.02246
G1 X153.827 Y121.5 E1.70904
G1 X153.827 Y122.005 E.02246
G1 X126.172 Y94.35 E1.74081
G1 X125.667 Y94.35 E.02246
G1 X153.827 Y122.51 E1.77258
G1 X153.827 Y123.014 E.02246
G1 X125.163 Y94.35 E1.80434
G1 X124.658 Y94.35 E.02246
G1 X153.827 Y123.519 E1.83611
G1 X153.827 Y124.024 E.02246
G1 X124.153 Y94.35 E1.86788
G1 X123.648 Y94.35 E.02246
M73 Q2 S65
G1 X153.827 Y124.529 E1.89965
G1 X153.827 Y125.033 E.02246
G1 X123.144 Y94.35 E1.93142
G1 X122.639 Y94.35 E.02246
G1 X153.827 Y125.538 E1.96319
G1 X153.827 Y126.043 E.02246
G1 X122.134 Y94.35 E1.99496
G1 X121.63 Y94.35 E.02246
G1 X153.827 Y126.547 E2.02673
G1 X153.827 Y127.052 E.02246
G1 X121.125 Y94.35 E2.0585
G1 X120.62 Y94.35 E.02246
M73 P2 R64
G1 X153.827 Y127.557 E2.09027
G1 X153.827 Y128.061 E.02246
G1 X120.116 Y94.35 E2.12204
G1 X119.611 Y94.35 E.02246
M73 P3 R64
M73 Q3 S65
G1 X153.827 Y128.566 E2.1538
G1 X153.827 Y129.071 E.02246
G1 X119.106 Y94.35 E2.18557
G1 X118.602 Y94.35 E.02246
G1 X153.827 Y129.575 E2.21734
G1 X153.827 Y130.08 E.02246
G1 X118.097 Y94.35 E2.24911
G1 X117.592 Y94.35 E.02246
G1 X153.827 Y130.585 E2.28088
G1 X153.827 Y131.09 E.02246
G1 X117.088 Y94.35 E2.31265
G1 X116.583 Y94.35 E.02246
G1 X153.827 Y131.594 E2.34442
G1 X153.827 Y132.099 E.02246
G1 X116.078 Y94.35 E2.37619
G1 X115.573 Y94.35 E.02246
G1 X153.509 Y132.286 E2.38795
G1 X153.004 Y132.286 E.02246
G1 X115.069 Y94.35 E2.38795
G1 X114.564 Y94.35 E.02246
G1 X152.499 Y132.286 E2.38795
G1 X151.995 Y132.286 E.02246
G1 X114.059 Y94.35 E2.38795
G1 X113.555 Y94.35 E.02246
G1 X151.49 Y132.286 E2.38795
G1 X150.985 Y132.286 E.02246
G1 X113.05 Y94.35 E2.38795
G1 X112.545 Y94.35 E.02246
G1 X150.481 Y132.286 E2.38795
G1 X149.976 Y132.286 E.02246
M73 P4 R64
G1 X112.041 Y94.35 E2.38795
G1 X111.536 Y94.35 E.02246
M73 Q4 S64
G1 X149.471 Y132.286 E2.38795
G1 X148.967 Y132.286 E.02246
G1 X111.031 Y94.35 E2.38795
G1 X110.527 Y94.35 E.02246
G1 X148.462 Y132.286 E2.38795
G1 X147.957 Y132.286 E.02246
G1 X110.022 Y94.35 E2.38795
G1 X109.517 Y94.35 E.02246
G1 X147.453 Y132.286 E2.38795
G1 X146.948 Y132.286 E.02246
M73 P4 R63
G1 X109.012 Y94.35 E2.38795
G1 X108.508 Y94.35 E.02246
G1 X146.443 Y132.286 E2.38795
G1 X145.938 Y132.286 E.02246
G1 X108.003 Y94.35 E2.38795
G1 X107.498 Y94.35 E.02246
G1 X145.434 Y132.286 E2.38795
G1 X144.929 Y132.286 E.02246
G1 X106.994 Y94.35 E2.38795
G1 X106.489 Y94.35 E.02246
G1 X144.424 Y132.286 E2.38795
G1 X143.92 Y132.286 E.02246
G1 X105.984 Y94.35 E2.38795
G1 X105.48 Y94.35 E.02246
G1 X143.415 Y132.286 E2.38795
G1 X142.91 Y132.286 E.02246
G1 X104.975 Y94.35 E2.38795
G1 X104.47 Y94.35 E.02246
M73 P5 R63
G1 X142.406 Y132.286 E2.38795
G1 X141.901 Y132.286 E.02246
M73 Q5 S64
G1 X103.966 Y94.35 E2.38795
G1 X103.461 Y94.35 E.02246
G1 X141.396 Y132.286 E2.38795
G1 X140.892 Y132.286 E.02246
G1 X102.956 Y94.35 E2.38795
G1 X102.451 Y94.35 E.02246
G1 X140.387 Y132.286 E2.38795
G1 X139.882 Y132.286 E.02246
G1 X101.947 Y94.35 E2.38795
G1 X101.442 Y94.35 E.02246
G1 X139.377 Y132.286 E2.38795
G1 X138.873 Y132.286 E.02246
G1 X100.937 Y94.35 E2.38795
G1 X100.433 Y94.35 E.02246
M73 Q5 S63
G1 X138.368 Y132.286 E2.38795
G1 X137.863 Y132.286 E.02246
G1 X99.928 Y94.35 E2.38795
G1 X99.423 Y94.35 E.02246
G1 X137.359 Y132.286 E2.38795
G1 X136.854 Y132.286 E.02246
G1 X98.919 Y94.35 E2.38795
G1 X98.414 Y94.35 E.02246
G1 X136.349 Y132.286 E2.38795
G1 X135.845 Y132.286 E.02246
M73 P5 R62
G1 X97.909 Y94.35 E2.38795
G1 X97.591 Y94.35 E.01415
G1 X97.591 Y94.537 E.00831
G1 X135.34 Y132.286 E2.37619
G1 X134.835 Y132.286 E.02246
M73 P6 R62
G1 X97.591 Y95.042 E2.34442
G1 X97.591 Y95.546 E.02246
M73 Q6 S63
G1 X134.331 Y132.286 E2.31265
G1 X133.826 Y132.286 E.02246
G1 X97.591 Y96.051 E2.28088
G1 X97.591 Y96.556 E.02246
G1 X133.321 Y132.286 E2.24911
G1 X132.816 Y132.286 E.02246
G1 X97.591 Y97.061 E2.21734
G1 X97.591 Y97.565 E.02246
G1 X132.312 Y132.286 E2.18557
G1 X131.807 Y132.286 E.02246
G1 X97.591 Y98.07 E2.15381
G1 X97.591 Y98.575 E.02246
G1 X131.302 Y132.286 E2.12204
G1 X130.798 Y132.286 E.02246
G1 X97.591 Y99.079 E2.09027
G1 X97.591 Y99.584 E.02246
G1 X130.293 Y132.286 E2.0585
G1 X129.788 Y132.286 E.02246
G1 X97.591 Y100.089 E2.02673
G1 X97.591 Y100.593 E.02246
G1 X129.284 Y132.286 E1.99496
G1 X128.779 Y132.286 E.02246
G1 X97.591 Y101.098 E1.96319
G1 X97.591 Y101.603 E.02246
G1 X128.274 Y132.286 E1.93142
G1 X127.77 Y132.286 E.02246
G1 X97.591 Y102.107 E1.89965
G1 X97.591 Y102.612 E.02246
G1 X127.265 Y132.286 E1.86788
G1 X126.76 Y132.286 E.02246
M73 P7 R62
G1 X97.591 Y103.117 E1.83611
G1 X97.591 Y103.622 E.02246
M73 Q6 S62
G1 X126.256 Y132.286 E1.80435
G1 X125.751 Y132.286 E.02246
M73 Q7 S62
G1 X97.591 Y104.126 E1.77258
G1 X97.591 Y104.631 E.02246
G1 X125.246 Y132.286 E1.74081
G1 X124.741 Y132.286 E.02246
G1 X97.591 Y105.136 E1.70904
G1 X97.591 Y105.64 E.02246
G1 X124.237 Y132.286 E1.67727
G1 X123.732 Y132.286 E.02246
G1 X97.591 Y106.145 E1.6455
G1 X97.591 Y106.65 E.02246
G1 X123.227 Y132.286 E1.61373
G1 X122.723 Y132.286 E.02246
M73 P7 R61
G1 X97.591 Y107.154 E1.58196
G1 X97.591 Y107.659 E.02246
G1 X122.218 Y132.286 E1.55019
G1 X121.713 Y132.286 E.02246
G1 X97.591 Y108.164 E1.51842
G1 X97.591 Y108.668 E.02246
G1 X121.209 Y132.286 E1.48665
G1 X120.704 Y132.286 E.02246
G1 X97.591 Y109.173 E1.45488
G1 X97.591 Y109.678 E.02246
G1 X120.199 Y132.286 E1.42312
G1 X119.695 Y132.286 E.02246
G1 X97.591 Y110.182 E1.39135
G1 X97.591 Y110.687 E.02246
G1 X119.19 Y132.286 E1.35958
G1 X118.685 Y132.286 E.02246
G1 X97.591 Y111.192 E1.32781
G1 X97.591 Y111.697 E.02246
G1 X118.18 Y132.286 E1.29604
G1 X117.676 Y132.286 E.02246
G1 X97.591 Y112.201 E1.26427
G1 X97.591 Y112.706 E.02246
G1 X117.171 Y132.286 E1.2325
G1 X116.666 Y132.286 E.02246
G1 X97.591 Y113.211 E1.20073
G1 X97.591 Y113.715 E.02246
G1 X116.162 Y132.286 E1.16896
G1 X115.657 Y132.286 E.02246
G1 X97.591 Y114.22 E1.13719
G1 X97.591 Y114.725 E.02246
G1 X115.152 Y132.286 E1.10542
G1 X114.648 Y132.286 E.02246
M73 P8 R61
G1 X97.591 Y115.229 E1.07366
G1 X97.591 Y115.734 E.02246
G1 X114.143 Y132.286 E1.04189
G1 X113.638 Y132.286 E.02246
G1 X97.591 Y116.239 E1.01012
M73 Q8 S62
G1 X97.591 Y116.743 E.02246
G1 X113.134 Y132.286 E.97835
G1 X112.629 Y132.286 E.02246
G1 X97.591 Y117.248 E.94658
G1 X97.591 Y117.753 E.02246
G1 X112.124 Y132.286 E.91481
G1 X111.619 Y132.286 E.02246
G1 X97.591 Y118.258 E.88304
G1 X97.591 Y118.762 E.02246
G1 X111.115 Y132.286 E.85127
G1 X110.61 Y132.286 E.02246
G1 X97.591 Y119.267 E.8195
G1 X97.591 Y119.772 E.02246
G1 X110.105 Y132.286 E.78773
G1 X109.601 Y132.286 E.02246
G1 X97.591 Y120.276 E.75596
G1 X97.591 Y120.781 E.02246
G1 X109.096 Y132.286 E.72419
G1 X108.591 Y132.286 E.02246
G1 X97.591 Y121.286 E.69243
G1 X97.591 Y121.79 E.02246
G1 X108.087 Y132.286 E.66066
G1 X107.582 Y132.286 E.02246
G1 X97.591 Y122.295 E.62889
G1 X97.591 Y122.8 E.02246
G1 X107.077 Y132.286 E.59712
G1 X106.573 Y132.286 E.02246
G1 X97.591 Y123.304 E.56535
G1 X97.591 Y123.809 E.02246
G1 X106.068 Y132.286 E.53358
G1 X105.563 Y132.286 E.02246
G1 X97.591 Y124.314 E.50181
G1 X97.591 Y124.819 E.02246
G1 X105.059 Y132.286 E.47004
G1 X104.554 Y132.286 E.02246
G1 X97.591 Y125.323 E.43827
G1 X97.591 Y125.828 E.02246
G1 X104.049 Y132.286 E.4065
G1 X103.544 Y132.286 E.02246
G1 X97.591 Y126.333 E.37473
G1 X97.591 Y126.837 E.02246
G1 X103.04 Y132.286 E.34297
G1 X102.535 Y132.286 E.02246
G1 X97.591 Y127.342 E.3112
G1 X97.591 Y127.847 E.02246
G1 X102.03 Y132.286 E.27943
G1 X101.526 Y132.286 E.02246
M73 Q8 S61
G1 X97.591 Y128.351 E.24766
G1 X97.591 Y128.856 E.02246
G1 X101.021 Y132.286 E.21589
G1 X100.516 Y132.286 E.02246
G1 X97.591 Y129.361 E.18412
G1 X97.591 Y129.865 E.02246
G1 X100.012 Y132.286 E.15235
G1 X99.507 Y132.286 E.02246
G1 X97.591 Y130.37 E.12058
G1 X97.591 Y130.875 E.02246
G1 X99.002 Y132.286 E.08881
G1 X98.498 Y132.286 E.02246
G1 X97.591 Y131.379 E.05704
G1 X97.591 Y131.884 E.02246
G1 X98.153 Y132.446 E.03535
M204 S1000
; stop printing object 2L_footJoint-Body.stl id:0 copy 0
;LAYER_CHANGE
;Z:0.6
;HEIGHT:0.3
;BEFORE_LAYER_CHANGE
G92 E0.0
;0.6


;WIPE_START
G1 F8640
G1 X97.591 Y131.884 E-.18337
G1 X97.591 Y131.379 E-.11653
G1 X98.498 Y132.286 E-.29591
G1 X99.002 Y132.286 E-.11653
G1 X97.591 Y130.875 E-.46072
G1 X97.591 Y130.37 E-.11653
G1 X97.715 Y130.494 E-.0404
;WIPE_END
G1 E-.07 F2100
G1 Z.5 F720
G1 Z.6
;AFTER_LAYER_CHANGE
;0.6
M140 S90 ; set bed temperature
G1 Z.8
G1 X94.203 Y130.494 F10800
G1 Z.6 F720
G1 E1.4 F2100
;TYPE:Skirt/Brim
;WIDTH:0.42
G1 F2700
G1 X94.203 Y93.318 E1.64893
G1 X94.595 Y92.018 E.06024
G1 X95.639 Y91.149 E.06024
G1 X96.559 Y90.962 E.04163
G1 X154.859 Y90.962 E2.58589
G1 X156.159 Y91.354 E.06024
G1 X157.028 Y92.398 E.06024
G1 X157.215 Y93.318 E.04163
G1 X157.215 Y133.318 E1.77419
G1 X156.823 Y134.618 E.06024
G1 X155.779 Y135.487 E.06024
G1 X154.859 Y135.674 E.04163
G1 X96.559 Y135.674 E2.58589
G1 X95.259 Y135.282 E.06024
G1 X94.39 Y134.238 E.06024
G1 X94.203 Y133.318 E.04163
G1 X94.203 Y130.554 E.12261
; printing object 2L_footJoint-Body.stl id:0 copy 0
;WIPE_START
G1 F8640
G1 X94.203 Y124.794 E-1.33
;WIPE_END
G1 E-.07 F2100
G1 Z.8 F720
G1 X97.345 Y132.532 F10800
G1 Z.6 F720
G1 E1.4 F2100
M204 S800
;TYPE:Perimeter
;WIDTH:0.5
G1 F3000
G1 X97.345 Y94.104 E2.08794
G1 X154.073 Y94.104 E3.08223
G1 X154.073 Y132.532 E2.08794
G1 X97.405 Y132.532 E3.07897
M204 S1000
G1 X96.859 Y133.018 F10800
M204 S800
;TYPE:External perimeter
;WIDTH:0.6
G1 F2100
G1 X96.859 Y93.618 E2.63213
G1 X154.559 Y93.618 E3.85467
G1 X154.559 Y133.018 E2.63213
M73 P8 R60
G1 X96.919 Y133.018 E3.85066
M204 S1000
G1 X96.986 Y132.639 F10800
;WIPE_START
G1 F8640
G1 X96.91 Y127.258 E-1.33
;WIPE_END
G1 E-.07 F2100
G1 Z.8 F720
G1 X153.058 Y132.402 F10800
G1 Z.6 F720
G1 E1.4 F2100
;TYPE:Solid infill
;WIDTH:0.502148
G1 F3654.912
G1 X153.747 Y131.713 E.05321
G1 X153.747 Y131.093 E.0338
G1 X152.635 Y132.206 E.08588
G1 X152.015 Y132.206 E.0338
G1 X153.747 Y130.474 E.13369
G1 X153.747 Y129.855 E.0338
G1 X151.396 Y132.206 E.18149
G1 X150.777 Y132.206 E.0338
G1 X153.747 Y129.236 E.22929
G1 X153.747 Y128.617 E.0338
G1 X150.158 Y132.206 E.2771
G1 X149.539 Y132.206 E.0338
