; generated by PrusaSlicer 2.7.1 on 2023-12-29 at 20:58:09 UTC


;
;
; 

; external perimeters extrusion width = 0.60mm
; perimeters extrusion width = 0.50mm
; infill extrusion width = 0.50mm
; solid infill extrusion width = 0.50mm
; top infill extrusion width = 0.45mm
; support material extrusion width = 0.38mm
; first layer extrusion width = 0.42mm

M73 P0 R80
M73 Q0 S81
M201 X1000 Y1000 Z200 E5000 ; sets maximum accelerations, mm/sec^2
M203 X200 Y200 Z12 E120 ; sets maximum feedrates, mm / sec
M204 S1250 T1250 ; sets acceleration (S) and retract acceleration (R), mm/sec^2
M205 X8.00 Y8.00 Z0.40 E4.50 ; sets the jerk limits, mm/sec
M205 S0 T0 ; sets the minimum extruding and travel feed rate, mm/sec

; printing object 2L_footJoint_bearing2-Body.stl id:0 copy 0
; stop printing object 2L_footJoint_bearing2-Body.stl id:0 copy 0

;TYPE:Custom
M862.3 P "MK3S" ; printer model check
M862.1 P0.4 ; nozzle diameter check
M115 U3.12.2 ; tell printer latest fw version
G90 ; use absolute coordinates
M83 ; extruder relative mode
M104 S240 ; set extruder temp
M140 S95 ; set bed temp
M190 S95 ; wait for bed temp
M109 S240 ; wait for extruder temp
G28 W ; home all without mesh bed level
G80 ; mesh bed leveling

G1 Z0.2 F720
G1 Y-3 F1000 ; go outside print area
G92 E0
G1 X60 E9 F1000 ; intro line
G1 X100 E12.5 F1000 ; intro line

G92 E0
M221 S95

; Don't change E values below. Excessive value can damage the printer.

M907 E538 ; set extruder motor current
G21 ; set units to millimeters
G90 ; use absolute coordinates
M83 ; use relative distances for extrusion
M900 K0.08 ; Filament gcode LA 1.5
M900 K45 ; Filament gcode LA 1.0
M107 ; disable fan
;LAYER_CHANGE
;Z:0.3
;HEIGHT:0.3
;BEFORE_LAYER_CHANGE
G92 E0.0
;0.3


G1 E-1.4 F2100 ; retract
G1 Z.3 F720 ; move to next layer (0)
;AFTER_LAYER_CHANGE
;0.3
G1 X93.886 Y86.2 F10800 ; move to print after unknown position
G1 Z.3 F720 ; move to print after unknown position
G1 E1.4 F2100 ;  ; unretract
M204 S800 ; adjust acceleration
;TYPE:Skirt/Brim
;WIDTH:0.42
G1 F1200
G1 X94.634 Y85.482 E.04599 ; skirt
G1 X110.136 Y76.144 E.8027 ; skirt
G1 X111.172 Y75.545 E.05308 ; skirt
G1 X112.647 Y74.979 E.07007 ; skirt
G1 X114.28 Y74.68 E.07364 ; skirt
G1 X141.624 Y71.608 E1.22047 ; skirt
G1 X142.625 Y71.621 E.0444 ; skirt
G1 X143.55 Y71.689 E.04114 ; skirt
G1 X144.718 Y71.927 E.05287 ; skirt
G1 X146.539 Y72.618 E.08639 ; skirt
G1 X147.571 Y73.214 E.05286 ; skirt
G1 X148.807 Y74.183 E.06966 ; skirt
G1 X149.871 Y75.338 E.06965 ; skirt
G1 X150.797 Y76.751 E.07493 ; skirt
G1 X156.202 Y86.344 E.48839 ; skirt
G1 X156.506 Y87.5 E.05302 ; skirt
G1 X156.506 Y127.5 E1.77419 ; skirt
G1 X156.292 Y128.48 E.04449 ; skirt
G1 X153.024 Y135.62 E.34829 ; skirt
G1 X152.154 Y136.928 E.06968 ; skirt
G1 X150.829 Y138.249 E.08299 ; skirt
G1 X149.828 Y138.953 E.05428 ; skirt
G1 X148.344 Y139.658 E.07287 ; skirt
G1 X146.346 Y140.119 E.09095 ; skirt
G1 X145.201 Y140.167 E.05083 ; skirt
G1 X143.666 Y139.999 E.06849 ; skirt
G1 X95.363 Y129.805 E2.18966 ; skirt
G1 X94.172 Y129.153 E.06022 ; skirt
G1 X93.494 Y127.5 E.07925 ; skirt
G1 X93.494 Y87.5 E1.77419 ; skirt
G1 X93.869 Y86.257 E.05759 ; skirt
M204 S1000 ; adjust acceleration
; printing object 2L_footJoint_bearing2-Body.stl id:0 copy 0
;WIPE_START
G1 F8640
G1 X93.886 Y86.2 E-.01373 ; wipe and retract
G1 X94.634 Y85.482 E-.23941 ; wipe and retract
G1 X98.889 Y82.919 E-1.14686 ; wipe and retract
;WIPE_END
G1 Z.5 F720 ; move to first support material point
G1 X151.262 Y129.063 F10800 ; move to first support material point
G1 Z.3 F720 ; move to first support material point
G1 E1.4 F2100 ;  ; unretract
M204 S800 ; adjust acceleration
;TYPE:Support material
G1 F1200
G1 X151.597 Y130.173 E.05143 ; support material
G1 X151.726 Y131.323 E.05133 ; support material
G1 X151.647 Y132.474 E.05117 ; support material
G1 X151.362 Y133.591 E.05113 ; support material
G1 X150.882 Y134.637 E.05105 ; support material
G1 X150.225 Y135.577 E.05087 ; support material
G1 X149.473 Y136.323 E.04698 ; support material
G1 X148.473 Y137.027 E.05424 ; support material
G1 X147.393 Y137.503 E.05235 ; support material
G1 X146.247 Y137.765 E.05214 ; support material
G1 X145.102 Y137.813 E.05083 ; support material
G1 X143.975 Y137.664 E.05042 ; support material
G1 X142.85 Y137.296 E.0525 ; support material
G1 X141.813 Y136.717 E.05268 ; support material
G1 X140.903 Y135.957 E.05259 ; support material
G1 X140.147 Y135.036 E.05285 ; support material
G1 X139.593 Y134.019 E.05137 ; support material
G1 X139.209 Y132.808 E.05635 ; support material
G1 X139.105 Y132.168 E.02876 ; support material
G1 X139.079 Y130.999 E.05186 ; support material
G1 X139.23 Y129.999 E.04486 ; support material
G1 X139.445 Y129.297 E.03256 ; support material
G1 X140.044 Y128.07 E.06056 ; support material
G1 X150.751 Y128.07 E.47491 ; support material
G1 X151.238 Y129.016 E.04719 ; support material
M204 S1000 ; adjust acceleration
G1 X151.079 Y133.826 F10800 ; move to first support material point
M204 S800 ; adjust acceleration
G1 F1200
G1 X151.079 Y129.564 E.18904 ; support material
G1 X150.684 Y128.639 E.04461 ; support material
G1 X150.684 Y134.303 E.25123 ; support material
G1 X150.288 Y134.928 E.03282 ; support material
G1 X150.288 Y128.39 E.28999 ; support material
G1 X149.893 Y128.39 E.01752 ; support material
G1 X149.893 Y135.455 E.31337 ; support material
G1 X149.498 Y135.847 E.02468 ; support material
G1 X149.498 Y128.39 E.33075 ; support material
G1 X149.103 Y128.39 E.01752 ; support material
G1 X149.103 Y136.192 E.34606 ; support material
G1 X148.708 Y136.47 E.02142 ; support material
G1 X148.708 Y128.39 E.35839 ; support material
G1 X148.313 Y128.39 E.01752 ; support material
G1 X148.313 Y136.747 E.37067 ; support material
G1 X147.918 Y136.922 E.01916 ; support material
G1 X147.918 Y128.39 E.37844 ; support material
G1 X147.523 Y128.39 E.01752 ; support material
G1 X147.523 Y137.096 E.38615 ; support material
G1 X147.127 Y137.235 E.01862 ; support material
G1 X147.127 Y128.39 E.39232 ; support material
G1 X146.732 Y128.39 E.01752 ; support material
G1 X146.732 Y137.326 E.39635 ; support material
G1 X146.337 Y137.416 E.01797 ; support material
G1 X146.337 Y128.39 E.40035 ; support material
G1 X145.942 Y128.39 E.01752 ; support material
G1 X145.942 Y137.458 E.40221 ; support material
G1 X145.547 Y137.474 E.01753 ; support material
G1 X145.547 Y128.39 E.40292 ; support material
G1 X145.152 Y128.39 E.01752 ; support material
G1 X145.152 Y137.491 E.40367 ; support material
G1 X144.757 Y137.445 E.01764 ; support material
G1 X144.757 Y128.39 E.40163 ; support material
G1 X144.361 Y128.39 E.01756 ; support material
G1 X144.361 Y137.393 E.39933 ; support material
G1 X143.966 Y137.325 E.01778 ; support material
G1 X143.966 Y128.39 E.39631 ; support material
G1 X143.571 Y128.39 E.01752 ; support material
G1 X143.571 Y137.195 E.39054 ; support material
G1 X143.176 Y137.066 E.01843 ; support material
G1 X143.176 Y128.39 E.38482 ; support material
G1 X142.781 Y128.39 E.01752 ; support material
G1 X142.781 Y136.891 E.37706 ; support material
G1 X142.386 Y136.67 E.02008 ; support material
G1 X142.386 Y128.39 E.36726 ; support material
G1 X141.991 Y128.39 E.01752 ; support material
G1 X141.991 Y136.449 E.35746 ; support material
G1 X141.596 Y136.119 E.02283 ; support material
G1 X141.596 Y128.39 E.34282 ; support material
G1 X141.2 Y128.39 E.01756 ; support material
G1 X141.2 Y135.788 E.32814 ; support material
G1 X140.805 Y135.333 E.02673 ; support material
G1 X140.805 Y128.39 E.30796 ; support material
G1 X140.41 Y128.39 E.01752 ; support material
G1 X140.41 Y134.85 E.28653 ; support material
G1 X140.015 Y134.125 E.03662 ; support material
G1 X140.015 Y128.791 E.23659 ; support material
G1 X139.62 Y129.819 E.04885 ; support material
G1 X139.62 Y133.615 E.16837 ; support material
M204 S1000 ; adjust acceleration
;WIPE_START
G1 F8640
G1 X139.62 Y129.819 E-.87651 ; wipe and retract
G1 X140.015 Y128.791 E-.25429 ; wipe and retract
G1 X140.015 Y129.957 E-.2692 ; wipe and retract
;WIPE_END
G1 Z.5 F720 ; move to first support material point
G1 X142.53 Y73.974 F10800 ; move to first support material point
G1 Z.3 F720 ; move to first support material point
G1 E1.4 F2100 ;  ; unretract
M204 S800 ; adjust acceleration
G1 F1200
G1 X143.078 Y73.997 E.02433 ; support material
G1 X144.246 Y74.235 E.05287 ; support material
G1 X145.361 Y74.658 E.05289 ; support material
G1 X146.394 Y75.254 E.0529 ; support material
G1 X147.317 Y76.008 E.05286 ; support material
G1 X148.107 Y76.9 E.05285 ; support material
G1 X148.745 Y77.908 E.05291 ; support material
G1 X149.212 Y79.004 E.05284 ; support material
G1 X149.497 Y80.162 E.0529 ; support material
G1 X149.593 Y81.35 E.05287 ; support material
G1 X149.497 Y82.538 E.05287 ; support material
G1 X149.212 Y83.696 E.0529 ; support material
G1 X148.745 Y84.792 E.05284 ; support material
G1 X148.107 Y85.8 E.05291 ; support material
G1 X147.026 Y86.93 E.06936 ; support material
G1 X137.336 Y86.93 E.4298 ; support material
G1 X136.641 Y86.262 E.04276 ; support material
G1 X135.925 Y85.309 E.05287 ; support material
G1 X135.371 Y84.253 E.05289 ; support material
G1 X134.993 Y83.123 E.05285 ; support material
G1 X134.802 Y81.946 E.05289 ; support material
G1 X134.802 Y80.754 E.05287 ; support material
G1 X134.993 Y79.577 E.05289 ; support material
G1 X135.371 Y78.447 E.05285 ; support material
G1 X135.925 Y77.391 E.05289 ; support material
G1 X136.641 Y76.438 E.05287 ; support material
G1 X137.501 Y75.612 E.05289 ; support material
G1 X138.482 Y74.935 E.05287 ; support material
G1 X139.559 Y74.424 E.05287 ; support material
G1 X140.704 Y74.092 E.05288 ; support material
G1 X141.887 Y73.949 E.05285 ; support material
G1 X142.477 Y73.972 E.02619 ; support material
M204 S1000 ; adjust acceleration
G1 X149.103 Y83.468 F10800 ; move to first support material point
M204 S800 ; adjust acceleration
G1 F1200
G1 X149.103 Y79.9 E.15826 ; support material
G1 X148.907 Y79.106 E.03627 ; support material
G1 X148.708 Y78.638 E.02256 ; support material
G1 X148.708 Y84.062 E.24058 ; support material
G1 X148.313 Y84.876 E.04013 ; support material
G1 X148.313 Y77.824 E.31279 ; support material
G1 X147.918 Y77.199 E.03279 ; support material
G1 X147.918 Y85.501 E.36823 ; support material
G1 X147.523 Y85.978 E.02747 ; support material
G1 X147.523 Y76.722 E.41055 ; support material
G1 X147.127 Y76.276 E.02645 ; support material
G1 X147.127 Y86.424 E.45011 ; support material
G1 X146.912 Y86.61 E.01261 ; support material
G1 X146.732 Y86.61 E.00798 ; support material
G1 X146.732 Y75.944 E.47309 ; support material
G1 X146.337 Y75.621 E.02263 ; support material
G1 X146.337 Y86.61 E.48742 ; support material
G1 X145.942 Y86.61 E.01752 ; support material
G1 X145.942 Y75.363 E.49886 ; support material
G1 X145.547 Y75.135 E.02023 ; support material
G1 X145.547 Y86.61 E.50897 ; support material
G1 X145.152 Y86.61 E.01752 ; support material
G1 X145.152 Y74.921 E.51846 ; support material
G1 X144.757 Y74.771 E.01874 ; support material
G1 X144.757 Y86.61 E.52512 ; support material
G1 X144.361 Y86.61 E.01756 ; support material
G1 X144.361 Y74.621 E.53177 ; support material
G1 X143.966 Y74.504 E.01827 ; support material
G1 X143.966 Y86.61 E.53696 ; support material
G1 X143.571 Y86.61 E.01752 ; support material
G1 X143.571 Y74.424 E.54051 ; support material
G1 X143.176 Y74.343 E.01788 ; support material
G1 X143.176 Y86.61 E.5441 ; support material
G1 X142.781 Y86.61 E.01752 ; support material
G1 X142.781 Y74.305 E.54579 ; support material
G1 X142.386 Y74.289 E.01753 ; support material
M73 Q0 S80
G1 X142.386 Y86.61 E.5465 ; support material
G1 X141.991 Y86.61 E.01752 ; support material
G1 X141.991 Y74.273 E.54721 ; support material
G1 X141.9 Y74.269 E.00404 ; support material
G1 X141.596 Y74.306 E.01358 ; support material
G1 X141.596 Y86.61 E.54574 ; support material
G1 X141.2 Y86.61 E.01756 ; support material
M73 P1 R80
M73 Q1 S80
G1 X141.2 Y74.354 E.54361 ; support material
G1 X140.805 Y74.402 E.01765 ; support material
G1 X140.805 Y86.61 E.54148 ; support material
G1 X140.41 Y86.61 E.01752 ; support material
G1 X140.41 Y74.511 E.53665 ; support material
G1 X140.015 Y74.625 E.01824 ; support material
G1 X140.015 Y86.61 E.53159 ; support material
G1 X139.62 Y86.61 E.01752 ; support material
G1 X139.62 Y74.749 E.52609 ; support material
G1 X139.225 Y74.937 E.0194 ; support material
G1 X139.225 Y86.61 E.51775 ; support material
G1 X138.83 Y86.61 E.01752 ; support material
M73 P1 R79
G1 X138.83 Y75.124 E.50946 ; support material
G1 X138.434 Y75.357 E.02038 ; support material
G1 X138.434 Y86.61 E.49912 ; support material
G1 X138.039 Y86.61 E.01752 ; support material
G1 X138.039 Y75.629 E.48706 ; support material
G1 X137.644 Y75.918 E.02171 ; support material
G1 X137.644 Y86.61 E.47424 ; support material
G1 X137.465 Y86.61 E.00794 ; support material
G1 X137.249 Y86.402 E.0133 ; support material
G1 X137.249 Y76.298 E.44816 ; support material
G1 X136.854 Y76.687 E.02459 ; support material
G1 X136.854 Y86.013 E.41365 ; support material
G1 X136.459 Y85.487 E.02918 ; support material
G1 X136.459 Y77.213 E.36699 ; support material
G1 X136.064 Y77.815 E.03194 ; support material
G1 X136.064 Y84.885 E.31359 ; support material
G1 X135.669 Y84.132 E.03772 ; support material
G1 X135.669 Y78.568 E.24679 ; support material
G1 X135.273 Y79.849 E.05947 ; support material
G1 X135.273 Y83.456 E.15999 ; support material
M204 S1000 ; adjust acceleration
;WIPE_START
G1 F8640
G1 X135.273 Y79.849 E-.83287 ; wipe and retract
G1 X135.669 Y78.568 E-.3096 ; wipe and retract
G1 X135.669 Y79.683 E-.25753 ; wipe and retract
;WIPE_END
G1 Z.5 F720 ; move to first support material point
G1 X115.148 Y77.021 F10800 ; move to first support material point
G1 Z.3 F720 ; move to first support material point
G1 E1.4 F2100 ;  ; unretract
M204 S800 ; adjust acceleration
G1 F1200
G1 X115.757 Y77.049 E.02704 ; support material
G1 X116.855 Y77.277 E.04974 ; support material
G1 X117.923 Y77.712 E.05115 ; support material
G1 X118.893 Y78.334 E.05111 ; support material
G1 X119.735 Y79.121 E.05112 ; support material
G1 X120.421 Y80.048 E.05115 ; support material
G1 X120.927 Y81.083 E.0511 ; support material
G1 X121.237 Y82.193 E.05112 ; support material
G1 X121.341 Y83.342 E.05117 ; support material
G1 X121.235 Y84.49 E.05114 ; support material
G1 X120.923 Y85.6 E.05114 ; support material
G1 X120.415 Y86.635 E.05114 ; support material
G1 X120.196 Y86.93 E.0163 ; support material
G1 X109.798 Y86.93 E.4612 ; support material
G1 X109.222 Y85.907 E.05207 ; support material
G1 X109.004 Y85.326 E.02752 ; support material
G1 X108.844 Y84.767 E.02579 ; support material
G1 X108.688 Y83.628 E.05099 ; support material
G1 X108.687 Y83.054 E.02546 ; support material
G1 X108.843 Y81.913 E.05108 ; support material
G1 X109.221 Y80.768 E.05348 ; support material
G1 X109.747 Y79.806 E.04863 ; support material
G1 X110.474 Y78.91 E.05118 ; support material
G1 X111.352 Y78.162 E.05116 ; support material
G1 X112.35 Y77.585 E.05113 ; support material
G1 X113.436 Y77.199 E.05112 ; support material
G1 X114.543 Y77.021 E.04973 ; support material
G1 X115.095 Y77.021 E.02448 ; support material
M204 S1000 ; adjust acceleration
G1 X120.654 Y85.786 F10800 ; move to first support material point
M204 S800 ; adjust acceleration
G1 F1200
G1 X120.654 Y81.294 E.19924 ; support material
G1 X120.258 Y80.444 E.04159 ; support material
G1 X120.258 Y86.227 E.2565 ; support material
G1 X120.035 Y86.61 E.01966 ; support material
G1 X119.863 Y86.61 E.00763 ; support material
G1 X119.863 Y79.832 E.30064 ; support material
G1 X119.468 Y79.309 E.02907 ; support material
G1 X119.468 Y86.61 E.32383 ; support material
G1 X119.073 Y86.61 E.01752 ; support material
G1 X119.073 Y78.94 E.3402 ; support material
G1 X118.678 Y78.576 E.02382 ; support material
G1 X118.678 Y86.61 E.35635 ; support material
G1 X118.283 Y86.61 E.01752 ; support material
G1 X118.283 Y78.323 E.36757 ; support material
G1 X117.888 Y78.07 E.02081 ; support material
