; generated by PrusaSlicer 2.5.0 on 2023-02-28 at 17:32:03 UTC


;
;
; 

; external perimeters extrusion width = 0.60mm
; perimeters extrusion width = 0.50mm
; infill extrusion width = 0.50mm
; solid infill extrusion width = 0.50mm
; top infill extrusion width = 0.45mm
; support material extrusion width = 0.38mm
; first layer extrusion width = 0.42mm

; external perimeters extrusion width = 0.60mm
; perimeters extrusion width = 0.50mm
; infill extrusion width = 0.50mm
; solid infill extrusion width = 0.50mm
; top infill extrusion width = 0.45mm
; support material extrusion width = 0.38mm
; first layer extrusion width = 0.42mm

M73 P0 R129
M73 Q0 S132
M201 X1000 Y1000 Z200 E5000 ; sets maximum accelerations, mm/sec^2
M203 X200 Y200 Z12 E120 ; sets maximum feedrates, mm / sec
M204 P1250 R1250 T1250 ; sets acceleration (P, T) and retract acceleration (R), mm/sec^2
M205 X8.00 Y8.00 Z0.40 E4.50 ; sets the jerk limits, mm/sec
M205 S0 T0 ; sets the minimum extruding and travel feed rate, mm/sec
M107
;TYPE:Custom
M862.3 P "MK3S" ; printer model check
M862.1 P0.4 ; nozzle diameter check
M115 U3.11.0 ; tell printer latest fw version
G90 ; use absolute coordinates
M83 ; extruder relative mode
M104 S240 ; set extruder temp
M140 S95 ; set bed temp
M190 S95 ; wait for bed temp
M109 S240 ; wait for extruder temp
G28 W ; home all without mesh bed level
G80 ; mesh bed leveling

G1 Z0.2 F720
G1 Y-3 F1000 ; go outside print area
G92 E0
G1 X60 E9 F1000 ; intro line
G1 X100 E12.5 F1000 ; intro line

G92 E0
M221 S95

; Don't change E values below. Excessive value can damage the printer.

M907 E538 ; set extruder motor current
G21 ; set units to millimeters
G90 ; use absolute coordinates
M83 ; use relative distances for extrusion
M900 K0.08 ; Filament gcode LA 1.5
M900 K45 ; Filament gcode LA 1.0
M107
;LAYER_CHANGE
;Z:0.3
;HEIGHT:0.3
;BEFORE_LAYER_CHANGE
G92 E0.0
;0.3


G1 E-1.4 F2100
G1 Z.2 F720
G1 Z.3
;AFTER_LAYER_CHANGE
;0.3
G1 Z.5
G1 X60.444 Y66.783 F10800
G1 Z.3 F720
G1 E1.4 F2100
M204 S800
;TYPE:Skirt/Brim
;WIDTH:0.42
G1 F1200
G1 X61.759 Y65.886 E.0706
G1 X94.908 Y57.282 E1.51904
G1 X95.496 Y57.207 E.02628
G1 X146.588 Y57.14 E2.26617
G1 X147.179 Y57.216 E.02646
G1 X180.329 Y65.82 E1.51904
G1 X181.489 Y66.525 E.06024
G1 X182.09 Y67.999 E.0706
G1 X183.677 Y105.2 E1.65151
G1 X183.677 Y111.704 E.28849
G1 X183.286 Y113.004 E.06024
G1 X182.242 Y113.872 E.06024
G1 X181.323 Y114.059 E.04156
G1 X60.766 Y114.126 E5.34732
G1 X59.465 Y113.734 E.06024
M73 Q0 S131
G1 X58.597 Y112.69 E.06024
G1 X58.41 Y111.77 E.04163
G1 X58.412 Y105.165 E.29295
G1 X59.997 Y68.066 E1.64705
G1 X60.424 Y66.84 E.05758
M204 S1000
; printing object 2L_NEW_footJoint-Body.stl id:0 copy 0
;WIPE_START
G1 F8640
G1 X61.759 Y65.886 E-.37877
G1 X65.746 Y64.851 E-.95123
;WIPE_END
G1 E-.07 F2100
G1 Z.5 F720
G1 X146.588 Y67.53 F10800
G1 Z.3 F720
G1 E1.4 F2100
M204 S800
;TYPE:Support material
G1 F1200
G1 X133.745 Y67.53 E.56962
G1 X133.745 Y59.496 E.35634
G1 X146.588 Y59.496 E.56962
G1 X146.588 Y67.477 E.35398
M204 S1000
G1 X146.24 Y67.37 F10800
M204 S800
G1 F1200
G1 X146.24 Y59.816 E.33505
G1 X145.845 Y59.816 E.01753
G1 X145.845 Y67.21 E.32795
G1 X145.45 Y67.21 E.01753
G1 X145.45 Y59.816 E.32795
G1 X145.055 Y59.816 E.01753
G1 X145.055 Y67.21 E.32795
G1 X144.66 Y67.21 E.01753
G1 X144.66 Y59.816 E.32795
G1 X144.265 Y59.816 E.01753
G1 X144.265 Y67.21 E.32795
G1 X143.869 Y67.21 E.01753
G1 X143.869 Y59.816 E.32795
G1 X143.474 Y59.816 E.01753
G1 X143.474 Y67.21 E.32795
G1 X143.079 Y67.21 E.01753
G1 X143.079 Y59.816 E.32795
G1 X142.684 Y59.816 E.01753
G1 X142.684 Y67.21 E.32795
G1 X142.289 Y67.21 E.01753
M73 P0 R128
G1 X142.289 Y59.816 E.32795
G1 X141.894 Y59.816 E.01753
G1 X141.894 Y67.21 E.32795
G1 X141.499 Y67.21 E.01753
G1 X141.499 Y59.816 E.32795
G1 X141.104 Y59.816 E.01753
G1 X141.104 Y67.21 E.32795
G1 X140.708 Y67.21 E.01753
G1 X140.708 Y59.816 E.32795
G1 X140.313 Y59.816 E.01753
G1 X140.313 Y67.21 E.32795
G1 X139.918 Y67.21 E.01753
G1 X139.918 Y59.816 E.32795
G1 X139.523 Y59.816 E.01753
G1 X139.523 Y67.21 E.32795
G1 X139.128 Y67.21 E.01753
G1 X139.128 Y59.816 E.32795
G1 X138.733 Y59.816 E.01753
G1 X138.733 Y67.21 E.32795
G1 X138.338 Y67.21 E.01753
G1 X138.338 Y59.816 E.32795
G1 X137.942 Y59.816 E.01753
G1 X137.942 Y67.21 E.32795
G1 X137.547 Y67.21 E.01753
G1 X137.547 Y59.816 E.32795
G1 X137.152 Y59.816 E.01753
G1 X137.152 Y67.21 E.32795
G1 X136.757 Y67.21 E.01753
G1 X136.757 Y59.816 E.32795
G1 X136.362 Y59.816 E.01753
G1 X136.362 Y67.21 E.32795
G1 X135.967 Y67.21 E.01753
G1 X135.967 Y59.816 E.32795
G1 X135.572 Y59.816 E.01753
G1 X135.572 Y67.21 E.32795
G1 X135.177 Y67.21 E.01753
G1 X135.177 Y59.816 E.32795
G1 X134.781 Y59.816 E.01753
G1 X134.781 Y67.21 E.32795
G1 X134.386 Y67.21 E.01753
G1 X134.386 Y59.656 E.33505
M204 S1000
;WIPE_START
G1 F8640
G1 X134.386 Y65.416 E-1.33
;WIPE_END
G1 E-.07 F2100
G1 Z.5 F720
G1 X181.322 Y111.704 F10800
G1 Z.3 F720
G1 E1.4 F2100
M204 S800
G1 F1200
G1 X166.164 Y111.704 E.67233
G1 X166.164 Y108.67 E.13457
G1 X179.973 Y108.67 E.61249
G1 X180.307 Y108.336 E.02094
G1 X180.307 Y106.215 E.09409
G1 X181.322 Y105.2 E.06368
G1 X181.322 Y111.65 E.28613
M204 S1000
G1 X180.617 Y111.544 F10800
M204 S800
G1 F1200
G1 X180.617 Y108.479 E.13596
G1 X180.222 Y108.874 E.02479
G1 X180.222 Y111.384 E.11133
G1 X179.826 Y111.384 E.01753
G1 X179.826 Y108.99 E.10618
G1 X179.431 Y108.99 E.01753
G1 X179.431 Y111.384 E.10618
G1 X179.036 Y111.384 E.01753
G1 X179.036 Y108.99 E.10618
G1 X178.641 Y108.99 E.01753
G1 X178.641 Y111.384 E.10618
G1 X178.246 Y111.384 E.01753
G1 X178.246 Y108.99 E.10618
G1 X177.851 Y108.99 E.01753
G1 X177.851 Y111.384 E.10618
G1 X177.456 Y111.384 E.01753
G1 X177.456 Y108.99 E.10618
G1 X177.061 Y108.99 E.01753
G1 X177.061 Y111.384 E.10618
G1 X176.665 Y111.384 E.01753
G1 X176.665 Y108.99 E.10618
G1 X176.27 Y108.99 E.01753
G1 X176.27 Y111.384 E.10618
G1 X175.875 Y111.384 E.01753
G1 X175.875 Y108.99 E.10618
G1 X175.48 Y108.99 E.01753
G1 X175.48 Y111.384 E.10618
G1 X175.085 Y111.384 E.01753
G1 X175.085 Y108.99 E.10618
G1 X174.69 Y108.99 E.01753
G1 X174.69 Y111.384 E.10618
G1 X174.295 Y111.384 E.01753
G1 X174.295 Y108.99 E.10618
G1 X173.899 Y108.99 E.01753
G1 X173.899 Y111.384 E.10618
G1 X173.504 Y111.384 E.01753
G1 X173.504 Y108.99 E.10618
G1 X173.109 Y108.99 E.01753
G1 X173.109 Y111.384 E.10618
G1 X172.714 Y111.384 E.01753
G1 X172.714 Y108.99 E.10618
G1 X172.319 Y108.99 E.01753
G1 X172.319 Y111.384 E.10618
G1 X171.924 Y111.384 E.01753
G1 X171.924 Y108.99 E.10618
G1 X171.529 Y108.99 E.01753
G1 X171.529 Y111.384 E.10618
G1 X171.134 Y111.384 E.01753
G1 X171.134 Y108.99 E.10618
G1 X170.738 Y108.99 E.01753
G1 X170.738 Y111.384 E.10618
G1 X170.343 Y111.384 E.01753
G1 X170.343 Y108.99 E.10618
G1 X169.948 Y108.99 E.01753
G1 X169.948 Y111.384 E.10618
G1 X169.553 Y111.384 E.01753
G1 X169.553 Y108.99 E.10618
G1 X169.158 Y108.99 E.01753
G1 X169.158 Y111.384 E.10618
G1 X168.763 Y111.384 E.01753
G1 X168.763 Y108.99 E.10618
G1 X168.368 Y108.99 E.01753
G1 X168.368 Y111.384 E.10618
G1 X167.973 Y111.384 E.01753
G1 X167.973 Y108.99 E.10618
G1 X167.577 Y108.99 E.01753
G1 X167.577 Y111.384 E.10618
G1 X167.182 Y111.384 E.01753
G1 X167.182 Y108.99 E.10618
G1 X166.787 Y108.99 E.01753
G1 X166.787 Y111.544 E.11327
M204 S1000
;WIPE_START
G1 F8640
G1 X166.787 Y108.99 E-.58969
G1 X167.182 Y108.99 E-.09124
G1 X167.182 Y111.384 E-.55274
G1 X167.577 Y111.384 E-.09124
G1 X167.577 Y111.362 E-.0051
;WIPE_END
G1 E-.07 F2100
G1 Z.5 F720
G1 X178.971 Y107.334 F10800
G1 Z.3 F720
G1 E1.4 F2100
M204 S800
;TYPE:Perimeter
;WIDTH:0.42
G1 F1200
G1 X122.202 Y107.334 E2.51797
G1 X122.202 Y68.865 E1.70627
G1 X178.971 Y68.865 E2.51797
G1 X178.971 Y107.274 E1.70361
M204 S1000
G1 X179.327 Y107.69 F10800
M204 S800
;TYPE:External perimeter
G1 F1200
G1 X121.847 Y107.69 E2.54951
G1 X121.847 Y68.51 E1.73782
G1 X179.327 Y68.51 E2.54951
G1 X179.327 Y107.63 E1.73516
M204 S1000
G1 X178.935 Y107.611 F10800
;WIPE_START
G1 F8640
G1 X173.567 Y107.636 E-1.33
;WIPE_END
G1 E-.07 F2100
G1 Z.5 F720
G1 X178.864 Y69.694 F10800
G1 Z.3 F720
G1 E1.4 F2100
M204 S800
;TYPE:Solid infill
;WIDTH:0.421251
G1 F1200
G1 X178.303 Y69.132 E.03535
G1 X177.798 Y69.132 E.02246
G1 X178.704 Y70.038 E.05704
G1 X178.704 Y70.543 E.02246
G1 X177.294 Y69.132 E.08881
G1 X176.789 Y69.132 E.02246
G1 X178.704 Y71.048 E.12058
G1 X178.704 Y71.552 E.02246
G1 X176.284 Y69.132 E.15235
G1 X175.779 Y69.132 E.02246
G1 X178.704 Y72.057 E.18412
G1 X178.704 Y72.562 E.02246
G1 X175.275 Y69.132 E.21589
G1 X174.77 Y69.132 E.02246
G1 X178.704 Y73.066 E.24766
G1 X178.704 Y73.571 E.02246
G1 X174.265 Y69.132 E.27943
G1 X173.761 Y69.132 E.02246
G1 X178.704 Y74.076 E.3112
G1 X178.704 Y74.581 E.02246
G1 X173.256 Y69.132 E.34296
G1 X172.751 Y69.132 E.02246
G1 X178.704 Y75.085 E.37473
G1 X178.704 Y75.59 E.02246
G1 X172.247 Y69.132 E.4065
G1 X171.742 Y69.132 E.02246
G1 X178.704 Y76.095 E.43827
G1 X178.704 Y76.599 E.02246
G1 X171.237 Y69.132 E.47004
G1 X170.733 Y69.132 E.02246
G1 X178.704 Y77.104 E.50181
G1 X178.704 Y77.609 E.02246
G1 X170.228 Y69.132 E.53358
G1 X169.723 Y69.132 E.02246
G1 X178.704 Y78.113 E.56535
G1 X178.704 Y78.618 E.02246
G1 X169.218 Y69.132 E.59712
G1 X168.714 Y69.132 E.02246
G1 X178.704 Y79.123 E.62889
G1 X178.704 Y79.627 E.02246
G1 X168.209 Y69.132 E.66066
G1 X167.704 Y69.132 E.02246
M73 P1 R128
G1 X178.704 Y80.132 E.69242
G1 X178.704 Y80.637 E.02246
M73 Q1 S131
G1 X167.2 Y69.132 E.72419
G1 X166.695 Y69.132 E.02246
G1 X178.704 Y81.142 E.75596
G1 X178.704 Y81.646 E.02246
M73 Q1 S130
G1 X166.19 Y69.132 E.78773
G1 X165.686 Y69.132 E.02246
G1 X178.704 Y82.151 E.8195
G1 X178.704 Y82.656 E.02246
G1 X165.181 Y69.132 E.85127
G1 X164.676 Y69.132 E.02246
G1 X178.704 Y83.16 E.88304
G1 X178.704 Y83.665 E.02246
G1 X164.172 Y69.132 E.91481
G1 X163.667 Y69.132 E.02246
G1 X178.704 Y84.17 E.94658
G1 X178.704 Y84.674 E.02246
G1 X163.162 Y69.132 E.97835
G1 X162.657 Y69.132 E.02246
G1 X178.704 Y85.179 E1.01012
G1 X178.704 Y85.684 E.02246
G1 X162.153 Y69.132 E1.04189
G1 X161.648 Y69.132 E.02246
G1 X178.704 Y86.188 E1.07365
G1 X178.704 Y86.693 E.02246
M73 P1 R127
G1 X161.143 Y69.132 E1.10542
G1 X160.639 Y69.132 E.02246
G1 X178.704 Y87.198 E1.13719
G1 X178.704 Y87.703 E.02246
G1 X160.134 Y69.132 E1.16896
G1 X159.629 Y69.132 E.02246
G1 X178.704 Y88.207 E1.20073
G1 X178.704 Y88.712 E.02246
G1 X159.125 Y69.132 E1.2325
G1 X158.62 Y69.132 E.02246
G1 X178.704 Y89.217 E1.26427
G1 X178.704 Y89.721 E.02246
G1 X158.115 Y69.132 E1.29604
G1 X157.611 Y69.132 E.02246
G1 X178.704 Y90.226 E1.32781
G1 X178.704 Y90.731 E.02246
G1 X157.106 Y69.132 E1.35958
G1 X156.601 Y69.132 E.02246
G1 X178.704 Y91.235 E1.39135
G1 X178.704 Y91.74 E.02246
G1 X156.097 Y69.132 E1.42311
G1 X155.592 Y69.132 E.02246
G1 X178.704 Y92.245 E1.45488
G1 X178.704 Y92.749 E.02246
G1 X155.087 Y69.132 E1.48665
G1 X154.582 Y69.132 E.02246
G1 X178.704 Y93.254 E1.51842
G1 X178.704 Y93.759 E.02246
G1 X154.078 Y69.132 E1.55019
G1 X153.573 Y69.132 E.02246
G1 X178.704 Y94.263 E1.58196
G1 X178.704 Y94.768 E.02246
G1 X153.068 Y69.132 E1.61373
G1 X152.564 Y69.132 E.02246
G1 X178.704 Y95.273 E1.6455
G1 X178.704 Y95.778 E.02246
G1 X152.059 Y69.132 E1.67727
G1 X151.554 Y69.132 E.02246
G1 X178.704 Y96.282 E1.70904
G1 X178.704 Y96.787 E.02246
G1 X151.05 Y69.132 E1.74081
G1 X150.545 Y69.132 E.02246
G1 X178.704 Y97.292 E1.77258
G1 X178.704 Y97.796 E.02246
G1 X150.04 Y69.132 E1.80434
G1 X149.536 Y69.132 E.02246
G1 X178.704 Y98.301 E1.83611
G1 X178.704 Y98.806 E.02246
G1 X149.031 Y69.132 E1.86788
G1 X148.526 Y69.132 E.02246
G1 X178.704 Y99.31 E1.89965
G1 X178.704 Y99.815 E.02246
G1 X148.021 Y69.132 E1.93142
G1 X147.517 Y69.132 E.02246
G1 X178.704 Y100.32 E1.96319
G1 X178.704 Y100.824 E.02246
M73 Q1 S129
G1 X147.012 Y69.132 E1.99496
G1 X146.507 Y69.132 E.02246
G1 X178.704 Y101.329 E2.02673
G1 X178.704 Y101.834 E.02246
G1 X146.003 Y69.132 E2.0585
G1 X145.498 Y69.132 E.02246
G1 X178.704 Y102.339 E2.09027
G1 X178.704 Y102.843 E.02246
G1 X144.993 Y69.132 E2.12204
G1 X144.489 Y69.132 E.02246
M73 P1 R126
G1 X178.704 Y103.348 E2.1538
G1 X178.704 Y103.853 E.02246
G1 X143.984 Y69.132 E2.18557
G1 X143.479 Y69.132 E.02246
M73 P2 R126
G1 X178.704 Y104.357 E2.21734
G1 X178.704 Y104.862 E.02246
M73 Q2 S129
G1 X142.975 Y69.132 E2.24911
G1 X142.47 Y69.132 E.02246
G1 X178.704 Y105.367 E2.28088
G1 X178.704 Y105.871 E.02246
G1 X141.965 Y69.132 E2.31265
G1 X141.46 Y69.132 E.02246
G1 X178.704 Y106.376 E2.34442
G1 X178.704 Y106.881 E.02246
G1 X140.956 Y69.132 E2.37619
G1 X140.451 Y69.132 E.02246
G1 X178.386 Y107.068 E2.38795
G1 X177.882 Y107.068 E.02246
G1 X139.946 Y69.132 E2.38795
G1 X139.442 Y69.132 E.02246
G1 X177.377 Y107.068 E2.38795
G1 X176.872 Y107.068 E.02246
G1 X138.937 Y69.132 E2.38795
G1 X138.432 Y69.132 E.02246
G1 X176.368 Y107.068 E2.38795
G1 X175.863 Y107.068 E.02246
G1 X137.928 Y69.132 E2.38795
G1 X137.423 Y69.132 E.02246
G1 X175.358 Y107.068 E2.38795
G1 X174.854 Y107.068 E.02246
G1 X136.918 Y69.132 E2.38795
G1 X136.414 Y69.132 E.02246
G1 X174.349 Y107.068 E2.38795
G1 X173.844 Y107.068 E.02246
G1 X135.909 Y69.132 E2.38795
G1 X135.404 Y69.132 E.02246
M73 Q2 S128
G1 X173.34 Y107.068 E2.38795
G1 X172.835 Y107.068 E.02246
G1 X134.9 Y69.132 E2.38795
G1 X134.395 Y69.132 E.02246
G1 X172.33 Y107.068 E2.38795
G1 X171.825 Y107.068 E.02246
G1 X133.89 Y69.132 E2.38795
G1 X133.385 Y69.132 E.02246
M73 P2 R125
G1 X171.321 Y107.068 E2.38795
G1 X170.816 Y107.068 E.02246
G1 X132.881 Y69.132 E2.38795
G1 X132.376 Y69.132 E.02246
G1 X170.311 Y107.068 E2.38795
G1 X169.807 Y107.068 E.02246
G1 X131.871 Y69.132 E2.38795
G1 X131.367 Y69.132 E.02246
G1 X169.302 Y107.068 E2.38795
G1 X168.797 Y107.068 E.02246
G1 X130.862 Y69.132 E2.38795
G1 X130.357 Y69.132 E.02246
G1 X168.293 Y107.068 E2.38795
G1 X167.788 Y107.068 E.02246
G1 X129.853 Y69.132 E2.38795
G1 X129.348 Y69.132 E.02246
M73 P3 R125
G1 X167.283 Y107.068 E2.38795
G1 X166.779 Y107.068 E.02246
G1 X128.843 Y69.132 E2.38795
G1 X128.339 Y69.132 E.02246
M73 Q3 S128
G1 X166.274 Y107.068 E2.38795
G1 X165.769 Y107.068 E.02246
G1 X127.834 Y69.132 E2.38795
G1 X127.329 Y69.132 E.02246
G1 X165.265 Y107.068 E2.38795
G1 X164.76 Y107.068 E.02246
G1 X126.824 Y69.132 E2.38795
G1 X126.32 Y69.132 E.02246
G1 X164.255 Y107.068 E2.38795
G1 X163.75 Y107.068 E.02246
G1 X125.815 Y69.132 E2.38795
G1 X125.31 Y69.132 E.02246
G1 X163.246 Y107.068 E2.38795
G1 X162.741 Y107.068 E.02246
G1 X124.806 Y69.132 E2.38795
G1 X124.301 Y69.132 E.02246
M73 Q3 S127
G1 X162.236 Y107.068 E2.38795
G1 X161.732 Y107.068 E.02246
G1 X123.796 Y69.132 E2.38795
G1 X123.292 Y69.132 E.02246
G1 X161.227 Y107.068 E2.38795
G1 X160.722 Y107.068 E.02246
G1 X122.787 Y69.132 E2.38795
G1 X122.469 Y69.132 E.01415
M73 P3 R124
G1 X122.469 Y69.319 E.00831
G1 X160.218 Y107.068 E2.37619
G1 X159.713 Y107.068 E.02246
G1 X122.469 Y69.824 E2.34442
G1 X122.469 Y70.328 E.02246
G1 X159.208 Y107.068 E2.31265
G1 X158.704 Y107.068 E.02246
G1 X122.469 Y70.833 E2.28088
G1 X122.469 Y71.338 E.02246
G1 X158.199 Y107.068 E2.24911
G1 X157.694 Y107.068 E.02246
G1 X122.469 Y71.842 E2.21734
G1 X122.469 Y72.347 E.02246
G1 X157.189 Y107.068 E2.18557
G1 X156.685 Y107.068 E.02246
G1 X122.469 Y72.852 E2.15381
G1 X122.469 Y73.356 E.02246
G1 X156.18 Y107.068 E2.12204
G1 X155.675 Y107.068 E.02246
G1 X122.469 Y73.861 E2.09027
G1 X122.469 Y74.366 E.02246
G1 X155.171 Y107.068 E2.0585
G1 X154.666 Y107.068 E.02246
G1 X122.469 Y74.871 E2.02673
G1 X122.469 Y75.375 E.02246
G1 X154.161 Y107.068 E1.99496
G1 X153.657 Y107.068 E.02246
G1 X122.469 Y75.88 E1.96319
G1 X122.469 Y76.385 E.02246
G1 X153.152 Y107.068 E1.93142
G1 X152.647 Y107.068 E.02246
G1 X122.469 Y76.889 E1.89965
G1 X122.469 Y77.394 E.02246
G1 X152.143 Y107.068 E1.86788
G1 X151.638 Y107.068 E.02246
M73 P4 R124
G1 X122.469 Y77.899 E1.83611
G1 X122.469 Y78.403 E.02246
G1 X151.133 Y107.068 E1.80435
G1 X150.629 Y107.068 E.02246
G1 X122.469 Y78.908 E1.77258
G1 X122.469 Y79.413 E.02246
M73 Q4 S127
G1 X150.124 Y107.068 E1.74081
G1 X149.619 Y107.068 E.02246
M73 Q4 S126
G1 X122.469 Y79.917 E1.70904
G1 X122.469 Y80.422 E.02246
G1 X149.114 Y107.068 E1.67727
G1 X148.61 Y107.068 E.02246
G1 X122.469 Y80.927 E1.6455
G1 X122.469 Y81.432 E.02246
