; generated by PrusaSlicer 2.5.0 on 2023-03-12 at 16:37:27 UTC


;
;
; 

; external perimeters extrusion width = 0.60mm
; perimeters extrusion width = 0.50mm
; infill extrusion width = 0.50mm
; solid infill extrusion width = 0.50mm
; top infill extrusion width = 0.45mm
; support material extrusion width = 0.38mm
; first layer extrusion width = 0.42mm

; external perimeters extrusion width = 0.60mm
; perimeters extrusion width = 0.50mm
; infill extrusion width = 0.50mm
; solid infill extrusion width = 0.50mm
; top infill extrusion width = 0.45mm
; support material extrusion width = 0.38mm
; first layer extrusion width = 0.42mm

M73 P0 R121
M73 Q0 S123
M201 X1000 Y1000 Z200 E5000 ; sets maximum accelerations, mm/sec^2
M203 X200 Y200 Z12 E120 ; sets maximum feedrates, mm / sec
M204 P1250 R1250 T1250 ; sets acceleration (P, T) and retract acceleration (R), mm/sec^2
M205 X8.00 Y8.00 Z0.40 E4.50 ; sets the jerk limits, mm/sec
M205 S0 T0 ; sets the minimum extruding and travel feed rate, mm/sec
M107 ; disable fan
;TYPE:Custom
M862.3 P "MK3S" ; printer model check
M862.1 P0.4 ; nozzle diameter check
M115 U3.11.0 ; tell printer latest fw version
G90 ; use absolute coordinates
M83 ; extruder relative mode
M104 S240 ; set extruder temp
M140 S95 ; set bed temp
M190 S95 ; wait for bed temp
M109 S240 ; wait for extruder temp
G28 W ; home all without mesh bed level
G80 ; mesh bed leveling

G1 Z0.2 F720
G1 Y-3 F1000 ; go outside print area
G92 E0
G1 X60 E9 F1000 ; intro line
G1 X100 E12.5 F1000 ; intro line

G92 E0
M221 S95

; Don't change E values below. Excessive value can damage the printer.

M907 E538 ; set extruder motor current
G21 ; set units to millimeters
G90 ; use absolute coordinates
M83 ; use relative distances for extrusion
M900 K0.08 ; Filament gcode LA 1.5
M900 K45 ; Filament gcode LA 1.0
M107 ; disable fan
;LAYER_CHANGE
;Z:0.3
;HEIGHT:0.3
;BEFORE_LAYER_CHANGE
G92 E0.0
;0.3


G1 E-1.4 F2100 ; retract
G1 Z.2 F720 ; lift Z
G1 Z.3 ; move to next layer (0)
;AFTER_LAYER_CHANGE
;0.3
G1 Z.5 ; lift Z
G1 X62.591 Y36.213 F10800 ; move to first skirt point
G1 Z.3 F720 ; restore layer Z
G1 E1.4 F2100 ;  ; unretract
M204 S800 ; adjust acceleration
;TYPE:Skirt/Brim
;WIDTH:0.42
G1 F1200
G1 X63.309 Y35.532 E.04388 ; skirt
G1 X64.122 Y35.118 E.04046 ; skirt
G1 X65.212 Y34.934 E.04903 ; skirt
G1 X182.078 Y34.934 E5.18357 ; skirt
G1 X182.716 Y34.996 E.02845 ; skirt
G1 X183.288 Y35.163 E.02644 ; skirt
G1 X183.807 Y35.42 E.02567 ; skirt
G1 X184.368 Y35.85 E.03136 ; skirt
G1 X184.783 Y36.327 E.02804 ; skirt
G1 X185.099 Y36.873 E.02798 ; skirt
G1 X185.326 Y37.552 E.03176 ; skirt
G1 X185.4 Y38.181 E.02807 ; skirt
G1 X185.397 Y76.43 E1.69654 ; skirt
G1 X185.2 Y77.395 E.04368 ; skirt
G1 X184.698 Y78.301 E.04595 ; skirt
G1 X183.98 Y78.982 E.04389 ; skirt
G1 X183.168 Y79.397 E.04046 ; skirt
G1 X182.341 Y79.57 E.03746 ; skirt
G1 X138.545 Y83.209 E1.94923 ; skirt
G1 X108.939 Y83.217 E1.31319 ; skirt
G1 X64.807 Y79.556 E1.96417 ; skirt
G1 X63.942 Y79.328 E.0397 ; skirt
G1 X63.147 Y78.861 E.04091 ; skirt
G1 X62.507 Y78.188 E.0412 ; skirt
G1 X62.084 Y77.38 E.04044 ; skirt
G1 X61.888 Y76.26 E.05044 ; skirt
G1 X61.893 Y38.085 E1.69325 ; skirt
G1 X62.089 Y37.12 E.04367 ; skirt
G1 X62.562 Y36.266 E.04331 ; skirt
M204 S1000 ; adjust acceleration
; printing object 2R_footJoint_bearing-Body.stl id:0 copy 0
;WIPE_START
G1 F8640
G1 X63.309 Y35.532 E-.2417 ; wipe and retract
G1 X64.122 Y35.118 E-.21064 ; wipe and retract
G1 X65.212 Y34.934 E-.25524 ; wipe and retract
G1 X67.907 Y34.934 E-.62243 ; wipe and retract
;WIPE_END
G1 E-.07 F2100 ; retract
G1 Z.5 F720 ; lift Z
G1 X124.681 Y73.928 F10800 ; move to first support material point
G1 Z.3 F720 ; restore layer Z
M73 Q0 S122
G1 E1.4 F2100 ;  ; unretract
M204 S800 ; adjust acceleration
;TYPE:Support material
G1 F1200
G1 X124.681 Y76.266 E.10371 ; support material
G1 X124.716 Y76.533 E.01198 ; support material
G1 X124.837 Y76.82 E.01381 ; support material
G1 X125.014 Y77.043 E.0126 ; support material
G1 X125.252 Y77.219 E.01313 ; support material
G1 X125.514 Y77.321 E.0125 ; support material
G1 X125.771 Y77.354 E.01146 ; support material
G1 X138.35 Y77.354 E.55798 ; support material
G1 X138.35 Y80.861 E.15558 ; support material
G1 X123.193 Y80.861 E.67233 ; support material
G1 X123.193 Y72.758 E.35942 ; support material
G1 X124.639 Y73.895 E.08162 ; support material
M204 S1000 ; adjust acceleration
;WIPE_START
G1 F8640
G1 X123.193 Y72.758 E-.42488 ; wipe and retract
G1 X123.193 Y76.678 E-.90512 ; wipe and retract
;WIPE_END
G1 E-.07 F2100 ; retract
G1 Z.5 F720 ; lift Z
G1 X137.727 Y80.701 F10800 ; move to first support material point
G1 Z.3 F720 ; restore layer Z
G1 E1.4 F2100 ;  ; unretract
M204 S800 ; adjust acceleration
G1 F1200
G1 X137.727 Y77.674 E.13428 ; support material
G1 X137.332 Y77.674 E.01753 ; support material
G1 X137.332 Y80.541 E.12719 ; support material
G1 X136.937 Y80.541 E.01753 ; support material
G1 X136.937 Y77.674 E.12719 ; support material
G1 X136.542 Y77.674 E.01753 ; support material
G1 X136.542 Y80.541 E.12719 ; support material
G1 X136.147 Y80.541 E.01753 ; support material
G1 X136.147 Y77.674 E.12719 ; support material
G1 X135.752 Y77.674 E.01753 ; support material
G1 X135.752 Y80.541 E.12719 ; support material
G1 X135.356 Y80.541 E.01753 ; support material
G1 X135.356 Y77.674 E.12719 ; support material
G1 X134.961 Y77.674 E.01753 ; support material
G1 X134.961 Y80.541 E.12719 ; support material
G1 X134.566 Y80.541 E.01753 ; support material
G1 X134.566 Y77.674 E.12719 ; support material
G1 X134.171 Y77.674 E.01753 ; support material
G1 X134.171 Y80.541 E.12719 ; support material
G1 X133.776 Y80.541 E.01753 ; support material
G1 X133.776 Y77.674 E.12719 ; support material
G1 X133.381 Y77.674 E.01753 ; support material
G1 X133.381 Y80.541 E.12719 ; support material
G1 X132.986 Y80.541 E.01753 ; support material
G1 X132.986 Y77.674 E.12719 ; support material
G1 X132.591 Y77.674 E.01753 ; support material
G1 X132.591 Y80.541 E.12719 ; support material
G1 X132.195 Y80.541 E.01753 ; support material
G1 X132.195 Y77.674 E.12719 ; support material
G1 X131.8 Y77.674 E.01753 ; support material
G1 X131.8 Y80.541 E.12719 ; support material
G1 X131.405 Y80.541 E.01753 ; support material
G1 X131.405 Y77.674 E.12719 ; support material
G1 X131.01 Y77.674 E.01753 ; support material
G1 X131.01 Y80.541 E.12719 ; support material
G1 X130.615 Y80.541 E.01753 ; support material
G1 X130.615 Y77.674 E.12719 ; support material
G1 X130.22 Y77.674 E.01753 ; support material
G1 X130.22 Y80.541 E.12719 ; support material
G1 X129.825 Y80.541 E.01753 ; support material
G1 X129.825 Y77.674 E.12719 ; support material
G1 X129.429 Y77.674 E.01753 ; support material
G1 X129.429 Y80.541 E.12719 ; support material
G1 X129.034 Y80.541 E.01753 ; support material
G1 X129.034 Y77.674 E.12719 ; support material
G1 X128.639 Y77.674 E.01753 ; support material
G1 X128.639 Y80.541 E.12719 ; support material
G1 X128.244 Y80.541 E.01753 ; support material
G1 X128.244 Y77.674 E.12719 ; support material
G1 X127.849 Y77.674 E.01753 ; support material
G1 X127.849 Y80.541 E.12719 ; support material
G1 X127.454 Y80.541 E.01753 ; support material
G1 X127.454 Y77.674 E.12719 ; support material
G1 X127.059 Y77.674 E.01753 ; support material
G1 X127.059 Y80.541 E.12719 ; support material
G1 X126.664 Y80.541 E.01753 ; support material
G1 X126.664 Y77.674 E.12719 ; support material
G1 X126.268 Y77.674 E.01753 ; support material
G1 X126.268 Y80.541 E.12719 ; support material
G1 X125.873 Y80.541 E.01753 ; support material
G1 X125.873 Y77.674 E.12719 ; support material
G1 X125.478 Y77.642 E.01758 ; support material
G1 X125.478 Y80.541 E.12861 ; support material
G1 X125.083 Y80.541 E.01753 ; support material
G1 X125.083 Y77.491 E.13527 ; support material
G1 X124.872 Y77.345 E.01139 ; support material
G1 X124.688 Y77.162 E.01151 ; support material
G1 X124.688 Y80.541 E.14986 ; support material
G1 X124.293 Y80.541 E.01753 ; support material
G1 X124.293 Y74.029 E.28883 ; support material
G1 X123.898 Y73.719 E.02229 ; support material
G1 X123.898 Y80.701 E.3097 ; support material
M204 S1000 ; adjust acceleration
;WIPE_START
G1 F8640
G1 X123.898 Y74.941 E-1.33 ; wipe and retract
;WIPE_END
G1 E-.07 F2100 ; retract
G1 Z.5 F720 ; lift Z
G1 X126.017 Y76.018 F10800 ; move to first perimeter point
G1 Z.3 F720 ; restore layer Z
G1 E1.4 F2100 ;  ; unretract
M204 S800 ; adjust acceleration
;TYPE:Perimeter
;WIDTH:0.42
G1 F1200
G1 X126.017 Y38.497 E1.66425 ; perimeter
G1 X181.838 Y38.497 E2.47594 ; perimeter
G1 X181.838 Y76.018 E1.66421 ; perimeter
G1 X126.077 Y76.018 E2.47328 ; perimeter
M204 S1000 ; adjust acceleration
G1 X125.836 Y76.374 F10800 ; move to first perimeter point
M204 S800 ; adjust acceleration
;TYPE:External perimeter
G1 F1200
G1 X125.735 Y76.354 E.00456 ; perimeter
G1 X125.661 Y76.238 E.00609 ; perimeter
G1 X125.661 Y38.311 E1.68226 ; perimeter
G1 X125.685 Y38.199 E.00509 ; perimeter
M73 P0 R120
G1 X125.81 Y38.141 E.00609 ; perimeter
G1 X182.002 Y38.142 E2.4924 ; perimeter
G1 X182.153 Y38.191 E.00702 ; perimeter
G1 X182.194 Y38.298 E.0051 ; perimeter
G1 X182.194 Y76.199 E1.68109 ; perimeter
G1 X182.175 Y76.3 E.00456 ; perimeter
G1 X182.059 Y76.374 E.00609 ; perimeter
G1 X125.896 Y76.374 E2.49109 ; perimeter
M204 S1000 ; adjust acceleration
G1 X125.796 Y76.279 F10800 ; move inwards before travel
;WIPE_START
G1 F8640
G1 X125.735 Y76.354 E-.03742 ; wipe and retract
G1 X125.661 Y76.238 E-.0317 ; wipe and retract
G1 X125.661 Y70.778 E-1.26088 ; wipe and retract
;WIPE_END
G1 E-.07 F2100 ; retract
G1 Z.5 F720 ; lift Z
G1 X181.009 Y38.604 F10800 ; move to first infill point
G1 Z.3 F720 ; restore layer Z
G1 E1.4 F2100 ;  ; unretract
M204 S800 ; adjust acceleration
;TYPE:Solid infill
;WIDTH:0.421724
G1 F1200
G1 X181.572 Y39.167 E.03546 ; infill
G1 X181.572 Y39.672 E.02252 ; infill
G1 X180.664 Y38.764 E.05722 ; infill
G1 X180.158 Y38.764 E.02252 ; infill
G1 X181.572 Y40.177 E.08908 ; infill
G1 X181.572 Y40.683 E.02252 ; infill
G1 X179.653 Y38.764 E.12093 ; infill
G1 X179.148 Y38.764 E.02252 ; infill
G1 X181.572 Y41.188 E.15279 ; infill
G1 X181.572 Y41.693 E.02252 ; infill
G1 X178.642 Y38.764 E.18464 ; infill
G1 X178.137 Y38.764 E.02252 ; infill
G1 X181.572 Y42.199 E.21649 ; infill
G1 X181.572 Y42.704 E.02252 ; infill
G1 X177.632 Y38.764 E.24835 ; infill
G1 X177.126 Y38.764 E.02252 ; infill
G1 X181.572 Y43.209 E.2802 ; infill
G1 X181.572 Y43.715 E.02252 ; infill
G1 X176.621 Y38.764 E.31205 ; infill
G1 X176.115 Y38.764 E.02252 ; infill
G1 X181.572 Y44.22 E.34391 ; infill
G1 X181.572 Y44.726 E.02252 ; infill
G1 X175.61 Y38.764 E.37576 ; infill
G1 X175.105 Y38.764 E.02252 ; infill
G1 X181.572 Y45.231 E.40762 ; infill
G1 X181.572 Y45.736 E.02252 ; infill
G1 X174.599 Y38.764 E.43947 ; infill
G1 X174.094 Y38.764 E.02252 ; infill
G1 X181.572 Y46.242 E.47132 ; infill
G1 X181.572 Y46.747 E.02252 ; infill
G1 X173.589 Y38.764 E.50318 ; infill
G1 X173.083 Y38.764 E.02252 ; infill
G1 X181.572 Y47.252 E.53503 ; infill
G1 X181.572 Y47.758 E.02252 ; infill
G1 X172.578 Y38.764 E.56689 ; infill
G1 X172.073 Y38.764 E.02252 ; infill
G1 X181.572 Y48.263 E.59874 ; infill
G1 X181.572 Y48.768 E.02252 ; infill
G1 X171.567 Y38.764 E.63059 ; infill
G1 X171.062 Y38.764 E.02252 ; infill
G1 X181.572 Y49.274 E.66245 ; infill
G1 X181.572 Y49.779 E.02252 ; infill
G1 X170.556 Y38.764 E.6943 ; infill
G1 X170.051 Y38.764 E.02252 ; infill
G1 X181.572 Y50.284 E.72616 ; infill
G1 X181.572 Y50.79 E.02252 ; infill
G1 X169.546 Y38.764 E.75801 ; infill
G1 X169.04 Y38.764 E.02252 ; infill
G1 X181.572 Y51.295 E.78986 ; infill
G1 X181.572 Y51.801 E.02252 ; infill
G1 X168.535 Y38.764 E.82172 ; infill
G1 X168.03 Y38.764 E.02252 ; infill
G1 X181.572 Y52.306 E.85357 ; infill
G1 X181.572 Y52.811 E.02252 ; infill
G1 X167.524 Y38.764 E.88542 ; infill
G1 X167.019 Y38.764 E.02252 ; infill
G1 X181.572 Y53.317 E.91728 ; infill
G1 X181.572 Y53.822 E.02252 ; infill
G1 X166.514 Y38.764 E.94913 ; infill
G1 X166.008 Y38.764 E.02252 ; infill
G1 X181.572 Y54.327 E.98099 ; infill
G1 X181.572 Y54.833 E.02252 ; infill
G1 X165.503 Y38.764 E1.01284 ; infill
G1 X164.997 Y38.764 E.02252 ; infill
M73 P1 R120
M73 Q1 S122
G1 X181.572 Y55.338 E1.04469 ; infill
G1 X181.572 Y55.843 E.02252 ; infill
G1 X164.492 Y38.764 E1.07655 ; infill
G1 X163.987 Y38.764 E.02252 ; infill
G1 X181.572 Y56.349 E1.1084 ; infill
G1 X181.572 Y56.854 E.02252 ; infill
G1 X163.481 Y38.764 E1.14026 ; infill
G1 X162.976 Y38.764 E.02252 ; infill
G1 X181.572 Y57.359 E1.17211 ; infill
G1 X181.572 Y57.865 E.02252 ; infill
G1 X162.471 Y38.764 E1.20396 ; infill
G1 X161.965 Y38.764 E.02252 ; infill
G1 X181.572 Y58.37 E1.23582 ; infill
G1 X181.572 Y58.876 E.02252 ; infill
G1 X161.46 Y38.764 E1.26767 ; infill
G1 X160.954 Y38.764 E.02252 ; infill
M73 Q1 S121
G1 X181.572 Y59.381 E1.29953 ; infill
G1 X181.572 Y59.886 E.02252 ; infill
G1 X160.449 Y38.764 E1.33138 ; infill
G1 X159.944 Y38.764 E.02252 ; infill
G1 X181.572 Y60.392 E1.36323 ; infill
G1 X181.572 Y60.897 E.02252 ; infill
G1 X159.438 Y38.764 E1.39509 ; infill
G1 X158.933 Y38.764 E.02252 ; infill
G1 X181.572 Y61.402 E1.42694 ; infill
G1 X181.572 Y61.908 E.02252 ; infill
G1 X158.428 Y38.764 E1.45879 ; infill
G1 X157.922 Y38.764 E.02252 ; infill
G1 X181.572 Y62.413 E1.49065 ; infill
G1 X181.572 Y62.918 E.02252 ; infill
G1 X157.417 Y38.764 E1.5225 ; infill
G1 X156.912 Y38.764 E.02252 ; infill
G1 X181.572 Y63.424 E1.55436 ; infill
G1 X181.572 Y63.929 E.02252 ; infill
G1 X156.406 Y38.764 E1.58621 ; infill
G1 X155.901 Y38.764 E.02252 ; infill
G1 X181.572 Y64.435 E1.61806 ; infill
G1 X181.572 Y64.94 E.02252 ; infill
G1 X155.395 Y38.764 E1.64992 ; infill
G1 X154.89 Y38.764 E.02252 ; infill
M73 P1 R119
G1 X181.572 Y65.445 E1.68177 ; infill
G1 X181.572 Y65.951 E.02252 ; infill
G1 X154.385 Y38.764 E1.71363 ; infill
G1 X153.879 Y38.764 E.02252 ; infill
G1 X181.572 Y66.456 E1.74548 ; infill
G1 X181.572 Y66.961 E.02252 ; infill
G1 X153.374 Y38.764 E1.77733 ; infill
G1 X152.869 Y38.764 E.02252 ; infill
G1 X181.572 Y67.467 E1.80919 ; infill
G1 X181.572 Y67.972 E.02252 ; infill
G1 X152.363 Y38.764 E1.84104 ; infill
G1 X151.858 Y38.764 E.02252 ; infill
G1 X181.572 Y68.477 E1.8729 ; infill
G1 X181.572 Y68.983 E.02252 ; infill
G1 X151.353 Y38.764 E1.90475 ; infill
G1 X150.847 Y38.764 E.02252 ; infill
G1 X181.572 Y69.488 E1.9366 ; infill
G1 X181.572 Y69.993 E.02252 ; infill
G1 X150.342 Y38.764 E1.96846 ; infill
G1 X149.836 Y38.764 E.02252 ; infill
G1 X181.572 Y70.499 E2.00031 ; infill
G1 X181.572 Y71.004 E.02252 ; infill
G1 X149.331 Y38.764 E2.03216 ; infill
G1 X148.826 Y38.764 E.02252 ; infill
G1 X181.572 Y71.51 E2.06402 ; infill
G1 X181.572 Y72.015 E.02252 ; infill
G1 X148.32 Y38.764 E2.09587 ; infill
G1 X147.815 Y38.764 E.02252 ; infill
G1 X181.572 Y72.52 E2.12773 ; infill
G1 X181.572 Y73.026 E.02252 ; infill
G1 X147.31 Y38.764 E2.15958 ; infill
G1 X146.804 Y38.764 E.02252 ; infill
G1 X181.572 Y73.531 E2.19143 ; infill
G1 X181.572 Y74.036 E.02252 ; infill
G1 X146.299 Y38.764 E2.22329 ; infill
G1 X145.793 Y38.764 E.02252 ; infill
M73 Q1 S120
G1 X181.572 Y74.542 E2.25514 ; infill
G1 X181.572 Y75.047 E.02252 ; infill
M73 P2 R119
M73 Q2 S120
G1 X145.288 Y38.764 E2.287 ; infill
G1 X144.783 Y38.764 E.02252 ; infill
G1 X181.572 Y75.552 E2.31885 ; infill
G1 X181.572 Y75.751 E.00886 ; infill
G1 X181.265 Y75.751 E.01366 ; infill
G1 X144.277 Y38.764 E2.33138 ; infill
G1 X143.772 Y38.763 E.02252 ; infill
G1 X180.76 Y75.751 E2.33138 ; infill
G1 X180.254 Y75.751 E.02252 ; infill
G1 X143.267 Y38.763 E2.33138 ; infill
G1 X142.761 Y38.763 E.02252 ; infill
G1 X179.749 Y75.751 E2.33138 ; infill
G1 X179.244 Y75.751 E.02252 ; infill
G1 X142.256 Y38.763 E2.33138 ; infill
G1 X141.751 Y38.763 E.02252 ; infill
M73 P2 R118
G1 X178.738 Y75.751 E2.33138 ; infill
G1 X178.233 Y75.751 E.02252 ; infill
G1 X141.245 Y38.763 E2.33138 ; infill
G1 X140.74 Y38.763 E.02252 ; infill
G1 X177.728 Y75.751 E2.33138 ; infill
G1 X177.222 Y75.751 E.02252 ; infill
G1 X140.234 Y38.763 E2.33138 ; infill
G1 X139.729 Y38.763 E.02252 ; infill
