; generated by PrusaSlicer 2.7.1 on 2023-12-29 at 18:42:29 UTC


;
;
; 

; external perimeters extrusion width = 0.60mm
; perimeters extrusion width = 0.50mm
; infill extrusion width = 0.50mm
; solid infill extrusion width = 0.50mm
; top infill extrusion width = 0.45mm
; support material extrusion width = 0.38mm
; first layer extrusion width = 0.42mm

M73 P0 R81
M73 Q0 S82
M201 X1000 Y1000 Z200 E5000 ; sets maximum accelerations, mm/sec^2
M203 X200 Y200 Z12 E120 ; sets maximum feedrates, mm / sec
M204 S1250 T1250 ; sets acceleration (S) and retract acceleration (R), mm/sec^2
M205 X8.00 Y8.00 Z0.40 E4.50 ; sets the jerk limits, mm/sec
M205 S0 T0 ; sets the minimum extruding and travel feed rate, mm/sec

; printing object 2R_footJoint_bearing2-Body.stl id:0 copy 0
; stop printing object 2R_footJoint_bearing2-Body.stl id:0 copy 0

;TYPE:Custom
M862.3 P "MK3S" ; printer model check
M862.1 P0.4 ; nozzle diameter check
M115 U3.12.2 ; tell printer latest fw version
G90 ; use absolute coordinates
M83 ; extruder relative mode
M104 S240 ; set extruder temp
M140 S95 ; set bed temp
M190 S95 ; wait for bed temp
M109 S240 ; wait for extruder temp
G28 W ; home all without mesh bed level
G80 ; mesh bed leveling

G1 Z0.2 F720
G1 Y-3 F1000 ; go outside print area
G92 E0
G1 X60 E9 F1000 ; intro line
G1 X100 E12.5 F1000 ; intro line

G92 E0
M221 S95

; Don't change E values below. Excessive value can damage the printer.

M907 E538 ; set extruder motor current
G21 ; set units to millimeters
G90 ; use absolute coordinates
M83 ; use relative distances for extrusion
M900 K0.08 ; Filament gcode LA 1.5
M900 K45 ; Filament gcode LA 1.0
M107 ; disable fan
;LAYER_CHANGE
;Z:0.3
;HEIGHT:0.3
;BEFORE_LAYER_CHANGE
G92 E0.0
;0.3


G1 E-1.4 F2100 ; retract
G1 Z.3 F720 ; move to next layer (0)
;AFTER_LAYER_CHANGE
;0.3
G1 X100.548 Y76.146 F10800 ; move to print after unknown position
G1 Z.3 F720 ; move to print after unknown position
G1 E1.4 F2100 ;  ; unretract
M204 S800 ; adjust acceleration
;TYPE:Skirt/Brim
;WIDTH:0.42
G1 F1200
G1 X101.586 Y74.808 E.07511 ; skirt
G1 X102.433 Y73.994 E.05211 ; skirt
G1 X103.694 Y73.087 E.0689 ; skirt
G1 X105.439 Y72.259 E.08567 ; skirt
M73 Q0 S81
G1 X106.939 Y71.856 E.06889 ; skirt
G1 X108.484 Y71.699 E.06888 ; skirt
G1 X109.659 Y71.747 E.05216 ; skirt
G1 X136.334 Y74.67 E1.19025 ; skirt
G1 X138.061 Y75.057 E.0785 ; skirt
G1 X139.479 Y75.669 E.0685 ; skirt
G1 X155.388 Y85.496 E.82941 ; skirt
G1 X156.289 Y86.512 E.06023 ; skirt
G1 X156.506 Y87.5 E.04487 ; skirt
G1 X156.506 Y127.5 E1.77419 ; skirt
G1 X156.114 Y128.8 E.06023 ; skirt
M73 P0 R80
G1 X154.641 Y129.804 E.07907 ; skirt
G1 X106.473 Y140.076 E2.18452 ; skirt
G1 X104.473 Y140.14 E.08876 ; skirt
G1 X102.906 Y139.863 E.07058 ; skirt
G1 X101.808 Y139.482 E.05155 ; skirt
G1 X100.044 Y138.476 E.09007 ; skirt
G1 X98.847 Y137.409 E.07112 ; skirt
G1 X98.135 Y136.535 E.05 ; skirt
G1 X97.566 Y135.618 E.04787 ; skirt
G1 X93.778 Y128.621 E.35291 ; skirt
G1 X93.494 Y127.5 E.05129 ; skirt
G1 X93.494 Y87.5 E1.77419 ; skirt
G1 X93.886 Y86.199 E.06027 ; skirt
G1 X100.515 Y76.196 E.53226 ; skirt
M204 S1000 ; adjust acceleration
; printing object 2R_footJoint_bearing2-Body.stl id:0 copy 0
;WIPE_START
G1 F8640
G1 X100.548 Y76.146 E-.01383 ; wipe and retract
G1 X101.586 Y74.808 E-.39102 ; wipe and retract
G1 X102.433 Y73.994 E-.27125 ; wipe and retract
G1 X103.694 Y73.087 E-.35866 ; wipe and retract
G1 X105.123 Y72.409 E-.36524 ; wipe and retract
;WIPE_END
G1 Z.5 F720 ; move to first support material point
G1 X135.482 Y76.985 F10800 ; move to first support material point
G1 Z.3 F720 ; move to first support material point
G1 E1.4 F2100 ;  ; unretract
M204 S800 ; adjust acceleration
;TYPE:Support material
G1 F1200
G1 X136.077 Y77.012 E.02642 ; support material
G1 X137.174 Y77.239 E.04969 ; support material
G1 X138.241 Y77.673 E.05109 ; support material
G1 X139.213 Y78.294 E.05116 ; support material
G1 X140.056 Y79.08 E.05112 ; support material
G1 X140.743 Y80.006 E.05114 ; support material
G1 X141.25 Y81.042 E.05116 ; support material
G1 X141.561 Y82.152 E.05113 ; support material
G1 X141.666 Y83.3 E.05113 ; support material
G1 X141.561 Y84.448 E.05113 ; support material
G1 X141.25 Y85.558 E.05113 ; support material
G1 X140.743 Y86.594 E.05116 ; support material
G1 X140.493 Y86.93 E.01858 ; support material
G1 X130.153 Y86.93 E.45863 ; support material
G1 X129.546 Y85.867 E.05429 ; support material
G1 X129.168 Y84.725 E.05336 ; support material
G1 X129.066 Y84.164 E.02529 ; support material
G1 X129.012 Y83.585 E.02579 ; support material
G1 X129.066 Y82.436 E.05102 ; support material
G1 X129.168 Y81.875 E.02529 ; support material
G1 X129.546 Y80.733 E.05336 ; support material
G1 X130.069 Y79.773 E.04849 ; support material
G1 X130.795 Y78.878 E.05112 ; support material
G1 X131.671 Y78.129 E.05112 ; support material
G1 X132.669 Y77.551 E.05115 ; support material
G1 X133.754 Y77.164 E.05109 ; support material
G1 X134.862 Y76.985 E.04978 ; support material
G1 X135.428 Y76.985 E.0251 ; support material
M204 S1000 ; adjust acceleration
G1 X141.2 Y85.142 F10800 ; move to first support material point
M204 S800 ; adjust acceleration
G1 F1200
G1 X141.2 Y82.051 E.1371 ; support material
G1 X140.805 Y80.862 E.05557 ; support material
G1 X140.805 Y85.738 E.21627 ; support material
G1 X140.41 Y86.505 E.03827 ; support material
G1 X140.41 Y80.095 E.28431 ; support material
G1 X140.015 Y79.562 E.02943 ; support material
G1 X140.015 Y86.61 E.31261 ; support material
G1 X139.62 Y86.61 E.01752 ; support material
G1 X139.62 Y79.111 E.33262 ; support material
G1 X139.225 Y78.742 E.02398 ; support material
G1 X139.225 Y86.61 E.34898 ; support material
G1 X138.83 Y86.61 E.01752 ; support material
G1 X138.83 Y78.428 E.36291 ; support material
G1 X138.434 Y78.176 E.02082 ; support material
G1 X138.434 Y86.61 E.37409 ; support material
G1 X138.039 Y86.61 E.01752 ; support material
G1 X138.039 Y77.936 E.38473 ; support material
G1 X137.644 Y77.775 E.01892 ; support material
G1 X137.644 Y86.61 E.39187 ; support material
G1 X137.249 Y86.61 E.01752 ; support material
G1 X137.249 Y77.615 E.39897 ; support material
G1 X137.08 Y77.546 E.0081 ; support material
G1 X136.854 Y77.499 E.01024 ; support material
G1 X136.854 Y86.61 E.40412 ; support material
G1 X136.459 Y86.61 E.01752 ; support material
G1 X136.459 Y77.418 E.40771 ; support material
G1 X136.064 Y77.336 E.01789 ; support material
G1 X136.064 Y86.61 E.41135 ; support material
G1 X135.669 Y86.61 E.01752 ; support material
G1 X135.669 Y77.314 E.41232 ; support material
G1 X135.273 Y77.305 E.01757 ; support material
G1 X135.273 Y86.61 E.41272 ; support material
G1 X134.878 Y86.61 E.01752 ; support material
G1 X134.878 Y77.306 E.41268 ; support material
G1 X134.483 Y77.37 E.01775 ; support material
G1 X134.483 Y86.61 E.40984 ; support material
G1 X134.088 Y86.61 E.01752 ; support material
G1 X134.088 Y77.434 E.407 ; support material
G1 X133.693 Y77.526 E.01799 ; support material
G1 X133.693 Y86.61 E.40292 ; support material
G1 X133.298 Y86.61 E.01752 ; support material
G1 X133.298 Y77.667 E.39667 ; support material
G1 X132.903 Y77.808 E.0186 ; support material
G1 X132.903 Y86.61 E.39041 ; support material
G1 X132.508 Y86.61 E.01752 ; support material
G1 X132.508 Y78.015 E.38123 ; support material
G1 X132.112 Y78.243 E.02027 ; support material
G1 X132.112 Y86.61 E.37112 ; support material
G1 X131.717 Y86.61 E.01752 ; support material
G1 X131.717 Y78.511 E.35923 ; support material
G1 X131.322 Y78.848 E.02303 ; support material
G1 X131.322 Y86.61 E.34428 ; support material
G1 X130.927 Y86.61 E.01752 ; support material
G1 X130.927 Y79.223 E.32765 ; support material
G1 X130.532 Y79.71 E.02781 ; support material
G1 X130.532 Y86.61 E.30605 ; support material
G1 X130.315 Y86.61 E.00962 ; support material
G1 X130.137 Y86.282 E.01655 ; support material
G1 X130.137 Y80.317 E.26458 ; support material
G1 X129.742 Y81.122 E.03977 ; support material
G1 X129.742 Y85.478 E.19321 ; support material
G1 X129.383 Y84.121 E.06226 ; support material
G1 X129.346 Y81.832 E.10154 ; support material
M204 S1000 ; adjust acceleration
;WIPE_START
G1 F8640
G1 X129.383 Y84.121 E-.52861 ; wipe and retract
G1 X129.742 Y85.478 E-.32411 ; wipe and retract
G1 X129.742 Y83.108 E-.54728 ; wipe and retract
;WIPE_END
G1 Z.5 F720 ; move to first support material point
G1 X109.018 Y74.078 F10800 ; move to first support material point
G1 Z.3 F720 ; move to first support material point
G1 E1.4 F2100 ;  ; unretract
M204 S800 ; adjust acceleration
G1 F1200
G1 X109.564 Y74.1 E.02424 ; support material
G1 X110.715 Y74.336 E.05211 ; support material
G1 X111.814 Y74.752 E.05212 ; support material
G1 X112.832 Y75.34 E.05214 ; support material
G1 X113.742 Y76.083 E.05211 ; support material
G1 X114.522 Y76.963 E.05216 ; support material
G1 X115.15 Y77.956 E.05211 ; support material
G1 X115.611 Y79.037 E.05213 ; support material
G1 X115.892 Y80.179 E.05216 ; support material
G1 X115.986 Y81.35 E.05211 ; support material
G1 X115.892 Y82.521 E.05211 ; support material
G1 X115.611 Y83.663 E.05216 ; support material
G1 X115.15 Y84.744 E.05213 ; support material
G1 X114.522 Y85.737 E.05211 ; support material
G1 X113.742 Y86.617 E.05216 ; support material
G1 X113.359 Y86.93 E.02194 ; support material
G1 X103.985 Y86.93 E.41578 ; support material
G1 X103.217 Y86.193 E.04721 ; support material
G1 X102.511 Y85.253 E.05214 ; support material
G1 X101.965 Y84.212 E.05214 ; support material
G1 X101.593 Y83.098 E.05209 ; support material
G1 X101.405 Y81.938 E.05212 ; support material
G1 X101.405 Y80.762 E.05216 ; support material
G1 X101.593 Y79.602 E.05212 ; support material
G1 X101.965 Y78.488 E.05209 ; support material
G1 X102.511 Y77.447 E.05214 ; support material
G1 X103.217 Y76.507 E.05214 ; support material
G1 X104.065 Y75.693 E.05214 ; support material
G1 X105.032 Y75.026 E.0521 ; support material
G1 X106.094 Y74.522 E.05214 ; support material
G1 X107.223 Y74.195 E.05213 ; support material
G1 X108.39 Y74.053 E.05214 ; support material
G1 X108.964 Y74.076 E.02548 ; support material
M204 S1000 ; adjust acceleration
G1 X115.517 Y83.374 F10800 ; move to first support material point
M204 S800 ; adjust acceleration
G1 F1200
G1 X115.517 Y79.994 E.14992 ; support material
G1 X115.122 Y78.707 E.05971 ; support material
G1 X115.122 Y83.993 E.23446 ; support material
G1 X114.727 Y84.814 E.04041 ; support material
G1 X114.727 Y77.886 E.30729 ; support material
G1 X114.331 Y77.261 E.03282 ; support material
G1 X114.331 Y85.439 E.36273 ; support material
G1 X113.936 Y85.915 E.02744 ; support material
G1 X113.936 Y76.785 E.40496 ; support material
G1 X113.541 Y76.339 E.02643 ; support material
G1 X113.541 Y86.361 E.44452 ; support material
G1 X113.245 Y86.61 E.01716 ; support material
G1 X113.146 Y86.61 E.00439 ; support material
G1 X113.146 Y76.009 E.47021 ; support material
G1 X112.751 Y75.687 E.0226 ; support material
G1 X112.751 Y86.61 E.48449 ; support material
G1 X112.356 Y86.61 E.01752 ; support material
G1 X112.356 Y75.434 E.49571 ; support material
G1 X111.961 Y75.206 E.02023 ; support material
G1 X111.961 Y86.61 E.50582 ; support material
G1 X111.566 Y86.61 E.01752 ; support material
G1 X111.566 Y75 E.51496 ; support material
G1 X111.17 Y74.85 E.01878 ; support material
G1 X111.17 Y86.61 E.52161 ; support material
G1 X110.775 Y86.61 E.01752 ; support material
G1 X110.775 Y74.701 E.52822 ; support material
G1 X110.38 Y74.594 E.01815 ; support material
G1 X110.38 Y86.61 E.53297 ; support material
G1 X109.985 Y86.61 E.01752 ; support material
G1 X109.985 Y74.513 E.53656 ; support material
G1 X109.59 Y74.432 E.01788 ; support material
G1 X109.59 Y86.61 E.54015 ; support material
G1 X109.195 Y86.61 E.01752 ; support material
G1 X109.195 Y74.406 E.54131 ; support material
G1 X108.8 Y74.39 E.01753 ; support material
G1 X108.8 Y86.61 E.54202 ; support material
G1 X108.404 Y86.61 E.01756 ; support material
G1 X108.404 Y74.374 E.54273 ; support material
G1 X108.009 Y74.422 E.01765 ; support material
G1 X108.009 Y86.61 E.5406 ; support material
G1 X107.614 Y86.61 E.01752 ; support material
G1 X107.614 Y74.47 E.53847 ; support material
M73 P1 R80
G1 X107.287 Y74.509 E.01461 ; support material
M73 Q1 S81
G1 X107.219 Y74.529 E.00314 ; support material
G1 X107.219 Y86.61 E.53585 ; support material
G1 X106.824 Y86.61 E.01752 ; support material
G1 X106.824 Y74.644 E.53075 ; support material
G1 X106.429 Y74.758 E.01824 ; support material
G1 X106.429 Y86.61 E.52569 ; support material
G1 X106.034 Y86.61 E.01752 ; support material
G1 X106.034 Y74.905 E.51917 ; support material
G1 X105.639 Y75.092 E.01938 ; support material
G1 X105.639 Y86.61 E.51088 ; support material
G1 X105.243 Y86.61 E.01756 ; support material
G1 X105.243 Y75.28 E.50254 ; support material
G1 X104.848 Y75.541 E.021 ; support material
G1 X104.848 Y86.61 E.49096 ; support material
G1 X104.453 Y86.61 E.01752 ; support material
G1 X104.453 Y75.814 E.47885 ; support material
G1 X104.058 Y76.144 E.02283 ; support material
G1 X104.058 Y86.556 E.46182 ; support material
G1 X103.663 Y86.177 E.02428 ; support material
G1 X103.663 Y76.523 E.4282 ; support material
G1 X103.268 Y76.973 E.02656 ; support material
G1 X103.268 Y85.727 E.38828 ; support material
G1 X102.873 Y85.201 E.02918 ; support material
G1 X102.873 Y77.499 E.34162 ; support material
G1 X102.477 Y78.2 E.03571 ; support material
G1 X102.477 Y84.5 E.27944 ; support material
G1 X102.082 Y83.553 E.04551 ; support material
G1 X102.082 Y78.642 E.21783 ; support material
M204 S1000 ; adjust acceleration
;WIPE_START
G1 F8640
G1 X102.082 Y83.553 E-1.13396 ; wipe and retract
G1 X102.477 Y84.5 E-.23692 ; wipe and retract
G1 X102.477 Y84.374 E-.02912 ; wipe and retract
;WIPE_END
G1 Z.5 F720 ; move to first support material point
G1 X110.569 Y128.122 F10800 ; move to first support material point
G1 Z.3 F720 ; move to first support material point
G1 E1.4 F2100 ;  ; unretract
M204 S800 ; adjust acceleration
G1 F1200
G1 X111.089 Y129.156 E.05134 ; support material
G1 X111.412 Y130.265 E.05123 ; support material
G1 X111.529 Y131.414 E.05123 ; support material
G1 X111.436 Y132.564 E.05117 ; support material
G1 X111.137 Y133.677 E.05112 ; support material
G1 X110.642 Y134.716 E.05105 ; support material
G1 X109.973 Y135.642 E.05067 ; support material
G1 X109.117 Y136.457 E.05242 ; support material
G1 X108.172 Y137.077 E.05013 ; support material
G1 X107.109 Y137.525 E.05117 ; support material
G1 X105.981 Y137.772 E.05122 ; support material
G1 X104.825 Y137.811 E.0513 ; support material
G1 X103.678 Y137.637 E.05146 ; support material
G1 X102.58 Y137.256 E.05155 ; support material
G1 X101.567 Y136.679 E.05171 ; support material
G1 X100.674 Y135.923 E.0519 ; support material
G1 X99.962 Y135.048 E.05004 ; support material
G1 X99.375 Y133.963 E.05472 ; support material
G1 X99.161 Y133.378 E.02763 ; support material
G1 X98.919 Y132.269 E.05035 ; support material
G1 X98.873 Y131.692 E.02567 ; support material
G1 X98.878 Y131.135 E.02471 ; support material
G1 X99.04 Y130.013 E.05028 ; support material
G1 X99.4 Y128.937 E.05033 ; support material
G1 X99.868 Y128.07 E.0437 ; support material
G1 X110.537 Y128.08 E.47322 ; support material
M204 S1000 ; adjust acceleration
G1 X111.17 Y132.937 F10800 ; move to first support material point
M204 S800 ; adjust acceleration
G1 F1200
G1 X111.17 Y131.048 E.08379 ; support material
G1 X111.097 Y130.327 E.03214 ; support material
G1 X110.775 Y129.244 E.05011 ; support material
G1 X110.775 Y133.693 E.19733 ; support material
G1 X110.38 Y134.522 E.04073 ; support material
G1 X110.38 Y128.459 E.26892 ; support material
G1 X110.345 Y128.39 E.00343 ; support material
G1 X109.985 Y128.39 E.01597 ; support material
G1 X109.985 Y135.079 E.29669 ; support material
G1 X109.59 Y135.567 E.02785 ; support material
G1 X109.59 Y128.39 E.31833 ; support material
G1 X109.195 Y128.39 E.01752 ; support material
G1 X109.195 Y135.949 E.33528 ; support material
G1 X108.8 Y136.282 E.02292 ; support material
