; generated by PrusaSlicer 2.4.2 on 2022-08-19 at 16:21:39 UTC

; 

; external perimeters extrusion width = 0.60mm
; perimeters extrusion width = 0.50mm
; infill extrusion width = 0.50mm
; solid infill extrusion width = 0.50mm
; top infill extrusion width = 0.45mm
; first layer extrusion width = 0.42mm

M73 P0 R67
M73 Q0 S68
M201 X1000 Y1000 Z200 E5000 ; sets maximum accelerations, mm/sec^2
M203 X200 Y200 Z12 E120 ; sets maximum feedrates, mm / sec
M204 P1250 R1250 T1250 ; sets acceleration (P, T) and retract acceleration (R), mm/sec^2
M205 X8.00 Y8.00 Z0.40 E4.50 ; sets the jerk limits, mm/sec
M205 S0 T0 ; sets the minimum extruding and travel feed rate, mm/sec
M107
;TYPE:Custom
M862.3 P "MK3S" ; printer model check
M862.1 P0.4 ; nozzle diameter check
M115 U3.10.1 ; tell printer latest fw version
G90 ; use absolute coordinates
M83 ; extruder relative mode
M104 S240 ; set extruder temp
M140 S95 ; set bed temp
M190 S95 ; wait for bed temp
M109 S240 ; wait for extruder temp
G28 W ; home all without mesh bed level
G80 ; mesh bed leveling
G1 Z0.2 F720
G1 Y-3 F1000 ; go outside print area
G92 E0
G1 X60 E9 F1000 ; intro line
G1 X100 E12.5 F1000 ; intro line
G92 E0
M221 S95

; Don't change E values below. Excessive value can damage the printer.

M907 E538 ; set extruder motor current
G21 ; set units to millimeters
G90 ; use absolute coordinates
M83 ; use relative distances for extrusion
M900 K0.08 ; Filament gcode LA 1.5
M900 K45 ; Filament gcode LA 1.0
M107
;LAYER_CHANGE
;Z:0.3
;HEIGHT:0.3
;BEFORE_LAYER_CHANGE
G92 E0.0
;0.3


G1 E-1.4 F2100
G1 Z.2 F720
G1 Z.3
;AFTER_LAYER_CHANGE
;0.3
G1 Z.5
G1 X93.886 Y86.2 F10800
G1 Z.3 F720
G1 E1.4 F2100
M204 S800
;TYPE:Skirt/Brim
;WIDTH:0.42
G1 F1200
G1 X94.93 Y85.331 E.06024
G1 X95.85 Y85.144 E.04163
G1 X154.15 Y85.144 E2.58589
G1 X155.45 Y85.536 E.06024
G1 X156.319 Y86.58 E.06024
G1 X156.506 Y87.5 E.04163
G1 X156.506 Y127.5 E1.77419
G1 X156.114 Y128.8 E.06024
M73 Q0 S67
G1 X155.07 Y129.669 E.06024
G1 X154.15 Y129.856 E.04163
G1 X95.85 Y129.856 E2.58589
G1 X94.55 Y129.464 E.06024
G1 X93.681 Y128.42 E.06024
G1 X93.494 Y127.5 E.04163
G1 X93.494 Y87.5 E1.77419
G1 X93.869 Y86.257 E.05758
M204 S1000
; printing object 2R_footJoint-Body.stl id:0 copy 0
;WIPE_START
G1 F8640
G1 X94.93 Y85.331 E-.32524
G1 X95.85 Y85.144 E-.21671
G1 X99.263 Y85.144 E-.78805
;WIPE_END
G1 E-.07 F2100
G1 Z.5 F720
G1 X96.616 Y88.266 F10800
G1 Z.3 F720
G1 E1.4 F2100
M204 S800
;TYPE:Perimeter
G1 F1200
G1 X153.384 Y88.266 E2.51797
G1 X153.384 Y126.734 E1.70627
M73 P0 R66
G1 X96.616 Y126.734 E2.51797
G1 X96.616 Y88.326 E1.70361
M204 S1000
G1 X96.26 Y87.91 F10800
M204 S800
;TYPE:External perimeter
G1 F1200
G1 X153.74 Y87.91 E2.54951
G1 X153.74 Y127.09 E1.73782
G1 X96.26 Y127.09 E2.54951
G1 X96.26 Y87.97 E1.73516
M204 S1000
G1 X96.652 Y87.989 F10800
;WIPE_START
G1 F8640
G1 X102.02 Y87.964 E-1.33
;WIPE_END
G1 E-.07 F2100
G1 Z.5 F720
G1 X153.278 Y89.094 F10800
G1 Z.3 F720
G1 E1.4 F2100
M204 S800
;TYPE:Solid infill
;WIDTH:0.421251
G1 F1200
G1 X152.716 Y88.532 E.03535
G1 X152.212 Y88.532 E.02246
G1 X153.118 Y89.439 E.05704
G1 X153.118 Y89.943 E.02246
G1 X151.707 Y88.532 E.08881
G1 X151.202 Y88.532 E.02246
G1 X153.118 Y90.448 E.12058
G1 X153.118 Y90.953 E.02246
G1 X150.697 Y88.532 E.15235
G1 X150.193 Y88.532 E.02246
G1 X153.118 Y91.457 E.18412
G1 X153.118 Y91.962 E.02246
G1 X149.688 Y88.532 E.21589
G1 X149.183 Y88.532 E.02246
G1 X153.118 Y92.467 E.24766
G1 X153.118 Y92.971 E.02246
G1 X148.679 Y88.532 E.27943
G1 X148.174 Y88.532 E.02246
G1 X153.118 Y93.476 E.3112
G1 X153.118 Y93.981 E.02246
M73 P1 R66
M73 Q1 S67
G1 X147.669 Y88.532 E.34296
G1 X147.165 Y88.532 E.02246
G1 X153.118 Y94.485 E.37473
G1 X153.118 Y94.99 E.02246
G1 X146.66 Y88.532 E.4065
G1 X146.155 Y88.532 E.02246
G1 X153.118 Y95.495 E.43827
G1 X153.118 Y95.999 E.02246
G1 X145.651 Y88.532 E.47004
G1 X145.146 Y88.532 E.02246
G1 X153.118 Y96.504 E.50181
G1 X153.118 Y97.009 E.02246
G1 X144.641 Y88.532 E.53358
G1 X144.136 Y88.532 E.02246
G1 X153.118 Y97.514 E.56535
G1 X153.118 Y98.018 E.02246
G1 X143.632 Y88.532 E.59712
G1 X143.127 Y88.532 E.02246
G1 X153.118 Y98.523 E.62889
G1 X153.118 Y99.028 E.02246
G1 X142.622 Y88.532 E.66066
G1 X142.118 Y88.532 E.02246
G1 X153.118 Y99.532 E.69242
G1 X153.118 Y100.037 E.02246
G1 X141.613 Y88.532 E.72419
G1 X141.108 Y88.532 E.02246
G1 X153.118 Y100.542 E.75596
G1 X153.118 Y101.046 E.02246
G1 X140.604 Y88.532 E.78773
G1 X140.099 Y88.532 E.02246
G1 X153.118 Y101.551 E.8195
G1 X153.118 Y102.056 E.02246
G1 X139.594 Y88.532 E.85127
G1 X139.09 Y88.532 E.02246
G1 X153.118 Y102.56 E.88304
G1 X153.118 Y103.065 E.02246
G1 X138.585 Y88.532 E.91481
G1 X138.08 Y88.532 E.02246
G1 X153.118 Y103.57 E.94658
G1 X153.118 Y104.075 E.02246
G1 X137.575 Y88.532 E.97835
G1 X137.071 Y88.532 E.02246
G1 X153.118 Y104.579 E1.01012
G1 X153.118 Y105.084 E.02246
G1 X136.566 Y88.532 E1.04189
G1 X136.061 Y88.532 E.02246
G1 X153.118 Y105.589 E1.07365
G1 X153.118 Y106.093 E.02246
G1 X135.557 Y88.532 E1.10542
G1 X135.052 Y88.532 E.02246
G1 X153.118 Y106.598 E1.13719
G1 X153.118 Y107.103 E.02246
G1 X134.547 Y88.532 E1.16896
G1 X134.043 Y88.532 E.02246
G1 X153.118 Y107.607 E1.20073
G1 X153.118 Y108.112 E.02246
G1 X133.538 Y88.532 E1.2325
G1 X133.033 Y88.532 E.02246
G1 X153.118 Y108.617 E1.26427
G1 X153.118 Y109.121 E.02246
G1 X132.529 Y88.532 E1.29604
G1 X132.024 Y88.532 E.02246
G1 X153.118 Y109.626 E1.32781
G1 X153.118 Y110.131 E.02246
M73 Q1 S66
G1 X131.519 Y88.532 E1.35958
G1 X131.015 Y88.532 E.02246
G1 X153.118 Y110.635 E1.39135
G1 X153.118 Y111.14 E.02246
G1 X130.51 Y88.532 E1.42311
G1 X130.005 Y88.532 E.02246
G1 X153.118 Y111.645 E1.45488
G1 X153.118 Y112.15 E.02246
G1 X129.5 Y88.532 E1.48665
G1 X128.996 Y88.532 E.02246
M73 P1 R65
G1 X153.118 Y112.654 E1.51842
G1 X153.118 Y113.159 E.02246
M73 P2 R65
M73 Q2 S66
G1 X128.491 Y88.532 E1.55019
G1 X127.986 Y88.532 E.02246
G1 X153.118 Y113.664 E1.58196
G1 X153.118 Y114.168 E.02246
G1 X127.482 Y88.532 E1.61373
G1 X126.977 Y88.532 E.02246
G1 X153.118 Y114.673 E1.6455
G1 X153.118 Y115.178 E.02246
G1 X126.472 Y88.532 E1.67727
G1 X125.968 Y88.532 E.02246
G1 X153.118 Y115.682 E1.70904
G1 X153.118 Y116.187 E.02246
G1 X125.463 Y88.532 E1.74081
G1 X124.958 Y88.532 E.02246
G1 X153.118 Y116.692 E1.77258
G1 X153.118 Y117.196 E.02246
G1 X124.454 Y88.532 E1.80434
G1 X123.949 Y88.532 E.02246
G1 X153.118 Y117.701 E1.83611
G1 X153.118 Y118.206 E.02246
G1 X123.444 Y88.532 E1.86788
G1 X122.939 Y88.532 E.02246
G1 X153.118 Y118.711 E1.89965
G1 X153.118 Y119.215 E.02246
G1 X122.435 Y88.532 E1.93142
G1 X121.93 Y88.532 E.02246
G1 X153.118 Y119.72 E1.96319
G1 X153.118 Y120.225 E.02246
G1 X121.425 Y88.532 E1.99496
G1 X120.921 Y88.532 E.02246
G1 X153.118 Y120.729 E2.02673
G1 X153.118 Y121.234 E.02246
G1 X120.416 Y88.532 E2.0585
G1 X119.911 Y88.532 E.02246
G1 X153.118 Y121.739 E2.09027
G1 X153.118 Y122.243 E.02246
G1 X119.407 Y88.532 E2.12204
G1 X118.902 Y88.532 E.02246
M73 P3 R65
G1 X153.118 Y122.748 E2.1538
G1 X153.118 Y123.253 E.02246
M73 Q3 S66
G1 X118.397 Y88.532 E2.18557
G1 X117.893 Y88.532 E.02246
G1 X153.118 Y123.757 E2.21734
G1 X153.118 Y124.262 E.02246
G1 X117.388 Y88.532 E2.24911
G1 X116.883 Y88.532 E.02246
M73 Q3 S65
G1 X153.118 Y124.767 E2.28088
G1 X153.118 Y125.272 E.02246
G1 X116.378 Y88.532 E2.31265
G1 X115.874 Y88.532 E.02246
G1 X153.118 Y125.776 E2.34442
G1 X153.118 Y126.281 E.02246
M73 P3 R64
G1 X115.369 Y88.532 E2.37619
G1 X114.864 Y88.532 E.02246
G1 X152.8 Y126.468 E2.38795
G1 X152.295 Y126.468 E.02246
G1 X114.36 Y88.532 E2.38795
G1 X113.855 Y88.532 E.02246
G1 X151.79 Y126.468 E2.38795
G1 X151.286 Y126.468 E.02246
G1 X113.35 Y88.532 E2.38795
G1 X112.846 Y88.532 E.02246
G1 X150.781 Y126.468 E2.38795
G1 X150.276 Y126.468 E.02246
G1 X112.341 Y88.532 E2.38795
G1 X111.836 Y88.532 E.02246
G1 X149.772 Y126.468 E2.38795
G1 X149.267 Y126.468 E.02246
G1 X111.332 Y88.532 E2.38795
G1 X110.827 Y88.532 E.02246
M73 P4 R64
M73 Q4 S65
G1 X148.762 Y126.468 E2.38795
G1 X148.258 Y126.468 E.02246
G1 X110.322 Y88.532 E2.38795
G1 X109.818 Y88.532 E.02246
G1 X147.753 Y126.468 E2.38795
G1 X147.248 Y126.468 E.02246
G1 X109.313 Y88.532 E2.38795
G1 X108.808 Y88.532 E.02246
G1 X146.743 Y126.468 E2.38795
G1 X146.239 Y126.468 E.02246
G1 X108.303 Y88.532 E2.38795
G1 X107.799 Y88.532 E.02246
G1 X145.734 Y126.468 E2.38795
G1 X145.229 Y126.468 E.02246
G1 X107.294 Y88.532 E2.38795
G1 X106.789 Y88.532 E.02246
G1 X144.725 Y126.468 E2.38795
G1 X144.22 Y126.468 E.02246
G1 X106.285 Y88.532 E2.38795
G1 X105.78 Y88.532 E.02246
M73 Q4 S64
G1 X143.715 Y126.468 E2.38795
G1 X143.211 Y126.468 E.02246
G1 X105.275 Y88.532 E2.38795
G1 X104.771 Y88.532 E.02246
G1 X142.706 Y126.468 E2.38795
G1 X142.201 Y126.468 E.02246
G1 X104.266 Y88.532 E2.38795
G1 X103.761 Y88.532 E.02246
M73 P5 R63
G1 X141.697 Y126.468 E2.38795
G1 X141.192 Y126.468 E.02246
M73 Q5 S64
G1 X103.257 Y88.532 E2.38795
G1 X102.752 Y88.532 E.02246
G1 X140.687 Y126.468 E2.38795
G1 X140.183 Y126.468 E.02246
G1 X102.247 Y88.532 E2.38795
G1 X101.742 Y88.532 E.02246
G1 X139.678 Y126.468 E2.38795
G1 X139.173 Y126.468 E.02246
G1 X101.238 Y88.532 E2.38795
G1 X100.733 Y88.532 E.02246
G1 X138.668 Y126.468 E2.38795
G1 X138.164 Y126.468 E.02246
G1 X100.228 Y88.532 E2.38795
G1 X99.724 Y88.532 E.02246
G1 X137.659 Y126.468 E2.38795
G1 X137.154 Y126.468 E.02246
G1 X99.219 Y88.532 E2.38795
G1 X98.714 Y88.532 E.02246
G1 X136.65 Y126.468 E2.38795
G1 X136.145 Y126.468 E.02246
G1 X98.21 Y88.532 E2.38795
G1 X97.705 Y88.532 E.02246
G1 X135.64 Y126.468 E2.38795
G1 X135.136 Y126.468 E.02246
G1 X97.2 Y88.532 E2.38795
G1 X96.882 Y88.532 E.01415
G1 X96.882 Y88.719 E.00831
G1 X134.631 Y126.468 E2.37619
G1 X134.126 Y126.468 E.02246
M73 P6 R63
G1 X96.882 Y89.224 E2.34442
G1 X96.882 Y89.728 E.02246
M73 Q6 S64
G1 X133.622 Y126.468 E2.31265
G1 X133.117 Y126.468 E.02246
G1 X96.882 Y90.233 E2.28088
G1 X96.882 Y90.738 E.02246
G1 X132.612 Y126.468 E2.24911
G1 X132.107 Y126.468 E.02246
M73 Q6 S63
G1 X96.882 Y91.243 E2.21734
G1 X96.882 Y91.747 E.02246
G1 X131.603 Y126.468 E2.18557
G1 X131.098 Y126.468 E.02246
G1 X96.882 Y92.252 E2.15381
G1 X96.882 Y92.757 E.02246
M73 P6 R62
G1 X130.593 Y126.468 E2.12204
G1 X130.089 Y126.468 E.02246
G1 X96.882 Y93.261 E2.09027
G1 X96.882 Y93.766 E.02246
G1 X129.584 Y126.468 E2.0585
G1 X129.079 Y126.468 E.02246
G1 X96.882 Y94.271 E2.02673
G1 X96.882 Y94.775 E.02246
G1 X128.575 Y126.468 E1.99496
G1 X128.07 Y126.468 E.02246
G1 X96.882 Y95.28 E1.96319
G1 X96.882 Y95.785 E.02246
G1 X127.565 Y126.468 E1.93142
G1 X127.061 Y126.468 E.02246
G1 X96.882 Y96.289 E1.89965
G1 X96.882 Y96.794 E.02246
G1 X126.556 Y126.468 E1.86788
G1 X126.051 Y126.468 E.02246
G1 X96.882 Y97.299 E1.83611
G1 X96.882 Y97.804 E.02246
M73 P7 R62
G1 X125.546 Y126.468 E1.80435
G1 X125.042 Y126.468 E.02246
G1 X96.882 Y98.308 E1.77258
G1 X96.882 Y98.813 E.02246
M73 Q7 S63
G1 X124.537 Y126.468 E1.74081
G1 X124.032 Y126.468 E.02246
G1 X96.882 Y99.318 E1.70904
G1 X96.882 Y99.822 E.02246
G1 X123.528 Y126.468 E1.67727
G1 X123.023 Y126.468 E.02246
G1 X96.882 Y100.327 E1.6455
G1 X96.882 Y100.832 E.02246
G1 X122.518 Y126.468 E1.61373
G1 X122.014 Y126.468 E.02246
G1 X96.882 Y101.336 E1.58196
G1 X96.882 Y101.841 E.02246
G1 X121.509 Y126.468 E1.55019
G1 X121.004 Y126.468 E.02246
G1 X96.882 Y102.346 E1.51842
G1 X96.882 Y102.85 E.02246
G1 X120.5 Y126.468 E1.48665
G1 X119.995 Y126.468 E.02246
G1 X96.882 Y103.355 E1.45488
G1 X96.882 Y103.86 E.02246
G1 X119.49 Y126.468 E1.42312
G1 X118.986 Y126.468 E.02246
G1 X96.882 Y104.364 E1.39135
G1 X96.882 Y104.869 E.02246
G1 X118.481 Y126.468 E1.35958
G1 X117.976 Y126.468 E.02246
G1 X96.882 Y105.374 E1.32781
G1 X96.882 Y105.879 E.02246
M73 Q7 S62
G1 X117.471 Y126.468 E1.29604
G1 X116.967 Y126.468 E.02246
G1 X96.882 Y106.383 E1.26427
G1 X96.882 Y106.888 E.02246
G1 X116.462 Y126.468 E1.2325
G1 X115.957 Y126.468 E.02246
G1 X96.882 Y107.393 E1.20073
G1 X96.882 Y107.897 E.02246
G1 X115.453 Y126.468 E1.16896
G1 X114.948 Y126.468 E.02246
G1 X96.882 Y108.402 E1.13719
G1 X96.882 Y108.907 E.02246
M73 P7 R61
G1 X114.443 Y126.468 E1.10542
G1 X113.939 Y126.468 E.02246
G1 X96.882 Y109.411 E1.07366
G1 X96.882 Y109.916 E.02246
M73 P8 R61
G1 X113.434 Y126.468 E1.04189
G1 X112.929 Y126.468 E.02246
G1 X96.882 Y110.421 E1.01012
G1 X96.882 Y110.925 E.02246
G1 X112.425 Y126.468 E.97835
G1 X111.92 Y126.468 E.02246
G1 X96.882 Y111.43 E.94658
M73 Q8 S62
G1 X96.882 Y111.935 E.02246
G1 X111.415 Y126.468 E.91481
G1 X110.91 Y126.468 E.02246
G1 X96.882 Y112.44 E.88304
G1 X96.882 Y112.944 E.02246
G1 X110.406 Y126.468 E.85127
G1 X109.901 Y126.468 E.02246
G1 X96.882 Y113.449 E.8195
G1 X96.882 Y113.954 E.02246
G1 X109.396 Y126.468 E.78773
G1 X108.892 Y126.468 E.02246
G1 X96.882 Y114.458 E.75596
G1 X96.882 Y114.963 E.02246
G1 X108.387 Y126.468 E.72419
G1 X107.882 Y126.468 E.02246
G1 X96.882 Y115.468 E.69243
G1 X96.882 Y115.972 E.02246
G1 X107.378 Y126.468 E.66066
G1 X106.873 Y126.468 E.02246
G1 X96.882 Y116.477 E.62889
G1 X96.882 Y116.982 E.02246
G1 X106.368 Y126.468 E.59712
G1 X105.864 Y126.468 E.02246
G1 X96.882 Y117.486 E.56535
G1 X96.882 Y117.991 E.02246
G1 X105.359 Y126.468 E.53358
G1 X104.854 Y126.468 E.02246
G1 X96.882 Y118.496 E.50181
G1 X96.882 Y119.001 E.02246
G1 X104.349 Y126.468 E.47004
G1 X103.845 Y126.468 E.02246
G1 X96.882 Y119.505 E.43827
G1 X96.882 Y120.01 E.02246
G1 X103.34 Y126.468 E.4065
G1 X102.835 Y126.468 E.02246
G1 X96.882 Y120.515 E.37473
G1 X96.882 Y121.019 E.02246
G1 X102.331 Y126.468 E.34297
G1 X101.826 Y126.468 E.02246
G1 X96.882 Y121.524 E.3112
G1 X96.882 Y122.029 E.02246
G1 X101.321 Y126.468 E.27943
G1 X100.817 Y126.468 E.02246
G1 X96.882 Y122.533 E.24766
G1 X96.882 Y123.038 E.02246
G1 X100.312 Y126.468 E.21589
G1 X99.807 Y126.468 E.02246
G1 X96.882 Y123.543 E.18412
G1 X96.882 Y124.047 E.02246
G1 X99.303 Y126.468 E.15235
G1 X98.798 Y126.468 E.02246
G1 X96.882 Y124.552 E.12058
G1 X96.882 Y125.057 E.02246
G1 X98.293 Y126.468 E.08881
G1 X97.789 Y126.468 E.02246
G1 X96.882 Y125.561 E.05704
G1 X96.882 Y126.066 E.02246
G1 X97.444 Y126.628 E.03535
M204 S1000
; stop printing object 2R_footJoint-Body.stl id:0 copy 0
;LAYER_CHANGE
;Z:0.6
;HEIGHT:0.3
;BEFORE_LAYER_CHANGE
G92 E0.0
;0.6


;WIPE_START
G1 F8640
G1 X96.882 Y126.066 E-.18337
G1 X96.882 Y125.561 E-.11653
G1 X97.789 Y126.468 E-.29591
G1 X98.293 Y126.468 E-.11653
G1 X96.882 Y125.057 E-.46072
G1 X96.882 Y124.552 E-.11653
G1 X97.006 Y124.676 E-.0404
;WIPE_END
G1 E-.07 F2100
G1 Z.5 F720
G1 Z.6
;AFTER_LAYER_CHANGE
;0.6
M140 S90 ; set bed temperature
G1 Z.8
G1 X93.494 Y124.676 F10800
G1 Z.6 F720
G1 E1.4 F2100
;TYPE:Skirt/Brim
;WIDTH:0.42
G1 F2700
G1 X93.494 Y87.5 E1.64893
G1 X93.886 Y86.2 E.06024
G1 X94.93 Y85.331 E.06024
G1 X95.85 Y85.144 E.04163
G1 X154.15 Y85.144 E2.58589
G1 X155.45 Y85.536 E.06024
G1 X156.319 Y86.58 E.06024
G1 X156.506 Y87.5 E.04163
G1 X156.506 Y127.5 E1.77419
G1 X156.114 Y128.8 E.06024
G1 X155.07 Y129.669 E.06024
G1 X154.15 Y129.856 E.04163
G1 X95.85 Y129.856 E2.58589
G1 X94.55 Y129.464 E.06024
G1 X93.681 Y128.42 E.06024
G1 X93.494 Y127.5 E.04163
G1 X93.494 Y124.736 E.12261
; printing object 2R_footJoint-Body.stl id:0 copy 0
;WIPE_START
G1 F8640
G1 X93.494 Y118.976 E-1.33
;WIPE_END
G1 E-.07 F2100
G1 Z.8 F720
G1 X96.636 Y126.714 F10800
G1 Z.6 F720
G1 E1.4 F2100
M204 S800
;TYPE:Perimeter
;WIDTH:0.5
G1 F3000
G1 X96.636 Y88.286 E2.08794
G1 X153.364 Y88.286 E3.08224
G1 X153.364 Y126.714 E2.08794
G1 X96.696 Y126.714 E3.07898
M204 S1000
G1 X96.15 Y127.2 F10800
M204 S800
;TYPE:External perimeter
;WIDTH:0.6
G1 F2100
G1 X96.15 Y87.8 E2.63213
G1 X153.85 Y87.8 E3.85467
G1 X153.85 Y127.2 E2.63213
G1 X96.21 Y127.2 E3.85066
M204 S1000
G1 X96.277 Y126.821 F10800
;WIPE_START
G1 F8640
G1 X96.201 Y121.44 E-1.33
;WIPE_END
G1 E-.07 F2100
G1 Z.8 F720
G1 X152.349 Y126.584 F10800
G1 Z.6 F720
G1 E1.4 F2100
;TYPE:Solid infill
;WIDTH:0.502148
G1 F3654.912
G1 X153.038 Y125.895 E.05321
G1 X153.038 Y125.275 E.0338
G1 X151.925 Y126.388 E.08588
G1 X151.306 Y126.388 E.0338
G1 X153.038 Y124.656 E.13369
G1 X153.038 Y124.037 E.0338
G1 X150.687 Y126.388 E.18149
G1 X150.068 Y126.388 E.0338
G1 X153.038 Y123.418 E.22929
G1 X153.038 Y122.799 E.0338
G1 X149.449 Y126.388 E.2771
