; generated by PrusaSlicer 2.5.0 on 2023-03-09 at 10:48:42 UTC


;
;
; 

; external perimeters extrusion width = 0.60mm
; perimeters extrusion width = 0.50mm
; infill extrusion width = 0.50mm
; solid infill extrusion width = 0.50mm
; top infill extrusion width = 0.45mm
; support material extrusion width = 0.38mm
; first layer extrusion width = 0.42mm

; external perimeters extrusion width = 0.60mm
; perimeters extrusion width = 0.50mm
; infill extrusion width = 0.50mm
; solid infill extrusion width = 0.50mm
; top infill extrusion width = 0.45mm
; support material extrusion width = 0.38mm
; first layer extrusion width = 0.42mm

; external perimeters extrusion width = 0.60mm
; perimeters extrusion width = 0.50mm
; infill extrusion width = 0.50mm
; solid infill extrusion width = 0.50mm
; top infill extrusion width = 0.45mm
; support material extrusion width = 0.38mm
; first layer extrusion width = 0.42mm

; external perimeters extrusion width = 0.60mm
; perimeters extrusion width = 0.50mm
; infill extrusion width = 0.50mm
; solid infill extrusion width = 0.50mm
; top infill extrusion width = 0.45mm
; support material extrusion width = 0.38mm
; first layer extrusion width = 0.42mm

M73 P0 R31
M73 Q0 S31
M201 X1000 Y1000 Z200 E5000 ; sets maximum accelerations, mm/sec^2
M203 X200 Y200 Z12 E120 ; sets maximum feedrates, mm / sec
M204 P1250 R1250 T1250 ; sets acceleration (P, T) and retract acceleration (R), mm/sec^2
M205 X8.00 Y8.00 Z0.40 E4.50 ; sets the jerk limits, mm/sec
M205 S0 T0 ; sets the minimum extruding and travel feed rate, mm/sec
M107 ; disable fan
;TYPE:Custom
M862.3 P "MK3S" ; printer model check
M862.1 P0.4 ; nozzle diameter check
M115 U3.11.0 ; tell printer latest fw version
G90 ; use absolute coordinates
M83 ; extruder relative mode
M104 S240 ; set extruder temp
M140 S95 ; set bed temp
M190 S95 ; wait for bed temp
M109 S240 ; wait for extruder temp
G28 W ; home all without mesh bed level
G80 ; mesh bed leveling

G1 Z0.2 F720
G1 Y-3 F1000 ; go outside print area
G92 E0
G1 X60 E9 F1000 ; intro line
G1 X100 E12.5 F1000 ; intro line

G92 E0
M221 S95

; Don't change E values below. Excessive value can damage the printer.

M907 E538 ; set extruder motor current
G21 ; set units to millimeters
G90 ; use absolute coordinates
M83 ; use relative distances for extrusion
M900 K0.08 ; Filament gcode LA 1.5
M900 K45 ; Filament gcode LA 1.0
M107 ; disable fan
;LAYER_CHANGE
;Z:0.3
;HEIGHT:0.3
;BEFORE_LAYER_CHANGE
G92 E0.0
;0.3


G1 E-1.4 F2100 ; retract
G1 Z.2 F720 ; lift Z
G1 Z.3 ; move to next layer (0)
;AFTER_LAYER_CHANGE
;0.3
G1 Z.5 ; lift Z
G1 X106.85 Y84.62 F10800 ; move to first skirt point
G1 Z.3 F720 ; restore layer Z
G1 E1.4 F2100 ;  ; unretract
M204 S800 ; adjust acceleration
;TYPE:Skirt/Brim
;WIDTH:0.42
G1 F1200
G1 X107.894 Y83.752 E.06024 ; skirt
G1 X108.814 Y83.565 E.04163 ; skirt
G1 X124.142 Y83.571 E.67987 ; skirt
G1 X155.065 Y85.809 E1.37515 ; skirt
G1 X176.608 Y90.824 E.9811 ; skirt
G1 X177.785 Y91.502 E.06024 ; skirt
G1 X178.426 Y93.118 E.07711 ; skirt
G1 X178.426 Y117.118 E1.06452 ; skirt
G1 X178.035 Y118.418 E.06024 ; skirt
G1 X176.99 Y119.287 E.06024 ; skirt
G1 X176.071 Y119.474 E.04163 ; skirt
G1 X156.058 Y119.474 E.88768 ; skirt
G1 X134.987 Y119.356 E.9346 ; skirt
G1 X134.007 Y119.136 E.04452 ; skirt
G1 X110.4 Y108.167 E1.1546 ; skirt
G1 X109.203 Y106.898 E.0774 ; skirt
G1 X106.624 Y100.383 E.31079 ; skirt
G1 X106.458 Y99.516 E.03915 ; skirt
G1 X106.458 Y85.92 E.60301 ; skirt
G1 X106.833 Y84.677 E.05758 ; skirt
M204 S1000 ; adjust acceleration
; printing object bearing_outer_test-Body.stl id:2 copy 0
;WIPE_START
G1 F8640
G1 X107.894 Y83.752 E-.32524 ; wipe and retract
G1 X108.814 Y83.565 E-.21671 ; wipe and retract
G1 X112.227 Y83.566 E-.78805 ; wipe and retract
;WIPE_END
G1 E-.07 F2100 ; retract
G1 Z.5 F720 ; lift Z
G1 X156.836 Y93.884 F10800 ; move to first perimeter point
G1 Z.3 F720 ; restore layer Z
G1 E1.4 F2100 ;  ; unretract
M204 S800 ; adjust acceleration
;TYPE:Perimeter
;WIDTH:0.42
G1 F1200
G1 X175.305 Y93.884 E.81918 ; perimeter
G1 X175.305 Y116.352 E.9966 ; perimeter
G1 X156.836 Y116.352 E.81918 ; perimeter
M73 P1 R31
M73 Q1 S31
G1 X156.836 Y93.944 E.99394 ; perimeter
M204 S1000 ; adjust acceleration
G1 X156.481 Y93.528 F10800 ; move to first perimeter point
M204 S800 ; adjust acceleration
;TYPE:External perimeter
G1 F1200
G1 X175.661 Y93.528 E.85072 ; perimeter
G1 X175.661 Y116.708 E1.02814 ; perimeter
G1 X156.481 Y116.708 E.85072 ; perimeter
G1 X156.481 Y93.588 E1.02548 ; perimeter
M204 S1000 ; adjust acceleration
G1 X156.864 Y93.644 F10800 ; move inwards before travel
;WIPE_START
G1 F8640
G1 X162.241 Y93.57 E-1.33 ; wipe and retract
;WIPE_END
G1 E-.07 F2100 ; retract
G1 Z.5 F720 ; lift Z
G1 X175.198 Y94.716 F10800 ; move to first infill point
G1 Z.3 F720 ; restore layer Z
G1 E1.4 F2100 ;  ; unretract
M204 S800 ; adjust acceleration
;TYPE:Solid infill
;WIDTH:0.423078
G1 F1200
G1 X174.633 Y94.15 E.03577 ; infill
G1 X174.126 Y94.15 E.02269 ; infill
G1 X175.038 Y95.063 E.05774 ; infill
G1 X175.038 Y95.57 E.02269 ; infill
G1 X173.619 Y94.15 E.08984 ; infill
G1 X173.111 Y94.15 E.02269 ; infill
G1 X175.038 Y96.077 E.12193 ; infill
G1 X175.038 Y96.585 E.02269 ; infill
G1 X172.604 Y94.15 E.15403 ; infill
G1 X172.097 Y94.15 E.02269 ; infill
G1 X175.038 Y97.092 E.18612 ; infill
G1 X175.038 Y97.599 E.02269 ; infill
G1 X171.589 Y94.15 E.21822 ; infill
G1 X171.082 Y94.15 E.02269 ; infill
G1 X175.038 Y98.107 E.25031 ; infill
G1 X175.038 Y98.614 E.02269 ; infill
G1 X170.575 Y94.15 E.28241 ; infill
G1 X170.068 Y94.15 E.02269 ; infill
G1 X175.038 Y99.121 E.3145 ; infill
G1 X175.038 Y99.628 E.02269 ; infill
G1 X169.56 Y94.15 E.3466 ; infill
G1 X169.053 Y94.15 E.02269 ; infill
G1 X175.038 Y100.136 E.3787 ; infill
G1 X175.038 Y100.643 E.02269 ; infill
G1 X168.546 Y94.15 E.41079 ; infill
G1 X168.039 Y94.15 E.02269 ; infill
G1 X175.038 Y101.15 E.44289 ; infill
G1 X175.038 Y101.657 E.02269 ; infill
G1 X167.531 Y94.15 E.47498 ; infill
G1 X167.024 Y94.15 E.02269 ; infill
G1 X175.038 Y102.165 E.50708 ; infill
G1 X175.038 Y102.672 E.02269 ; infill
G1 X166.517 Y94.15 E.53917 ; infill
G1 X166.009 Y94.15 E.02269 ; infill
G1 X175.038 Y103.179 E.57127 ; infill
G1 X175.038 Y103.687 E.02269 ; infill
G1 X165.502 Y94.15 E.60336 ; infill
G1 X164.995 Y94.15 E.02269 ; infill
G1 X175.038 Y104.194 E.63546 ; infill
G1 X175.038 Y104.701 E.02269 ; infill
G1 X164.488 Y94.15 E.66755 ; infill
G1 X163.98 Y94.15 E.02269 ; infill
G1 X175.038 Y105.208 E.69965 ; infill
G1 X175.038 Y105.716 E.02269 ; infill
G1 X163.473 Y94.15 E.73174 ; infill
G1 X162.966 Y94.15 E.02269 ; infill
G1 X175.038 Y106.223 E.76384 ; infill
G1 X175.038 Y106.73 E.02269 ; infill
M73 Q2 S31
G1 X162.458 Y94.15 E.79593 ; infill
M73 P2 R31
G1 X161.951 Y94.15 E.02269 ; infill
G1 X175.038 Y107.237 E.82803 ; infill
G1 X175.038 Y107.745 E.02269 ; infill
G1 X161.444 Y94.15 E.86012 ; infill
G1 X160.937 Y94.15 E.02269 ; infill
G1 X175.038 Y108.252 E.89222 ; infill
G1 X175.038 Y108.759 E.02269 ; infill
G1 X160.429 Y94.15 E.92431 ; infill
G1 X159.922 Y94.15 E.02269 ; infill
G1 X175.038 Y109.267 E.95641 ; infill
G1 X175.038 Y109.774 E.02269 ; infill
G1 X159.415 Y94.15 E.9885 ; infill
M73 P2 R30
G1 X158.908 Y94.15 E.02269 ; infill
G1 X175.038 Y110.281 E1.0206 ; infill
G1 X175.038 Y110.788 E.02269 ; infill
G1 X158.4 Y94.15 E1.0527 ; infill
G1 X157.893 Y94.15 E.02269 ; infill
G1 X175.038 Y111.296 E1.08479 ; infill
G1 X175.038 Y111.803 E.02269 ; infill
G1 X157.386 Y94.15 E1.11689 ; infill
G1 X157.103 Y94.15 E.01265 ; infill
G1 X157.103 Y94.375 E.01005 ; infill
G1 X175.038 Y112.31 E1.13477 ; infill
G1 X175.038 Y112.817 E.02269 ; infill
G1 X157.103 Y94.882 E1.13477 ; infill
G1 X157.103 Y95.389 E.02269 ; infill
G1 X175.038 Y113.325 E1.13477 ; infill
G1 X175.038 Y113.832 E.02269 ; infill
M73 Q2 S30
G1 X157.103 Y95.897 E1.13477 ; infill
G1 X157.103 Y96.404 E.02269 ; infill
G1 X175.038 Y114.339 E1.13477 ; infill
G1 X175.038 Y114.847 E.02269 ; infill
G1 X157.103 Y96.911 E1.13477 ; infill
G1 X157.103 Y97.418 E.02269 ; infill
M73 P3 R30
M73 Q3 S30
G1 X175.038 Y115.354 E1.13477 ; infill
G1 X175.038 Y115.861 E.02269 ; infill
G1 X157.103 Y97.926 E1.13477 ; infill
G1 X157.103 Y98.433 E.02269 ; infill
G1 X174.756 Y116.086 E1.11688 ; infill
G1 X174.248 Y116.086 E.02269 ; infill
G1 X157.103 Y98.94 E1.08478 ; infill
G1 X157.103 Y99.448 E.02269 ; infill
G1 X173.741 Y116.086 E1.05269 ; infill
G1 X173.234 Y116.086 E.02269 ; infill
G1 X157.103 Y99.955 E1.02059 ; infill
G1 X157.103 Y100.462 E.02269 ; infill
G1 X172.727 Y116.086 E.9885 ; infill
G1 X172.219 Y116.086 E.02269 ; infill
G1 X157.103 Y100.969 E.9564 ; infill
G1 X157.103 Y101.477 E.02269 ; infill
G1 X171.712 Y116.086 E.92431 ; infill
G1 X171.205 Y116.086 E.02269 ; infill
G1 X157.103 Y101.984 E.89221 ; infill
G1 X157.103 Y102.491 E.02269 ; infill
G1 X170.697 Y116.086 E.86012 ; infill
G1 X170.19 Y116.086 E.02269 ; infill
G1 X157.103 Y102.999 E.82802 ; infill
G1 X157.103 Y103.506 E.02269 ; infill
G1 X169.683 Y116.086 E.79593 ; infill
G1 X169.176 Y116.086 E.02269 ; infill
G1 X157.103 Y104.013 E.76383 ; infill
G1 X157.103 Y104.52 E.02269 ; infill
G1 X168.668 Y116.086 E.73174 ; infill
G1 X168.161 Y116.086 E.02269 ; infill
G1 X157.103 Y105.028 E.69964 ; infill
G1 X157.103 Y105.535 E.02269 ; infill
G1 X167.654 Y116.086 E.66754 ; infill
G1 X167.147 Y116.086 E.02269 ; infill
M73 P4 R30
M73 Q4 S30
G1 X157.103 Y106.042 E.63545 ; infill
G1 X157.103 Y106.549 E.02269 ; infill
G1 X166.639 Y116.086 E.60335 ; infill
G1 X166.132 Y116.086 E.02269 ; infill
G1 X157.103 Y107.057 E.57126 ; infill
G1 X157.103 Y107.564 E.02269 ; infill
G1 X165.625 Y116.086 E.53916 ; infill
G1 X165.117 Y116.086 E.02269 ; infill
G1 X157.103 Y108.071 E.50707 ; infill
G1 X157.103 Y108.579 E.02269 ; infill
G1 X164.61 Y116.086 E.47497 ; infill
G1 X164.103 Y116.086 E.02269 ; infill
G1 X157.103 Y109.086 E.44288 ; infill
G1 X157.103 Y109.593 E.02269 ; infill
G1 X163.596 Y116.086 E.41078 ; infill
G1 X163.088 Y116.086 E.02269 ; infill
G1 X157.103 Y110.1 E.37869 ; infill
G1 X157.103 Y110.608 E.02269 ; infill
G1 X162.581 Y116.086 E.34659 ; infill
G1 X162.074 Y116.086 E.02269 ; infill
G1 X157.103 Y111.115 E.3145 ; infill
G1 X157.103 Y111.622 E.02269 ; infill
G1 X161.567 Y116.086 E.2824 ; infill
G1 X161.059 Y116.086 E.02269 ; infill
G1 X157.103 Y112.129 E.25031 ; infill
G1 X157.103 Y112.637 E.02269 ; infill
G1 X160.552 Y116.086 E.21821 ; infill
G1 X160.045 Y116.086 E.02269 ; infill
G1 X157.103 Y113.144 E.18612 ; infill
G1 X157.103 Y113.651 E.02269 ; infill
G1 X159.537 Y116.086 E.15402 ; infill
G1 X159.03 Y116.086 E.02269 ; infill
G1 X157.103 Y114.159 E.12193 ; infill
G1 X157.103 Y114.666 E.02269 ; infill
G1 X158.523 Y116.086 E.08983 ; infill
G1 X158.016 Y116.086 E.02269 ; infill
G1 X157.103 Y115.173 E.05773 ; infill
G1 X157.103 Y115.68 E.02269 ; infill
G1 X157.668 Y116.246 E.03576 ; infill
M204 S1000 ; adjust acceleration
; stop printing object bearing_outer_test-Body.stl id:2 copy 0
; printing object bearing_outer_test-Body.stl id:1 copy 0
;WIPE_START
G1 F8640
G1 X157.103 Y115.68 E-.18459 ; wipe and retract
G1 X157.103 Y115.173 E-.11713 ; wipe and retract
G1 X158.016 Y116.086 E-.29798 ; wipe and retract
G1 X158.523 Y116.086 E-.11713 ; wipe and retract
G1 X157.103 Y114.666 E-.46363 ; wipe and retract
G1 X157.103 Y114.159 E-.11713 ; wipe and retract
G1 X157.202 Y114.258 E-.03241 ; wipe and retract
;WIPE_END
G1 E-.07 F2100 ; retract
G1 Z.5 F720 ; lift Z
G1 X154.895 Y92.43 F10800 ; move to first support material point
G1 Z.3 F720 ; restore layer Z
G1 E1.4 F2100 ;  ; unretract
M204 S800 ; adjust acceleration
;TYPE:Support material
;WIDTH:0.42
G1 F1200
G1 X135.105 Y92.43 E.87774 ; support material
G1 X135.105 Y88.159 E.18946 ; support material
G1 X154.895 Y88.159 E.87774 ; support material
G1 X154.895 Y92.377 E.18709 ; support material
M204 S1000 ; adjust acceleration
G1 X154.483 Y92.27 F10800 ; move to first support material point
M204 S800 ; adjust acceleration
G1 F1200
G1 X154.483 Y88.479 E.16816 ; support material
G1 X154.088 Y88.479 E.01753 ; support material
G1 X154.088 Y92.11 E.16107 ; support material
G1 X153.693 Y92.11 E.01753 ; support material
G1 X153.693 Y88.479 E.16107 ; support material
G1 X153.298 Y88.479 E.01753 ; support material
G1 X153.298 Y92.11 E.16107 ; support material
G1 X152.903 Y92.11 E.01753 ; support material
G1 X152.903 Y88.479 E.16107 ; support material
G1 X152.508 Y88.479 E.01753 ; support material
G1 X152.508 Y92.11 E.16107 ; support material
G1 X152.112 Y92.11 E.01753 ; support material
G1 X152.112 Y88.479 E.16107 ; support material
G1 X151.717 Y88.479 E.01753 ; support material
G1 X151.717 Y92.11 E.16107 ; support material
G1 X151.322 Y92.11 E.01753 ; support material
G1 X151.322 Y88.479 E.16107 ; support material
G1 X150.927 Y88.479 E.01753 ; support material
G1 X150.927 Y92.11 E.16107 ; support material
G1 X150.532 Y92.11 E.01753 ; support material
G1 X150.532 Y88.479 E.16107 ; support material
G1 X150.137 Y88.479 E.01753 ; support material
G1 X150.137 Y92.11 E.16107 ; support material
G1 X149.742 Y92.11 E.01753 ; support material
G1 X149.742 Y88.479 E.16107 ; support material
G1 X149.346 Y88.479 E.01753 ; support material
G1 X149.346 Y92.11 E.16107 ; support material
G1 X148.951 Y92.11 E.01753 ; support material
G1 X148.951 Y88.479 E.16107 ; support material
G1 X148.556 Y88.479 E.01753 ; support material
G1 X148.556 Y92.11 E.16107 ; support material
G1 X148.161 Y92.11 E.01753 ; support material
G1 X148.161 Y88.479 E.16107 ; support material
G1 X147.766 Y88.479 E.01753 ; support material
G1 X147.766 Y92.11 E.16107 ; support material
G1 X147.371 Y92.11 E.01753 ; support material
G1 X147.371 Y88.479 E.16107 ; support material
G1 X146.976 Y88.479 E.01753 ; support material
G1 X146.976 Y92.11 E.16107 ; support material
G1 X146.581 Y92.11 E.01753 ; support material
G1 X146.581 Y88.479 E.16107 ; support material
G1 X146.185 Y88.479 E.01753 ; support material
G1 X146.185 Y92.11 E.16107 ; support material
G1 X145.79 Y92.11 E.01753 ; support material
G1 X145.79 Y88.479 E.16107 ; support material
G1 X145.395 Y88.479 E.01753 ; support material
G1 X145.395 Y92.11 E.16107 ; support material
G1 X145 Y92.11 E.01753 ; support material
G1 X145 Y88.479 E.16107 ; support material
G1 X144.605 Y88.479 E.01753 ; support material
G1 X144.605 Y92.11 E.16107 ; support material
G1 X144.21 Y92.11 E.01753 ; support material
G1 X144.21 Y88.479 E.16107 ; support material
G1 X143.815 Y88.479 E.01753 ; support material
G1 X143.815 Y92.11 E.16107 ; support material
G1 X143.419 Y92.11 E.01753 ; support material
G1 X143.419 Y88.479 E.16107 ; support material
G1 X143.024 Y88.479 E.01753 ; support material
G1 X143.024 Y92.11 E.16107 ; support material
G1 X142.629 Y92.11 E.01753 ; support material
G1 X142.629 Y88.479 E.16107 ; support material
G1 X142.234 Y88.479 E.01753 ; support material
G1 X142.234 Y92.11 E.16107 ; support material
G1 X141.839 Y92.11 E.01753 ; support material
G1 X141.839 Y88.479 E.16107 ; support material
G1 X141.444 Y88.479 E.01753 ; support material
G1 X141.444 Y92.11 E.16107 ; support material
G1 X141.049 Y92.11 E.01753 ; support material
G1 X141.049 Y88.479 E.16107 ; support material
G1 X140.654 Y88.479 E.01753 ; support material
M73 P5 R30
M73 Q5 S30
G1 X140.654 Y92.11 E.16107 ; support material
G1 X140.258 Y92.11 E.01753 ; support material
G1 X140.258 Y88.479 E.16107 ; support material
G1 X139.863 Y88.479 E.01753 ; support material
G1 X139.863 Y92.11 E.16107 ; support material
G1 X139.468 Y92.11 E.01753 ; support material
G1 X139.468 Y88.479 E.16107 ; support material
G1 X139.073 Y88.479 E.01753 ; support material
G1 X139.073 Y92.11 E.16107 ; support material
G1 X138.678 Y92.11 E.01753 ; support material
G1 X138.678 Y88.479 E.16107 ; support material
G1 X138.283 Y88.479 E.01753 ; support material
G1 X138.283 Y92.11 E.16107 ; support material
G1 X137.888 Y92.11 E.01753 ; support material
G1 X137.888 Y88.479 E.16107 ; support material
G1 X137.492 Y88.479 E.01753 ; support material
G1 X137.492 Y92.11 E.16107 ; support material
