; generated by PrusaSlicer 2.4.2 on 2022-09-07 at 17:10:34 UTC

; 

; external perimeters extrusion width = 0.60mm
; perimeters extrusion width = 0.50mm
; infill extrusion width = 0.50mm
; solid infill extrusion width = 0.50mm
; top infill extrusion width = 0.45mm
; support material extrusion width = 0.38mm
; first layer extrusion width = 0.42mm

M73 P0 R55
M73 Q0 S55
M201 X1000 Y1000 Z200 E5000 ; sets maximum accelerations, mm/sec^2
M203 X200 Y200 Z12 E120 ; sets maximum feedrates, mm / sec
M204 P1250 R1250 T1250 ; sets acceleration (P, T) and retract acceleration (R), mm/sec^2
M205 X8.00 Y8.00 Z0.40 E4.50 ; sets the jerk limits, mm/sec
M205 S0 T0 ; sets the minimum extruding and travel feed rate, mm/sec
M107
;TYPE:Custom
M862.3 P "MK3S" ; printer model check
M862.1 P0.4 ; nozzle diameter check
M115 U3.10.1 ; tell printer latest fw version
G90 ; use absolute coordinates
M83 ; extruder relative mode
M104 S240 ; set extruder temp
M140 S95 ; set bed temp
M190 S95 ; wait for bed temp
M109 S240 ; wait for extruder temp
G28 W ; home all without mesh bed level
G80 ; mesh bed leveling
G1 Z0.2 F720
G1 Y-3 F1000 ; go outside print area
G92 E0
G1 X60 E9 F1000 ; intro line
G1 X100 E12.5 F1000 ; intro line
G92 E0
M221 S95

; Don't change E values below. Excessive value can damage the printer.

M907 E538 ; set extruder motor current
G21 ; set units to millimeters
G90 ; use absolute coordinates
M83 ; use relative distances for extrusion
M900 K0.08 ; Filament gcode LA 1.5
M900 K45 ; Filament gcode LA 1.0
M107
;LAYER_CHANGE
;Z:0.3
;HEIGHT:0.3
;BEFORE_LAYER_CHANGE
G92 E0.0
;0.3


G1 E-1.4 F2100
G1 Z.2 F720
G1 Z.3
;AFTER_LAYER_CHANGE
;0.3
G1 Z.5
G1 X78.407 Y82.227 F10800
G1 Z.3 F720
G1 E1.4 F2100
M204 S800
;TYPE:Skirt/Brim
;WIDTH:0.42
G1 F1200
G1 X80.111 Y81.186 E.08856
G1 X142.633 Y74.239 E2.79021
G1 X155.735 Y74.225 E.58116
G1 X157.37 Y74.884 E.07818
G1 X167.663 Y84.804 E.63404
G1 X168.384 Y86.5 E.08175
G1 X168.384 Y126.5 E1.77419
G1 X167.992 Y127.8 E.06024
G1 X166.324 Y128.837 E.0871
G1 X111.719 Y135.756 E2.44137
G1 X80.371 Y135.775 E1.39042
G1 X79.071 Y135.384 E.06024
G1 X78.202 Y134.339 E.06024
G1 X78.016 Y133.42 E.04163
G1 X78.016 Y83.527 E2.21296
G1 X78.39 Y82.284 E.05758
M204 S1000
; printing object 3B_calf-Body.stl id:0 copy 0
;WIPE_START
G1 F8640
G1 X80.111 Y81.186 E-.47145
G1 X83.806 Y80.776 E-.85855
;WIPE_END
G1 E-.07 F2100
G1 Z.5 F720
G1 X108.791 Y86.897 F10800
G1 Z.3 F720
G1 E1.4 F2100
M204 S800
;TYPE:Support material interface
;WIDTH:0.38
G1 F1200
G1 X108.791 Y86.475 E.01662
G1 X109.016 Y86.475 E.00886
G1 X109.016 Y88.791 E.09116
G1 X109.531 Y88.791 E.0203
G1 X109.456 Y88.714 E.00422
G1 X109.456 Y86.475 E.08816
M204 S1000
;WIPE_START
G1 F8640
G1 X109.456 Y88.714 E-.51709
G1 X109.531 Y88.791 E-.02475
G1 X109.016 Y88.791 E-.11906
G1 X109.016 Y86.475 E-.53469
G1 X108.791 Y86.475 E-.05199
G1 X108.791 Y86.832 E-.08242
;WIPE_END
G1 E-.07 F2100
G1 Z.5 F720
G1 X111.423 Y85.93 F10800
G1 Z.3 F720
G1 E1.4 F2100
M204 S800
;TYPE:Support material
;WIDTH:0.42
G1 F1200
G1 X110.907 Y85.93 E.02287
G1 X110.573 Y86.264 E.02094
G1 X110.573 Y88.65 E.10583
G1 X109.912 Y88.65 E.02934
G1 X109.824 Y88.562 E.00551
G1 X109.824 Y86.438 E.09422
G1 X110.155 Y86.107 E.02075
G1 X108.423 Y86.107 E.07682
G1 X108.423 Y89.159 E.13535
G1 X111.158 Y89.159 E.12132
G1 X111.158 Y91.738 E.11443
G1 X80.371 Y91.738 E1.36555
G1 X80.371 Y83.527 E.3642
G1 X111.423 Y83.527 E1.37729
M73 P0 R54
G1 X111.423 Y85.877 E.1042
M204 S1000
;WIPE_START
G1 F8640
G1 X111.423 Y83.527 E-.54247
G1 X108.012 Y83.527 E-.78753
;WIPE_END
G1 E-.07 F2100
G1 Z.5 F720
G1 X110.775 Y91.578 F10800
G1 Z.3 F720
G1 E1.4 F2100
M204 S800
G1 F1200
G1 X110.775 Y89.479 E.09313
G1 X110.38 Y89.479 E.01753
G1 X110.38 Y91.418 E.08603
G1 X109.985 Y91.418 E.01753
G1 X109.985 Y89.479 E.08603
G1 X109.59 Y89.479 E.01753
G1 X109.59 Y91.418 E.08603
G1 X109.195 Y91.418 E.01753
G1 X109.195 Y89.479 E.08603
G1 X108.8 Y89.479 E.01753
G1 X108.8 Y91.418 E.08603
G1 X108.404 Y91.418 E.01753
G1 X108.404 Y89.479 E.08603
G1 X108.103 Y89.479 E.01338
G1 X108.103 Y85.787 E.16374
G1 X108.404 Y85.787 E.01338
G1 X108.404 Y83.847 E.08603
G1 X108.8 Y83.847 E.01753
G1 X108.8 Y85.787 E.08603
G1 X109.195 Y85.787 E.01753
G1 X109.195 Y83.847 E.08603
G1 X109.59 Y83.847 E.01753
G1 X109.59 Y85.787 E.08603
G1 X109.985 Y85.787 E.01753
G1 X109.985 Y83.847 E.08603
G1 X110.38 Y83.847 E.01753
G1 X110.38 Y85.787 E.08603
G1 X110.597 Y85.787 E.00964
G1 X110.775 Y85.61 E.01113
G1 X110.775 Y83.687 E.08528
M204 S1000
;WIPE_START
G1 F8640
G1 X110.775 Y85.61 E-.44393
G1 X110.597 Y85.787 E-.05795
G1 X110.38 Y85.787 E-.05019
G1 X110.38 Y83.847 E-.44788
G1 X109.985 Y83.847 E-.09124
G1 X109.985 Y84.882 E-.23882
;WIPE_END
G1 E-.07 F2100
G1 Z.5 F720
G1 X108.009 Y91.578 F10800
G1 Z.3 F720
G1 E1.4 F2100
M204 S800
G1 F1200
G1 X108.009 Y83.847 E.34291
G1 X107.614 Y83.847 E.01753
G1 X107.614 Y91.418 E.33581
G1 X107.219 Y91.418 E.01753
G1 X107.219 Y83.847 E.33581
G1 X106.824 Y83.847 E.01753
G1 X106.824 Y91.418 E.33581
G1 X106.429 Y91.418 E.01753
G1 X106.429 Y83.847 E.33581
G1 X106.034 Y83.847 E.01753
G1 X106.034 Y91.418 E.33581
G1 X105.639 Y91.418 E.01753
G1 X105.639 Y83.847 E.33581
G1 X105.243 Y83.847 E.01753
M73 P1 R54
M73 Q1 S55
G1 X105.243 Y91.418 E.33581
G1 X104.848 Y91.418 E.01753
G1 X104.848 Y83.847 E.33581
G1 X104.453 Y83.847 E.01753
G1 X104.453 Y91.418 E.33581
G1 X104.058 Y91.418 E.01753
G1 X104.058 Y83.847 E.33581
G1 X103.663 Y83.847 E.01753
G1 X103.663 Y91.418 E.33581
G1 X103.268 Y91.418 E.01753
G1 X103.268 Y83.847 E.33581
G1 X102.873 Y83.847 E.01753
G1 X102.873 Y91.418 E.33581
G1 X102.477 Y91.418 E.01753
G1 X102.477 Y83.847 E.33581
G1 X102.082 Y83.847 E.01753
G1 X102.082 Y91.418 E.33581
G1 X101.687 Y91.418 E.01753
G1 X101.687 Y83.847 E.33581
G1 X101.292 Y83.847 E.01753
G1 X101.292 Y91.418 E.33581
G1 X100.897 Y91.418 E.01753
G1 X100.897 Y83.847 E.33581
G1 X100.502 Y83.847 E.01753
G1 X100.502 Y91.418 E.33581
G1 X100.107 Y91.418 E.01753
G1 X100.107 Y83.847 E.33581
G1 X99.712 Y83.847 E.01753
G1 X99.712 Y91.418 E.33581
G1 X99.316 Y91.418 E.01753
G1 X99.316 Y83.847 E.33581
G1 X98.921 Y83.847 E.01753
G1 X98.921 Y91.418 E.33581
G1 X98.526 Y91.418 E.01753
G1 X98.526 Y83.847 E.33581
G1 X98.131 Y83.847 E.01753
G1 X98.131 Y91.418 E.33581
G1 X97.736 Y91.418 E.01753
G1 X97.736 Y83.847 E.33581
G1 X97.341 Y83.847 E.01753
G1 X97.341 Y91.418 E.33581
G1 X96.946 Y91.418 E.01753
G1 X96.946 Y83.847 E.33581
G1 X96.55 Y83.847 E.01753
G1 X96.55 Y91.418 E.33581
G1 X96.155 Y91.418 E.01753
G1 X96.155 Y83.847 E.33581
G1 X95.76 Y83.847 E.01753
G1 X95.76 Y91.418 E.33581
G1 X95.365 Y91.418 E.01753
G1 X95.365 Y83.847 E.33581
G1 X94.97 Y83.847 E.01753
G1 X94.97 Y91.418 E.33581
G1 X94.575 Y91.418 E.01753
G1 X94.575 Y83.847 E.33581
G1 X94.18 Y83.847 E.01753
G1 X94.18 Y91.418 E.33581
G1 X93.785 Y91.418 E.01753
G1 X93.785 Y83.847 E.33581
G1 X93.389 Y83.847 E.01753
G1 X93.389 Y91.418 E.33581
G1 X92.994 Y91.418 E.01753
G1 X92.994 Y83.847 E.33581
G1 X92.599 Y83.847 E.01753
G1 X92.599 Y91.418 E.33581
G1 X92.204 Y91.418 E.01753
G1 X92.204 Y83.847 E.33581
G1 X91.809 Y83.847 E.01753
G1 X91.809 Y91.418 E.33581
G1 X91.414 Y91.418 E.01753
G1 X91.414 Y83.847 E.33581
G1 X91.019 Y83.847 E.01753
G1 X91.019 Y91.418 E.33581
G1 X90.624 Y91.418 E.01753
G1 X90.624 Y83.847 E.33581
G1 X90.228 Y83.847 E.01753
G1 X90.228 Y91.418 E.33581
G1 X89.833 Y91.418 E.01753
G1 X89.833 Y83.847 E.33581
G1 X89.438 Y83.847 E.01753
G1 X89.438 Y91.418 E.33581
G1 X89.043 Y91.418 E.01753
G1 X89.043 Y83.847 E.33581
G1 X88.648 Y83.847 E.01753
G1 X88.648 Y91.418 E.33581
G1 X88.253 Y91.418 E.01753
G1 X88.253 Y83.847 E.33581
G1 X87.858 Y83.847 E.01753
G1 X87.858 Y91.418 E.33581
G1 X87.462 Y91.418 E.01753
G1 X87.462 Y83.847 E.33581
G1 X87.067 Y83.847 E.01753
G1 X87.067 Y91.418 E.33581
G1 X86.672 Y91.418 E.01753
G1 X86.672 Y83.847 E.33581
G1 X86.277 Y83.847 E.01753
G1 X86.277 Y91.418 E.33581
G1 X85.882 Y91.418 E.01753
G1 X85.882 Y83.847 E.33581
G1 X85.487 Y83.847 E.01753
G1 X85.487 Y91.418 E.33581
G1 X85.092 Y91.418 E.01753
G1 X85.092 Y83.847 E.33581
G1 X84.697 Y83.847 E.01753
G1 X84.697 Y91.418 E.33581
G1 X84.301 Y91.418 E.01753
G1 X84.301 Y83.847 E.33581
G1 X83.906 Y83.847 E.01753
G1 X83.906 Y91.418 E.33581
G1 X83.511 Y91.418 E.01753
G1 X83.511 Y83.847 E.33581
G1 X83.116 Y83.847 E.01753
G1 X83.116 Y91.418 E.33581
G1 X82.721 Y91.418 E.01753
G1 X82.721 Y83.847 E.33581
G1 X82.326 Y83.847 E.01753
G1 X82.326 Y91.418 E.33581
G1 X81.931 Y91.418 E.01753
G1 X81.931 Y83.847 E.33581
G1 X81.535 Y83.847 E.01753
G1 X81.535 Y91.418 E.33581
G1 X81.14 Y91.418 E.01753
M73 Q1 S54
G1 X81.14 Y83.847 E.33581
G1 X80.745 Y83.847 E.01753
G1 X80.745 Y91.578 E.34291
M204 S1000
;WIPE_START
G1 F8640
G1 X80.745 Y85.818 E-1.33
;WIPE_END
G1 E-.07 F2100
G1 Z.5 F720
G1 X109.643 Y126.105 F10800
G1 Z.3 F720
G1 E1.4 F2100
M204 S800
;TYPE:Support material interface
;WIDTH:0.38
G1 F1200
G1 X109.766 Y125.982 E.00683
G1 X110.047 Y125.982 E.01107
G1 X110.047 Y125.841 E.00558
G1 X110.563 Y125.841 E.0203
G1 X110.563 Y125.982 E.00558
G1 X111.078 Y125.982 E.0203
G1 X111.078 Y125.841 E.00558
M204 S1000
G1 X111.158 Y125.473 F10800
M204 S800
;TYPE:Support material
;WIDTH:0.42
G1 F1200
G1 X108.423 Y125.473 E.12132
G1 X108.423 Y130.84 E.23806
G1 X111.423 Y130.84 E.13306
G1 X111.423 Y133.42 E.11443
G1 X80.371 Y133.42 E1.37729
G1 X80.371 Y122.893 E.46691
G1 X111.158 Y122.893 E1.36555
G1 X111.158 Y125.419 E.11206
M204 S1000
;WIPE_START
G1 F8640
G1 X111.158 Y122.893 E-.58337
G1 X107.924 Y122.893 E-.74663
;WIPE_END
G1 E-.07 F2100
G1 Z.5 F720
G1 X110.775 Y133.26 F10800
G1 Z.3 F720
G1 E1.4 F2100
M204 S800
G1 F1200
G1 X110.775 Y131.16 E.09313
G1 X110.38 Y131.16 E.01753
G1 X110.38 Y133.099 E.08603
G1 X109.985 Y133.099 E.01753
G1 X109.985 Y131.16 E.08603
G1 X109.59 Y131.16 E.01753
G1 X109.59 Y133.099 E.08603
G1 X109.195 Y133.099 E.01753
G1 X109.195 Y131.16 E.08603
G1 X108.8 Y131.16 E.01753
G1 X108.8 Y133.099 E.08603
G1 X108.404 Y133.099 E.01753
G1 X108.404 Y131.16 E.08603
G1 X108.103 Y131.16 E.01338
G1 X108.103 Y125.153 E.26645
G1 X108.404 Y125.153 E.01338
M73 P2 R54
M73 Q2 S54
G1 X108.404 Y123.213 E.08603
G1 X108.8 Y123.213 E.01753
G1 X108.8 Y125.153 E.08603
G1 X109.195 Y125.153 E.01753
G1 X109.195 Y123.213 E.08603
G1 X109.59 Y123.213 E.01753
G1 X109.59 Y125.153 E.08603
G1 X109.985 Y125.153 E.01753
G1 X109.985 Y123.213 E.08603
G1 X110.38 Y123.213 E.01753
G1 X110.38 Y125.153 E.08603
G1 X110.775 Y125.153 E.01753
G1 X110.775 Y123.053 E.09313
M204 S1000
;WIPE_START
G1 F8640
G1 X110.775 Y125.153 E-.48483
G1 X110.38 Y125.153 E-.09124
G1 X110.38 Y123.213 E-.44788
G1 X109.985 Y123.213 E-.09124
G1 X109.985 Y124.143 E-.21482
;WIPE_END
G1 E-.07 F2100
G1 Z.5 F720
G1 X108.009 Y133.26 F10800
G1 Z.3 F720
G1 E1.4 F2100
M204 S800
G1 F1200
G1 X108.009 Y123.213 E.44561
G1 X107.614 Y123.213 E.01753
G1 X107.614 Y133.099 E.43852
G1 X107.219 Y133.099 E.01753
G1 X107.219 Y123.213 E.43852
G1 X106.824 Y123.213 E.01753
G1 X106.824 Y133.099 E.43852
G1 X106.429 Y133.099 E.01753
G1 X106.429 Y123.213 E.43852
G1 X106.034 Y123.213 E.01753
G1 X106.034 Y133.099 E.43852
G1 X105.639 Y133.099 E.01753
G1 X105.639 Y123.213 E.43852
G1 X105.243 Y123.213 E.01753
G1 X105.243 Y133.099 E.43852
G1 X104.848 Y133.099 E.01753
G1 X104.848 Y123.213 E.43852
G1 X104.453 Y123.213 E.01753
G1 X104.453 Y133.099 E.43852
G1 X104.058 Y133.099 E.01753
G1 X104.058 Y123.213 E.43852
G1 X103.663 Y123.213 E.01753
G1 X103.663 Y133.099 E.43852
G1 X103.268 Y133.099 E.01753
G1 X103.268 Y123.213 E.43852
G1 X102.873 Y123.213 E.01753
G1 X102.873 Y133.099 E.43852
G1 X102.477 Y133.099 E.01753
G1 X102.477 Y123.213 E.43852
G1 X102.082 Y123.213 E.01753
G1 X102.082 Y133.099 E.43852
G1 X101.687 Y133.099 E.01753
G1 X101.687 Y123.213 E.43852
G1 X101.292 Y123.213 E.01753
G1 X101.292 Y133.099 E.43852
G1 X100.897 Y133.099 E.01753
G1 X100.897 Y123.213 E.43852
G1 X100.502 Y123.213 E.01753
G1 X100.502 Y133.099 E.43852
G1 X100.107 Y133.099 E.01753
G1 X100.107 Y123.213 E.43852
G1 X99.712 Y123.213 E.01753
G1 X99.712 Y133.099 E.43852
G1 X99.316 Y133.099 E.01753
G1 X99.316 Y123.213 E.43852
G1 X98.921 Y123.213 E.01753
G1 X98.921 Y133.099 E.43852
G1 X98.526 Y133.099 E.01753
G1 X98.526 Y123.213 E.43852
G1 X98.131 Y123.213 E.01753
G1 X98.131 Y133.099 E.43852
G1 X97.736 Y133.099 E.01753
G1 X97.736 Y123.213 E.43852
G1 X97.341 Y123.213 E.01753
G1 X97.341 Y133.099 E.43852
G1 X96.946 Y133.099 E.01753
G1 X96.946 Y123.213 E.43852
G1 X96.55 Y123.213 E.01753
G1 X96.55 Y133.099 E.43852
G1 X96.155 Y133.099 E.01753
G1 X96.155 Y123.213 E.43852
G1 X95.76 Y123.213 E.01753
G1 X95.76 Y133.099 E.43852
G1 X95.365 Y133.099 E.01753
G1 X95.365 Y123.213 E.43852
G1 X94.97 Y123.213 E.01753
M73 P2 R53
G1 X94.97 Y133.099 E.43852
G1 X94.575 Y133.099 E.01753
G1 X94.575 Y123.213 E.43852
G1 X94.18 Y123.213 E.01753
G1 X94.18 Y133.099 E.43852
G1 X93.785 Y133.099 E.01753
G1 X93.785 Y123.213 E.43852
G1 X93.389 Y123.213 E.01753
G1 X93.389 Y133.099 E.43852
G1 X92.994 Y133.099 E.01753
G1 X92.994 Y123.213 E.43852
G1 X92.599 Y123.213 E.01753
G1 X92.599 Y133.099 E.43852
G1 X92.204 Y133.099 E.01753
G1 X92.204 Y123.213 E.43852
G1 X91.809 Y123.213 E.01753
G1 X91.809 Y133.099 E.43852
G1 X91.414 Y133.099 E.01753
G1 X91.414 Y123.213 E.43852
G1 X91.019 Y123.213 E.01753
G1 X91.019 Y133.099 E.43852
G1 X90.624 Y133.099 E.01753
G1 X90.624 Y123.213 E.43852
G1 X90.228 Y123.213 E.01753
G1 X90.228 Y133.099 E.43852
G1 X89.833 Y133.099 E.01753
G1 X89.833 Y123.213 E.43852
G1 X89.438 Y123.213 E.01753
G1 X89.438 Y133.099 E.43852
G1 X89.043 Y133.099 E.01753
G1 X89.043 Y123.213 E.43852
G1 X88.648 Y123.213 E.01753
G1 X88.648 Y133.099 E.43852
G1 X88.253 Y133.099 E.01753
G1 X88.253 Y123.213 E.43852
G1 X87.858 Y123.213 E.01753
G1 X87.858 Y133.099 E.43852
G1 X87.462 Y133.099 E.01753
G1 X87.462 Y123.213 E.43852
G1 X87.067 Y123.213 E.01753
G1 X87.067 Y133.099 E.43852
G1 X86.672 Y133.099 E.01753
G1 X86.672 Y123.213 E.43852
G1 X86.277 Y123.213 E.01753
G1 X86.277 Y133.099 E.43852
G1 X85.882 Y133.099 E.01753
G1 X85.882 Y123.213 E.43852
G1 X85.487 Y123.213 E.01753
G1 X85.487 Y133.099 E.43852
G1 X85.092 Y133.099 E.01753
G1 X85.092 Y123.213 E.43852
G1 X84.697 Y123.213 E.01753
G1 X84.697 Y133.099 E.43852
G1 X84.301 Y133.099 E.01753
M73 P3 R53
G1 X84.301 Y123.213 E.43852
G1 X83.906 Y123.213 E.01753
M73 Q3 S54
G1 X83.906 Y133.099 E.43852
G1 X83.511 Y133.099 E.01753
G1 X83.511 Y123.213 E.43852
G1 X83.116 Y123.213 E.01753
G1 X83.116 Y133.099 E.43852
G1 X82.721 Y133.099 E.01753
G1 X82.721 Y123.213 E.43852
G1 X82.326 Y123.213 E.01753
G1 X82.326 Y133.099 E.43852
G1 X81.931 Y133.099 E.01753
G1 X81.931 Y123.213 E.43852
G1 X81.535 Y123.213 E.01753
G1 X81.535 Y133.099 E.43852
G1 X81.14 Y133.099 E.01753
G1 X81.14 Y123.213 E.43852
G1 X80.745 Y123.213 E.01753
G1 X80.745 Y133.26 E.44561
M204 S1000
;WIPE_START
G1 F8640
G1 X80.745 Y127.5 E-1.33
;WIPE_END
G1 E-.07 F2100
G1 Z.5 F720
G1 X108.791 Y130.05 F10800
G1 Z.3 F720
G1 E1.4 F2100
M204 S800
;TYPE:Support material interface
;WIDTH:0.38
G1 F1200
G1 X108.791 Y130.472 E.01662
G1 X109.016 Y130.472 E.00886
G1 X109.016 Y125.841 E.18231
G1 X109.531 Y125.841 E.0203
G1 X109.531 Y126.217 E.0148
G1 X109.462 Y126.286 E.00384
G1 X109.462 Y128.714 E.09562
G1 X109.531 Y128.783 E.00384
G1 X109.531 Y130.472 E.06646
G1 X110.047 Y130.472 E.0203
G1 X110.047 Y129.018 E.05724
G1 X110.563 Y129.018 E.0203
G1 X110.563 Y130.472 E.05724
G1 X111.078 Y130.472 E.0203
G1 X111.078 Y129.018 E.05724
M204 S1000
G1 X110.575 Y128.65 F10800
M204 S800
;TYPE:Support material
;WIDTH:0.42
G1 F1200
G1 X109.918 Y128.65 E.02915
G1 X109.83 Y128.562 E.00551
G1 X109.83 Y126.438 E.09422
G1 X109.918 Y126.35 E.00551
G1 X110.575 Y126.35 E.02915
G1 X110.575 Y128.597 E.09964
M204 S1000
;WIPE_START
G1 F8640
G1 X110.575 Y126.35 E-.51871
G1 X109.918 Y126.35 E-.15176
G1 X109.83 Y126.438 E-.02867
G1 X109.83 Y128.562 E-.49048
G1 X109.918 Y128.65 E-.02867
G1 X110.402 Y128.65 E-.1117
;WIPE_END
G1 E-.07 F2100
G1 Z.5 F720
G1 X155.735 Y85.93 F10800
G1 Z.3 F720
G1 E1.4 F2100
M204 S800
G1 F1200
G1 X142.893 Y85.93 E.56962
G1 X142.893 Y76.58 E.4147
G1 X155.735 Y76.58 E.56962
G1 X155.735 Y85.877 E.41233
M204 S1000
G1 X155.03 Y85.77 F10800
M204 S800
G1 F1200
