; generated by PrusaSlicer 2.5.0 on 2022-09-17 at 15:45:20 UTC

; 

; external perimeters extrusion width = 0.60mm
; perimeters extrusion width = 0.50mm
; infill extrusion width = 0.50mm
; solid infill extrusion width = 0.50mm
; top infill extrusion width = 0.45mm
; support material extrusion width = 0.38mm
; first layer extrusion width = 0.42mm

M73 P0 R56
M73 Q0 S56
M201 X1000 Y1000 Z200 E5000 ; sets maximum accelerations, mm/sec^2
M203 X200 Y200 Z12 E120 ; sets maximum feedrates, mm / sec
M204 P1250 R1250 T1250 ; sets acceleration (P, T) and retract acceleration (R), mm/sec^2
M205 X8.00 Y8.00 Z0.40 E4.50 ; sets the jerk limits, mm/sec
M205 S0 T0 ; sets the minimum extruding and travel feed rate, mm/sec
M107
;TYPE:Custom
M862.3 P "MK3S" ; printer model check
M862.1 P0.4 ; nozzle diameter check
M115 U3.10.1 ; tell printer latest fw version
G90 ; use absolute coordinates
M83 ; extruder relative mode
M104 S240 ; set extruder temp
M140 S95 ; set bed temp
M190 S95 ; wait for bed temp
M109 S240 ; wait for extruder temp
G28 W ; home all without mesh bed level
G80 ; mesh bed leveling
G1 Z0.2 F720
G1 Y-3 F1000 ; go outside print area
G92 E0
G1 X60 E9 F1000 ; intro line
G1 X100 E12.5 F1000 ; intro line
G92 E0
M221 S95

; Don't change E values below. Excessive value can damage the printer.

M907 E538 ; set extruder motor current
G21 ; set units to millimeters
G90 ; use absolute coordinates
M83 ; use relative distances for extrusion
M900 K0.08 ; Filament gcode LA 1.5
M900 K45 ; Filament gcode LA 1.0
M107
;LAYER_CHANGE
;Z:0.3
;HEIGHT:0.3
;BEFORE_LAYER_CHANGE
G92 E0.0
;0.3


G1 E-1.4 F2100
G1 Z.2 F720
G1 Z.3
;AFTER_LAYER_CHANGE
;0.3
G1 Z.5
G1 X76.091 Y75.28 F10800
G1 Z.3 F720
G1 E1.4 F2100
M204 S800
;TYPE:Skirt/Brim
;WIDTH:0.42
G1 F1200
G1 X77.136 Y74.412 E.06024
G1 X78.056 Y74.225 E.04163
G1 X111.709 Y74.242 E1.49268
G1 X168.285 Y81.162 E2.52814
G1 X169.529 Y81.708 E.06024
G1 X170.355 Y83.5 E.08752
G1 X170.355 Y123.5 E1.77419
G1 X169.662 Y125.168 E.08011
M73 P0 R55
G1 X159.714 Y135.088 E.62313
G1 X158.051 Y135.775 E.07983
G1 X144.966 Y135.763 E.58037
G1 X77.813 Y128.816 E2.99445
G1 X76.56 Y128.293 E.06024
G1 X75.804 Y127.164 E.06024
G1 X75.7 Y126.473 E.03102
G1 X75.7 Y76.58 E2.21296
G1 X76.074 Y75.337 E.05758
M204 S1000
; printing object 3BL_calf-Body.stl id:0 copy 0
;WIPE_START
G1 F8640
G1 X77.136 Y74.412 E-.32524
G1 X78.056 Y74.225 E-.21671
G1 X81.468 Y74.227 E-.78805
;WIPE_END
G1 E-.07 F2100
G1 Z.5 F720
G1 X108.791 Y83.737 F10800
G1 Z.3 F720
G1 E1.4 F2100
M204 S800
;TYPE:Support material interface
;WIDTH:0.38
G1 F1200
G1 X108.791 Y84.159 E.01662
G1 X109.016 Y84.159 E.00886
G1 X109.016 Y79.528 E.18231
G1 X109.531 Y79.528 E.0203
G1 X109.531 Y84.159 E.18231
G1 X110.047 Y84.159 E.0203
G1 X110.047 Y79.528 E.18231
G1 X110.563 Y79.528 E.0203
G1 X110.563 Y84.159 E.18231
G1 X111.078 Y84.159 E.0203
G1 X111.078 Y79.528 E.18231
G1 X111.594 Y79.528 E.0203
G1 X111.594 Y80.982 E.05724
G1 X112.11 Y80.982 E.0203
G1 X112.11 Y79.528 E.05724
G1 X112.625 Y79.528 E.0203
G1 X112.625 Y80.982 E.05724
G1 X113.141 Y80.982 E.0203
G1 X113.141 Y79.528 E.05724
G1 X113.422 Y79.528 E.01107
G1 X113.422 Y80.982 E.05724
G1 X113.299 Y80.982 E.00486
M204 S1000
;WIPE_START
G1 F8640
G1 X113.422 Y80.982 E-.02848
G1 X113.422 Y79.528 E-.33574
G1 X113.141 Y79.528 E-.06492
G1 X113.141 Y80.982 E-.33574
G1 X112.625 Y80.982 E-.11906
G1 X112.625 Y79.528 E-.33574
G1 X112.147 Y79.528 E-.11032
;WIPE_END
G1 E-.07 F2100
G1 Z.5 F720
G1 X111.423 Y79.16 F10800
G1 Z.3 F720
G1 E1.4 F2100
M204 S800
;TYPE:Support material
;WIDTH:0.42
G1 F1200
G1 X108.423 Y79.16 E.13306
G1 X108.423 Y84.527 E.23806
G1 X111.423 Y84.527 E.13306
G1 X111.423 Y87.107 E.11443
G1 X78.056 Y87.107 E1.48
G1 X78.056 Y76.58 E.46691
G1 X111.423 Y76.58 E1.48
G1 X111.423 Y79.107 E.11206
M204 S1000
;WIPE_START
G1 F8640
G1 X111.423 Y76.58 E-.58337
G1 X108.189 Y76.58 E-.74663
;WIPE_END
G1 E-.07 F2100
G1 Z.5 F720
G1 X110.775 Y86.947 F10800
G1 Z.3 F720
G1 E1.4 F2100
M204 S800
G1 F1200
G1 X110.775 Y84.847 E.09313
G1 X110.38 Y84.847 E.01753
G1 X110.38 Y86.787 E.08603
G1 X109.985 Y86.787 E.01753
G1 X109.985 Y84.847 E.08603
G1 X109.59 Y84.847 E.01753
G1 X109.59 Y86.787 E.08603
G1 X109.195 Y86.787 E.01753
G1 X109.195 Y84.847 E.08603
G1 X108.8 Y84.847 E.01753
G1 X108.8 Y86.787 E.08603
G1 X108.404 Y86.787 E.01753
G1 X108.404 Y84.847 E.08603
G1 X108.103 Y84.847 E.01339
G1 X108.103 Y78.84 E.26645
G1 X108.404 Y78.84 E.01338
G1 X108.404 Y76.901 E.08603
G1 X108.8 Y76.901 E.01753
G1 X108.8 Y78.84 E.08603
G1 X109.195 Y78.84 E.01753
G1 X109.195 Y76.901 E.08603
G1 X109.59 Y76.901 E.01753
G1 X109.59 Y78.84 E.08603
G1 X109.985 Y78.84 E.01753
G1 X109.985 Y76.901 E.08603
G1 X110.38 Y76.901 E.01753
G1 X110.38 Y78.84 E.08603
G1 X110.775 Y78.84 E.01753
G1 X110.775 Y76.741 E.09313
M204 S1000
;WIPE_START
G1 F8640
G1 X110.775 Y78.84 E-.48483
G1 X110.38 Y78.84 E-.09124
G1 X110.38 Y76.901 E-.44788
G1 X109.985 Y76.901 E-.09124
G1 X109.985 Y77.831 E-.21481
;WIPE_END
G1 E-.07 F2100
G1 Z.5 F720
G1 X108.009 Y86.947 F10800
G1 Z.3 F720
G1 E1.4 F2100
M204 S800
G1 F1200
G1 X108.009 Y76.901 E.44561
G1 X107.614 Y76.901 E.01753
G1 X107.614 Y86.787 E.43852
G1 X107.219 Y86.787 E.01753
M73 P1 R55
M73 Q1 S56
G1 X107.219 Y76.901 E.43852
G1 X106.824 Y76.901 E.01753
G1 X106.824 Y86.787 E.43852
G1 X106.429 Y86.787 E.01753
G1 X106.429 Y76.901 E.43852
G1 X106.034 Y76.901 E.01753
G1 X106.034 Y86.787 E.43852
G1 X105.639 Y86.787 E.01753
G1 X105.639 Y76.901 E.43852
G1 X105.243 Y76.901 E.01753
G1 X105.243 Y86.787 E.43852
G1 X104.848 Y86.787 E.01753
G1 X104.848 Y76.901 E.43852
G1 X104.453 Y76.901 E.01753
G1 X104.453 Y86.787 E.43852
G1 X104.058 Y86.787 E.01753
G1 X104.058 Y76.901 E.43852
G1 X103.663 Y76.901 E.01753
G1 X103.663 Y86.787 E.43852
G1 X103.268 Y86.787 E.01753
G1 X103.268 Y76.901 E.43852
G1 X102.873 Y76.901 E.01753
G1 X102.873 Y86.787 E.43852
G1 X102.477 Y86.787 E.01753
G1 X102.477 Y76.901 E.43852
G1 X102.082 Y76.901 E.01753
G1 X102.082 Y86.787 E.43852
G1 X101.687 Y86.787 E.01753
G1 X101.687 Y76.901 E.43852
G1 X101.292 Y76.901 E.01753
G1 X101.292 Y86.787 E.43852
G1 X100.897 Y86.787 E.01753
G1 X100.897 Y76.901 E.43852
G1 X100.502 Y76.901 E.01753
G1 X100.502 Y86.787 E.43852
G1 X100.107 Y86.787 E.01753
G1 X100.107 Y76.901 E.43852
G1 X99.712 Y76.901 E.01753
G1 X99.712 Y86.787 E.43852
G1 X99.316 Y86.787 E.01753
G1 X99.316 Y76.901 E.43852
G1 X98.921 Y76.901 E.01753
G1 X98.921 Y86.787 E.43852
G1 X98.526 Y86.787 E.01753
G1 X98.526 Y76.901 E.43852
G1 X98.131 Y76.901 E.01753
G1 X98.131 Y86.787 E.43852
G1 X97.736 Y86.787 E.01753
G1 X97.736 Y76.901 E.43852
G1 X97.341 Y76.901 E.01753
G1 X97.341 Y86.787 E.43852
G1 X96.946 Y86.787 E.01753
G1 X96.946 Y76.901 E.43852
G1 X96.55 Y76.901 E.01753
M73 Q1 S55
G1 X96.55 Y86.787 E.43852
G1 X96.155 Y86.787 E.01753
G1 X96.155 Y76.901 E.43852
G1 X95.76 Y76.901 E.01753
G1 X95.76 Y86.787 E.43852
G1 X95.365 Y86.787 E.01753
G1 X95.365 Y76.901 E.43852
G1 X94.97 Y76.901 E.01753
G1 X94.97 Y86.787 E.43852
G1 X94.575 Y86.787 E.01753
G1 X94.575 Y76.901 E.43852
G1 X94.18 Y76.901 E.01753
G1 X94.18 Y86.787 E.43852
G1 X93.785 Y86.787 E.01753
G1 X93.785 Y76.901 E.43852
G1 X93.389 Y76.901 E.01753
G1 X93.389 Y86.787 E.43852
G1 X92.994 Y86.787 E.01753
G1 X92.994 Y76.901 E.43852
G1 X92.599 Y76.901 E.01753
G1 X92.599 Y86.787 E.43852
G1 X92.204 Y86.787 E.01753
G1 X92.204 Y76.901 E.43852
G1 X91.809 Y76.901 E.01753
G1 X91.809 Y86.787 E.43852
G1 X91.414 Y86.787 E.01753
G1 X91.414 Y76.901 E.43852
G1 X91.019 Y76.901 E.01753
G1 X91.019 Y86.787 E.43852
G1 X90.624 Y86.787 E.01753
G1 X90.624 Y76.901 E.43852
G1 X90.228 Y76.901 E.01753
G1 X90.228 Y86.787 E.43852
G1 X89.833 Y86.787 E.01753
G1 X89.833 Y76.901 E.43852
G1 X89.438 Y76.901 E.01753
G1 X89.438 Y86.787 E.43852
G1 X89.043 Y86.787 E.01753
G1 X89.043 Y76.901 E.43852
G1 X88.648 Y76.901 E.01753
G1 X88.648 Y86.787 E.43852
G1 X88.253 Y86.787 E.01753
G1 X88.253 Y76.901 E.43852
G1 X87.858 Y76.901 E.01753
G1 X87.858 Y86.787 E.43852
G1 X87.462 Y86.787 E.01753
G1 X87.462 Y76.901 E.43852
G1 X87.067 Y76.901 E.01753
G1 X87.067 Y86.787 E.43852
G1 X86.672 Y86.787 E.01753
G1 X86.672 Y76.901 E.43852
G1 X86.277 Y76.901 E.01753
G1 X86.277 Y86.787 E.43852
G1 X85.882 Y86.787 E.01753
G1 X85.882 Y76.901 E.43852
G1 X85.487 Y76.901 E.01753
G1 X85.487 Y86.787 E.43852
G1 X85.092 Y86.787 E.01753
G1 X85.092 Y76.901 E.43852
G1 X84.697 Y76.901 E.01753
G1 X84.697 Y86.787 E.43852
G1 X84.301 Y86.787 E.01753
G1 X84.301 Y76.901 E.43852
G1 X83.906 Y76.901 E.01753
G1 X83.906 Y86.787 E.43852
G1 X83.511 Y86.787 E.01753
G1 X83.511 Y76.901 E.43852
G1 X83.116 Y76.901 E.01753
G1 X83.116 Y86.787 E.43852
G1 X82.721 Y86.787 E.01753
G1 X82.721 Y76.901 E.43852
G1 X82.326 Y76.901 E.01753
G1 X82.326 Y86.787 E.43852
G1 X81.931 Y86.787 E.01753
M73 P2 R55
M73 Q2 S55
G1 X81.931 Y76.901 E.43852
G1 X81.535 Y76.901 E.01753
G1 X81.535 Y86.787 E.43852
G1 X81.14 Y86.787 E.01753
G1 X81.14 Y76.901 E.43852
G1 X80.745 Y76.901 E.01753
G1 X80.745 Y86.787 E.43852
G1 X80.35 Y86.787 E.01753
G1 X80.35 Y76.901 E.43852
G1 X79.955 Y76.901 E.01753
G1 X79.955 Y86.787 E.43852
G1 X79.56 Y86.787 E.01753
G1 X79.56 Y76.901 E.43852
G1 X79.165 Y76.901 E.01753
G1 X79.165 Y86.787 E.43852
G1 X78.77 Y86.787 E.01753
G1 X78.77 Y76.741 E.44561
M204 S1000
;WIPE_START
G1 F8640
G1 X78.77 Y82.501 E-1.33
;WIPE_END
G1 E-.07 F2100
G1 Z.5 F720
G1 X111.24 Y83.817 F10800
G1 Z.3 F720
G1 E1.4 F2100
M204 S800
;TYPE:Support material interface
;WIDTH:0.38
G1 F1200
G1 X111.441 Y84.018 E.0112
G1 X111.594 Y84.018 E.006
G1 X111.594 Y84.159 E.00558
G1 X112.11 Y84.159 E.0203
G1 X112.11 Y84.018 E.00558
G1 X112.625 Y84.018 E.0203
G1 X112.625 Y84.159 E.00558
G1 X113.141 Y84.159 E.0203
G1 X113.141 Y84.018 E.00558
M204 S1000
;WIPE_START
G1 F8640
G1 X113.141 Y84.159 E-.03271
G1 X112.625 Y84.159 E-.11906
G1 X112.625 Y84.018 E-.03271
G1 X112.11 Y84.018 E-.11906
G1 X112.11 Y84.159 E-.03271
G1 X111.594 Y84.159 E-.11906
G1 X111.594 Y84.018 E-.03271
G1 X111.441 Y84.018 E-.0352
G1 X111.24 Y83.817 E-.0657
;WIPE_END
G1 E-.8111 F2100
G1 Z.5 F720
G1 X111.423 Y120.841 F10800
G1 Z.3 F720
M73 P2 R54
G1 E1.4 F2100
M204 S800
;TYPE:Support material
;WIDTH:0.42
G1 F1200
G1 X108.423 Y120.841 E.13306
G1 X108.423 Y123.893 E.13535
G1 X111.423 Y123.893 E.13306
G1 X111.423 Y126.473 E.11443
G1 X78.056 Y126.473 E1.48
G1 X78.056 Y118.262 E.3642
G1 X111.423 Y118.262 E1.48
G1 X111.423 Y120.788 E.11206
M204 S1000
;WIPE_START
G1 F8640
G1 X111.423 Y118.262 E-.58337
G1 X108.189 Y118.262 E-.74663
;WIPE_END
G1 E-.07 F2100
G1 Z.5 F720
G1 X110.775 Y126.313 F10800
G1 Z.3 F720
G1 E1.4 F2100
M204 S800
G1 F1200
G1 X110.775 Y124.213 E.09313
G1 X110.38 Y124.213 E.01753
G1 X110.38 Y126.153 E.08603
G1 X109.985 Y126.153 E.01753
G1 X109.985 Y124.213 E.08603
G1 X109.59 Y124.213 E.01753
G1 X109.59 Y126.153 E.08603
G1 X109.195 Y126.153 E.01753
G1 X109.195 Y124.213 E.08603
G1 X108.8 Y124.213 E.01753
G1 X108.8 Y126.153 E.08603
G1 X108.404 Y126.153 E.01753
G1 X108.404 Y124.213 E.08603
G1 X108.103 Y124.213 E.01338
G1 X108.103 Y120.521 E.16374
G1 X108.404 Y120.521 E.01338
G1 X108.404 Y118.582 E.08603
G1 X108.8 Y118.582 E.01753
G1 X108.8 Y120.521 E.08603
G1 X109.195 Y120.521 E.01753
G1 X109.195 Y118.582 E.08603
G1 X109.59 Y118.582 E.01753
G1 X109.59 Y120.521 E.08603
G1 X109.985 Y120.521 E.01753
G1 X109.985 Y118.582 E.08603
G1 X110.38 Y118.582 E.01753
G1 X110.38 Y120.521 E.08603
G1 X110.775 Y120.521 E.01753
G1 X110.775 Y118.422 E.09313
M204 S1000
;WIPE_START
G1 F8640
G1 X110.775 Y120.521 E-.48483
G1 X110.38 Y120.521 E-.09124
G1 X110.38 Y118.582 E-.44788
G1 X109.985 Y118.582 E-.09124
G1 X109.985 Y119.512 E-.21482
;WIPE_END
G1 E-.07 F2100
G1 Z.5 F720
G1 X108.009 Y126.313 F10800
G1 Z.3 F720
G1 E1.4 F2100
M204 S800
G1 F1200
G1 X108.009 Y118.582 E.34291
G1 X107.614 Y118.582 E.01753
G1 X107.614 Y126.153 E.33581
G1 X107.219 Y126.153 E.01753
G1 X107.219 Y118.582 E.33581
G1 X106.824 Y118.582 E.01753
G1 X106.824 Y126.153 E.33581
G1 X106.429 Y126.153 E.01753
G1 X106.429 Y118.582 E.33581
G1 X106.034 Y118.582 E.01753
G1 X106.034 Y126.153 E.33581
G1 X105.639 Y126.153 E.01753
G1 X105.639 Y118.582 E.33581
G1 X105.243 Y118.582 E.01753
G1 X105.243 Y126.153 E.33581
G1 X104.848 Y126.153 E.01753
G1 X104.848 Y118.582 E.33581
G1 X104.453 Y118.582 E.01753
G1 X104.453 Y126.153 E.33581
G1 X104.058 Y126.153 E.01753
G1 X104.058 Y118.582 E.33581
G1 X103.663 Y118.582 E.01753
G1 X103.663 Y126.153 E.33581
G1 X103.268 Y126.153 E.01753
G1 X103.268 Y118.582 E.33581
G1 X102.873 Y118.582 E.01753
G1 X102.873 Y126.153 E.33581
G1 X102.477 Y126.153 E.01753
G1 X102.477 Y118.582 E.33581
G1 X102.082 Y118.582 E.01753
G1 X102.082 Y126.153 E.33581
G1 X101.687 Y126.153 E.01753
G1 X101.687 Y118.582 E.33581
G1 X101.292 Y118.582 E.01753
G1 X101.292 Y126.153 E.33581
G1 X100.897 Y126.153 E.01753
G1 X100.897 Y118.582 E.33581
G1 X100.502 Y118.582 E.01753
G1 X100.502 Y126.153 E.33581
G1 X100.107 Y126.153 E.01753
G1 X100.107 Y118.582 E.33581
G1 X99.712 Y118.582 E.01753
G1 X99.712 Y126.153 E.33581
G1 X99.316 Y126.153 E.01753
G1 X99.316 Y118.582 E.33581
G1 X98.921 Y118.582 E.01753
G1 X98.921 Y126.153 E.33581
G1 X98.526 Y126.153 E.01753
G1 X98.526 Y118.582 E.33581
G1 X98.131 Y118.582 E.01753
G1 X98.131 Y126.153 E.33581
G1 X97.736 Y126.153 E.01753
G1 X97.736 Y118.582 E.33581
G1 X97.341 Y118.582 E.01753
G1 X97.341 Y126.153 E.33581
G1 X96.946 Y126.153 E.01753
G1 X96.946 Y118.582 E.33581
G1 X96.55 Y118.582 E.01753
G1 X96.55 Y126.153 E.33581
G1 X96.155 Y126.153 E.01753
G1 X96.155 Y118.582 E.33581
G1 X95.76 Y118.582 E.01753
G1 X95.76 Y126.153 E.33581
G1 X95.365 Y126.153 E.01753
G1 X95.365 Y118.582 E.33581
G1 X94.97 Y118.582 E.01753
G1 X94.97 Y126.153 E.33581
G1 X94.575 Y126.153 E.01753
G1 X94.575 Y118.582 E.33581
G1 X94.18 Y118.582 E.01753
G1 X94.18 Y126.153 E.33581
G1 X93.785 Y126.153 E.01753
G1 X93.785 Y118.582 E.33581
G1 X93.389 Y118.582 E.01753
G1 X93.389 Y126.153 E.33581
G1 X92.994 Y126.153 E.01753
G1 X92.994 Y118.582 E.33581
G1 X92.599 Y118.582 E.01753
G1 X92.599 Y126.153 E.33581
G1 X92.204 Y126.153 E.01753
G1 X92.204 Y118.582 E.33581
G1 X91.809 Y118.582 E.01753
G1 X91.809 Y126.153 E.33581
G1 X91.414 Y126.153 E.01753
G1 X91.414 Y118.582 E.33581
G1 X91.019 Y118.582 E.01753
G1 X91.019 Y126.153 E.33581
G1 X90.624 Y126.153 E.01753
G1 X90.624 Y118.582 E.33581
G1 X90.228 Y118.582 E.01753
G1 X90.228 Y126.153 E.33581
G1 X89.833 Y126.153 E.01753
G1 X89.833 Y118.582 E.33581
M73 P3 R54
G1 X89.438 Y118.582 E.01753
G1 X89.438 Y126.153 E.33581
G1 X89.043 Y126.153 E.01753
M73 Q3 S55
G1 X89.043 Y118.582 E.33581
G1 X88.648 Y118.582 E.01753
G1 X88.648 Y126.153 E.33581
G1 X88.253 Y126.153 E.01753
G1 X88.253 Y118.582 E.33581
G1 X87.858 Y118.582 E.01753
G1 X87.858 Y126.153 E.33581
G1 X87.462 Y126.153 E.01753
G1 X87.462 Y118.582 E.33581
G1 X87.067 Y118.582 E.01753
G1 X87.067 Y126.153 E.33581
G1 X86.672 Y126.153 E.01753
G1 X86.672 Y118.582 E.33581
G1 X86.277 Y118.582 E.01753
G1 X86.277 Y126.153 E.33581
G1 X85.882 Y126.153 E.01753
G1 X85.882 Y118.582 E.33581
G1 X85.487 Y118.582 E.01753
G1 X85.487 Y126.153 E.33581
G1 X85.092 Y126.153 E.01753
G1 X85.092 Y118.582 E.33581
G1 X84.697 Y118.582 E.01753
G1 X84.697 Y126.153 E.33581
G1 X84.301 Y126.153 E.01753
G1 X84.301 Y118.582 E.33581
G1 X83.906 Y118.582 E.01753
G1 X83.906 Y126.153 E.33581
G1 X83.511 Y126.153 E.01753
G1 X83.511 Y118.582 E.33581
M73 Q3 S54
G1 X83.116 Y118.582 E.01753
G1 X83.116 Y126.153 E.33581
G1 X82.721 Y126.153 E.01753
G1 X82.721 Y118.582 E.33581
G1 X82.326 Y118.582 E.01753
G1 X82.326 Y126.153 E.33581
G1 X81.931 Y126.153 E.01753
G1 X81.931 Y118.582 E.33581
G1 X81.535 Y118.582 E.01753
G1 X81.535 Y126.153 E.33581
G1 X81.14 Y126.153 E.01753
G1 X81.14 Y118.582 E.33581
G1 X80.745 Y118.582 E.01753
G1 X80.745 Y126.153 E.33581
G1 X80.35 Y126.153 E.01753
G1 X80.35 Y118.582 E.33581
G1 X79.955 Y118.582 E.01753
G1 X79.955 Y126.153 E.33581
G1 X79.56 Y126.153 E.01753
G1 X79.56 Y118.582 E.33581
G1 X79.165 Y118.582 E.01753
G1 X79.165 Y126.153 E.33581
G1 X78.77 Y126.153 E.01753
G1 X78.77 Y118.422 E.34291
M204 S1000
;WIPE_START
G1 F8640
G1 X78.77 Y124.182 E-1.33
;WIPE_END
G1 E-.07 F2100
G1 Z.5 F720
G1 X108.791 Y123.103 F10800
G1 Z.3 F720
G1 E1.4 F2100
M204 S800
;TYPE:Support material interface
