; generated by PrusaSlicer 2.7.1 on 2023-12-24 at 11:00:16 UTC


;
;
; 

; external perimeters extrusion width = 0.60mm
; perimeters extrusion width = 0.50mm
; infill extrusion width = 0.50mm
; solid infill extrusion width = 0.50mm
; top infill extrusion width = 0.45mm
; support material extrusion width = 0.38mm
; first layer extrusion width = 0.42mm

; external perimeters extrusion width = 0.60mm
; perimeters extrusion width = 0.50mm
; infill extrusion width = 0.50mm
; solid infill extrusion width = 0.50mm
; top infill extrusion width = 0.45mm
; support material extrusion width = 0.38mm
; first layer extrusion width = 0.42mm

M73 P0 R133
M73 Q0 S134
M201 X1000 Y1000 Z200 E5000 ; sets maximum accelerations, mm/sec^2
M203 X200 Y200 Z12 E120 ; sets maximum feedrates, mm / sec
M204 S1250 T1250 ; sets acceleration (S) and retract acceleration (R), mm/sec^2
M205 X8.00 Y8.00 Z0.40 E4.50 ; sets the jerk limits, mm/sec
M205 S0 T0 ; sets the minimum extruding and travel feed rate, mm/sec

; printing object 3BL_calf2-Body.stl id:1 copy 0
; stop printing object 3BL_calf2-Body.stl id:1 copy 0
; printing object 3BL_calf2-Body.stl id:0 copy 0
; stop printing object 3BL_calf2-Body.stl id:0 copy 0

;TYPE:Custom
M862.3 P "MK3S" ; printer model check
M862.1 P0.4 ; nozzle diameter check
M115 U3.12.2 ; tell printer latest fw version
G90 ; use absolute coordinates
M83 ; extruder relative mode
M104 S240 ; set extruder temp
M140 S95 ; set bed temp
M190 S95 ; wait for bed temp
M109 S240 ; wait for extruder temp
G28 W ; home all without mesh bed level
G80 ; mesh bed leveling

G1 Z0.2 F720
G1 Y-3 F1000 ; go outside print area
G92 E0
G1 X60 E9 F1000 ; intro line
G1 X100 E12.5 F1000 ; intro line

G92 E0
M221 S95

; Don't change E values below. Excessive value can damage the printer.

M907 E538 ; set extruder motor current
G21 ; set units to millimeters
G90 ; use absolute coordinates
M83 ; use relative distances for extrusion
M900 K0.08 ; Filament gcode LA 1.5
M900 K45 ; Filament gcode LA 1.0
M107 ; disable fan
;LAYER_CHANGE
;Z:0.3
;HEIGHT:0.3
;BEFORE_LAYER_CHANGE
G92 E0.0
;0.3


G1 E-1.4 F2100 ; retract
G1 Z.3 F720 ; move to next layer (0)
;AFTER_LAYER_CHANGE
;0.3
G1 X72.184 Y41.874 F10800 ; move to print after unknown position
G1 Z.3 F720 ; move to print after unknown position
G1 E1.4 F2100 ;  ; unretract
M204 S800 ; adjust acceleration
;TYPE:Skirt/Brim
;WIDTH:0.42
G1 F1200
G1 X81.633 Y27.628 E.75824 ; skirt
G1 X82.679 Y26.762 E.06023 ; skirt
G1 X83.594 Y26.577 E.04141 ; skirt
G1 X168.572 Y26.577 E3.76918 ; skirt
G1 X169.873 Y26.969 E.06027 ; skirt
G1 X170.487 Y27.561 E.03783 ; skirt
G1 X180.1 Y40.976 E.73202 ; skirt
G1 X180.961 Y42.748 E.08738 ; skirt
G1 X181.272 Y43.859 E.05117 ; skirt
G1 X181.454 Y45.428 E.07006 ; skirt
G1 X181.325 Y47.19 E.07836 ; skirt
G1 X170.894 Y107.852 E2.73014 ; skirt
G1 X170.288 Y109.068 E.06026 ; skirt
G1 X168.578 Y109.809 E.08266 ; skirt
G1 X83.589 Y109.809 E3.76967 ; skirt
G1 X82.289 Y109.414 E.06026 ; skirt
G1 X81.271 Y107.84 E.08314 ; skirt
G1 X71.181 Y47.231 E2.7253 ; skirt
G1 X71.094 Y46.288 E.042 ; skirt
M73 P0 R132
G1 X71.105 Y45.466 E.03646 ; skirt
G1 X71.303 Y44.114 E.06061 ; skirt
G1 X71.591 Y43.15 E.04463 ; skirt
G1 X72.159 Y41.928 E.05977 ; skirt
M204 S1000 ; adjust acceleration
; printing object 3BL_calf2-Body.stl id:1 copy 0
;WIPE_START
G1 F8640
G1 X72.184 Y41.874 E-.01374 ; wipe and retract
G1 X75.502 Y36.871 E-1.38626 ; wipe and retract
;WIPE_END
G1 Z.5 F720 ; move to first support material point
G1 X172.921 Y39.326 F10800 ; move to first support material point
G1 Z.3 F720 ; move to first support material point
G1 E1.4 F2100 ;  ; unretract
M204 S800 ; adjust acceleration
;TYPE:Support material
G1 F1200
G1 X173.519 Y39.353 E.02655 ; support material
G1 X174.617 Y39.58 E.04973 ; support material
G1 X175.685 Y40.015 E.05115 ; support material
G1 X176.656 Y40.636 E.05112 ; support material
G1 X177.499 Y41.422 E.05112 ; support material
G1 X178.185 Y42.348 E.05112 ; support material
G1 X178.692 Y43.384 E.05116 ; support material
G1 X179.004 Y44.494 E.05114 ; support material
G1 X179.108 Y45.642 E.05113 ; support material
G1 X179.003 Y46.791 E.05118 ; support material
G1 X178.692 Y47.901 E.05113 ; support material
G1 X178.184 Y48.936 E.05114 ; support material
G1 X177.508 Y49.848 E.05035 ; support material
G1 X177.089 Y50.249 E.02572 ; support material
G1 X176.641 Y50.657 E.02688 ; support material
G1 X175.682 Y51.269 E.05046 ; support material
G1 X174.614 Y51.703 E.05113 ; support material
G1 X173.485 Y51.936 E.05113 ; support material
G1 X172.333 Y51.961 E.05111 ; support material
G1 X171.195 Y51.777 E.05113 ; support material
G1 X170.109 Y51.389 E.05115 ; support material
G1 X169.142 Y50.829 E.04956 ; support material
G1 X169.142 Y40.454 E.46018 ; support material
G1 X170.111 Y39.893 E.04966 ; support material
G1 X171.197 Y39.505 E.05115 ; support material
G1 X172.305 Y39.326 E.04978 ; support material
G1 X172.868 Y39.326 E.02497 ; support material
M204 S1000 ; adjust acceleration
G1 X178.522 Y47.884 F10800 ; move to first support material point
M204 S800 ; adjust acceleration
G1 F1200
G1 X178.522 Y43.961 E.174 ; support material
G1 X178.127 Y42.956 E.0479 ; support material
G1 X178.127 Y48.326 E.23819 ; support material
G1 X177.731 Y49.009 E.03502 ; support material
G1 X177.731 Y42.274 E.29873 ; support material
G1 X177.336 Y41.74 E.02946 ; support material
G1 X177.336 Y49.542 E.34606 ; support material
G1 X176.941 Y49.947 E.02509 ; support material
G1 X176.941 Y41.339 E.38181 ; support material
G1 X176.546 Y40.971 E.02395 ; support material
G1 X176.546 Y50.31 E.41423 ; support material
G1 X176.151 Y50.59 E.02148 ; support material
G1 X176.151 Y40.693 E.43898 ; support material
G1 X175.756 Y40.44 E.02081 ; support material
G1 X175.756 Y50.843 E.46142 ; support material
G1 X175.361 Y51.054 E.01986 ; support material
G1 X175.361 Y40.228 E.48019 ; support material
G1 X174.966 Y40.068 E.0189 ; support material
G1 X174.966 Y51.215 E.49442 ; support material
G1 X174.57 Y51.376 E.01896 ; support material
G1 X174.57 Y39.907 E.50871 ; support material
G1 X174.175 Y39.816 E.01798 ; support material
G1 X174.175 Y51.467 E.51678 ; support material
G1 X173.78 Y51.549 E.01789 ; support material
G1 X173.78 Y39.734 E.52405 ; support material
G1 X173.385 Y39.667 E.01777 ; support material
G1 X173.385 Y51.618 E.53008 ; support material
G1 X172.99 Y51.627 E.01752 ; support material
G1 X172.99 Y39.65 E.53124 ; support material
G1 X172.595 Y39.646 E.01752 ; support material
G1 X172.595 Y51.635 E.53177 ; support material
G1 X172.2 Y51.615 E.01754 ; support material
G1 X172.2 Y39.667 E.52995 ; support material
G1 X171.804 Y39.731 E.01779 ; support material
G1 X171.804 Y51.551 E.52427 ; support material
G1 X171.409 Y51.487 E.01775 ; support material
G1 X171.409 Y39.795 E.5186 ; support material
G1 X171.277 Y39.817 E.00594 ; support material
G1 X171.014 Y39.91 E.01237 ; support material
G1 X171.014 Y51.372 E.50839 ; support material
G1 X170.619 Y51.231 E.0186 ; support material
G1 X170.619 Y40.051 E.49589 ; support material
G1 X170.224 Y40.197 E.01868 ; support material
G1 X170.224 Y51.086 E.48298 ; support material
G1 X169.829 Y50.857 E.02025 ; support material
G1 X169.829 Y40.241 E.47087 ; support material
M204 S1000 ; adjust acceleration
;WIPE_START
G1 F8640
G1 X169.829 Y46.304 E-1.4 ; wipe and retract
;WIPE_END
G1 Z.5 F720 ; move to first perimeter point
G1 X141.012 Y102.841 F10800 ; move to first perimeter point
G1 Z.3 F720 ; move to first perimeter point
G1 E1.4 F2100 ;  ; unretract
M204 S800 ; adjust acceleration
;TYPE:Perimeter
;WIDTH:0.42
G1 F1200
G1 X140.889 Y102.954 E.00741 ; perimeter
G1 X140.807 Y103.238 E.01311 ; perimeter
G1 X140.807 Y104.497 E.05584 ; perimeter
G1 X127.338 Y104.498 E.59741 ; perimeter
G1 X127.338 Y56.848 E2.1135 ; perimeter
G1 X128.804 Y56.848 E.06502 ; perimeter
G1 X129.079 Y56.772 E.01265 ; perimeter
G1 X129.264 Y56.585 E.01167 ; perimeter
G1 X129.338 Y56.315 E.01242 ; perimeter
G1 X129.338 Y33.962 E.99146 ; perimeter
G1 X129.387 Y33.46 E.02237 ; perimeter
G1 X129.476 Y32.885 E.02581 ; perimeter
G1 X129.676 Y32.304 E.02725 ; perimeter
G1 X129.938 Y31.762 E.0267 ; perimeter
G1 X130.297 Y31.253 E.02763 ; perimeter
G1 X130.744 Y30.805 E.02807 ; perimeter
G1 X131.215 Y30.417 E.02707 ; perimeter
G1 X131.762 Y30.106 E.02791 ; perimeter
G1 X132.338 Y29.884 E.02738 ; perimeter
G1 X133.17 Y29.719 E.03762 ; perimeter
G1 X133.589 Y29.698 E.01861 ; perimeter
G1 X167.807 Y29.698 E1.51773 ; perimeter
G1 X167.807 Y48.933 E.85316 ; perimeter
G1 X167.807 Y104.498 E2.46457 ; perimeter
M73 Q0 S133
G1 X154.338 Y104.497 E.59741 ; perimeter
G1 X154.338 Y103.238 E.05584 ; perimeter
G1 X154.256 Y102.954 E.01311 ; perimeter
G1 X154.046 Y102.762 E.01262 ; perimeter
G1 X153.804 Y102.705 E.01103 ; perimeter
G1 X141.34 Y102.705 E.55284 ; perimeter
G1 X141.098 Y102.762 E.01103 ; perimeter
G1 X141.056 Y102.801 E.00254 ; perimeter
M204 S1000 ; adjust acceleration
G1 X141.234 Y103.095 F10800 ; move to first perimeter point
M204 S800 ; adjust acceleration
;TYPE:External perimeter
G1 F1200
G1 X141.162 Y103.238 E.0071 ; perimeter
G1 X141.162 Y104.852 E.07159 ; perimeter
G1 X126.982 Y104.854 E.62895 ; perimeter
G1 X126.982 Y56.493 E2.14504 ; perimeter
G1 X128.804 Y56.493 E.08081 ; perimeter
G1 X128.919 Y56.451 E.00543 ; perimeter
G1 X128.982 Y56.315 E.00665 ; perimeter
G1 X128.982 Y33.945 E.99222 ; perimeter
G1 X129.033 Y33.426 E.02313 ; perimeter
G1 X129.131 Y32.798 E.02819 ; perimeter
G1 X129.344 Y32.176 E.02916 ; perimeter
G1 X129.634 Y31.575 E.0296 ; perimeter
G1 X130.024 Y31.023 E.02998 ; perimeter
G1 X130.493 Y30.553 E.02945 ; perimeter
G1 X131.02 Y30.118 E.03031 ; perimeter
G1 X131.61 Y29.784 E.03007 ; perimeter
G1 X132.238 Y29.542 E.02985 ; perimeter
G1 X133.127 Y29.365 E.04021 ; perimeter
G1 X133.58 Y29.343 E.02012 ; perimeter
G1 X168.162 Y29.343 E1.53388 ; perimeter
G1 X168.162 Y48.933 E.86891 ; perimeter
G1 X168.162 Y104.854 E2.48036 ; perimeter
G1 X153.982 Y104.852 E.62895 ; perimeter
G1 X153.982 Y103.238 E.07159 ; perimeter
G1 X153.938 Y103.12 E.00559 ; perimeter
G1 X153.804 Y103.06 E.00651 ; perimeter
G1 X141.34 Y103.06 E.55284 ; perimeter
G1 X141.291 Y103.076 E.00229 ; perimeter
M204 S1000 ; adjust acceleration
;WIPE_START
G1 F8640
G1 X141.234 Y103.095 E-.01387 ; wipe and retract
G1 X141.162 Y103.238 E-.03697 ; wipe and retract
G1 X141.162 Y104.852 E-.37268 ; wipe and retract
G1 X136.933 Y104.853 E-.97648 ; wipe and retract
;WIPE_END
G1 Z.5 F720 ; move to first infill point
G1 X166.979 Y29.805 F10800 ; move to first infill point
G1 Z.3 F720 ; move to first infill point
G1 E1.4 F2100 ;  ; unretract
M204 S800 ; adjust acceleration
;TYPE:Solid infill
;WIDTH:0.420766
G1 F1200
G1 X167.54 Y30.366 E.03527 ; infill
G1 X167.54 Y30.87 E.0224 ; infill
G1 X166.635 Y29.965 E.05689 ; infill
G1 X166.131 Y29.965 E.0224 ; infill
G1 X167.54 Y31.374 E.08857 ; infill
G1 X167.54 Y31.878 E.0224 ; infill
G1 X165.627 Y29.965 E.12026 ; infill
G1 X165.123 Y29.965 E.0224 ; infill
G1 X167.54 Y32.382 E.15194 ; infill
G1 X167.54 Y32.886 E.0224 ; infill
G1 X164.619 Y29.965 E.18362 ; infill
G1 X164.115 Y29.965 E.0224 ; infill
G1 X167.54 Y33.39 E.2153 ; infill
G1 X167.54 Y33.894 E.0224 ; infill
G1 X163.611 Y29.965 E.24699 ; infill
G1 X163.107 Y29.965 E.0224 ; infill
G1 X167.54 Y34.398 E.27867 ; infill
G1 X167.54 Y34.902 E.0224 ; infill
G1 X162.603 Y29.965 E.31035 ; infill
G1 X162.099 Y29.965 E.0224 ; infill
G1 X167.54 Y35.406 E.34203 ; infill
G1 X167.54 Y35.91 E.0224 ; infill
G1 X161.595 Y29.965 E.37372 ; infill
G1 X161.091 Y29.965 E.0224 ; infill
G1 X167.54 Y36.414 E.4054 ; infill
G1 X167.54 Y36.918 E.0224 ; infill
G1 X160.587 Y29.965 E.43708 ; infill
G1 X160.083 Y29.965 E.0224 ; infill
G1 X167.54 Y37.422 E.46876 ; infill
G1 X167.54 Y37.926 E.0224 ; infill
G1 X159.579 Y29.965 E.50045 ; infill
G1 X159.075 Y29.965 E.0224 ; infill
G1 X167.54 Y38.43 E.53213 ; infill
G1 X167.54 Y38.934 E.0224 ; infill
G1 X158.571 Y29.965 E.56381 ; infill
G1 X158.067 Y29.965 E.0224 ; infill
G1 X167.54 Y39.438 E.59549 ; infill
G1 X167.54 Y39.942 E.0224 ; infill
G1 X157.563 Y29.965 E.62718 ; infill
G1 X157.059 Y29.965 E.0224 ; infill
G1 X167.54 Y40.446 E.65886 ; infill
G1 X167.54 Y40.95 E.0224 ; infill
G1 X156.555 Y29.965 E.69054 ; infill
G1 X156.051 Y29.965 E.0224 ; infill
G1 X167.54 Y41.454 E.72222 ; infill
G1 X167.54 Y41.958 E.0224 ; infill
G1 X155.547 Y29.965 E.75391 ; infill
G1 X155.043 Y29.965 E.0224 ; infill
G1 X167.54 Y42.462 E.78559 ; infill
G1 X167.54 Y42.966 E.0224 ; infill
G1 X154.539 Y29.965 E.81727 ; infill
G1 X154.035 Y29.965 E.0224 ; infill
G1 X167.54 Y43.47 E.84895 ; infill
G1 X167.54 Y43.974 E.0224 ; infill
G1 X153.531 Y29.965 E.88064 ; infill
G1 X153.027 Y29.965 E.0224 ; infill
M73 P1 R132
M73 Q1 S133
G1 X167.54 Y44.478 E.91232 ; infill
G1 X167.54 Y44.982 E.0224 ; infill
G1 X152.523 Y29.965 E.944 ; infill
G1 X152.019 Y29.965 E.0224 ; infill
M73 P1 R131
G1 X167.54 Y45.486 E.97568 ; infill
G1 X167.54 Y45.99 E.0224 ; infill
G1 X151.515 Y29.965 E1.00737 ; infill
G1 X151.011 Y29.965 E.0224 ; infill
G1 X167.54 Y46.494 E1.03905 ; infill
G1 X167.54 Y46.998 E.0224 ; infill
G1 X150.507 Y29.965 E1.07073 ; infill
G1 X150.003 Y29.965 E.0224 ; infill
G1 X167.54 Y47.502 E1.10241 ; infill
G1 X167.54 Y48.006 E.0224 ; infill
G1 X149.499 Y29.965 E1.1341 ; infill
G1 X148.995 Y29.965 E.0224 ; infill
G1 X167.54 Y48.51 E1.16578 ; infill
G1 X167.54 Y49.014 E.0224 ; infill
G1 X148.491 Y29.965 E1.19746 ; infill
G1 X147.987 Y29.965 E.0224 ; infill
G1 X167.54 Y49.518 E1.22914 ; infill
G1 X167.54 Y50.022 E.0224 ; infill
G1 X147.483 Y29.965 E1.26083 ; infill
G1 X146.979 Y29.965 E.0224 ; infill
G1 X167.54 Y50.526 E1.29251 ; infill
G1 X167.54 Y51.03 E.0224 ; infill
G1 X146.475 Y29.965 E1.32419 ; infill
G1 X145.971 Y29.965 E.0224 ; infill
G1 X167.54 Y51.534 E1.35588 ; infill
G1 X167.54 Y52.038 E.0224 ; infill
G1 X145.467 Y29.965 E1.38756 ; infill
G1 X144.963 Y29.965 E.0224 ; infill
G1 X167.54 Y52.542 E1.41924 ; infill
G1 X167.54 Y53.046 E.0224 ; infill
G1 X144.459 Y29.965 E1.45092 ; infill
G1 X143.955 Y29.965 E.0224 ; infill
G1 X167.54 Y53.55 E1.48261 ; infill
G1 X167.54 Y54.054 E.0224 ; infill
G1 X143.451 Y29.965 E1.51429 ; infill
G1 X142.947 Y29.965 E.0224 ; infill
M73 Q1 S132
G1 X167.54 Y54.558 E1.54597 ; infill
G1 X167.54 Y55.062 E.0224 ; infill
G1 X142.443 Y29.965 E1.57765 ; infill
G1 X141.939 Y29.965 E.0224 ; infill
G1 X167.54 Y55.566 E1.60934 ; infill
G1 X167.54 Y56.07 E.0224 ; infill
G1 X141.435 Y29.965 E1.64102 ; infill
G1 X140.931 Y29.965 E.0224 ; infill
G1 X167.54 Y56.574 E1.6727 ; infill
G1 X167.54 Y57.078 E.0224 ; infill
G1 X140.427 Y29.965 E1.70438 ; infill
G1 X139.923 Y29.965 E.0224 ; infill
G1 X167.54 Y57.582 E1.73607 ; infill
G1 X167.54 Y58.086 E.0224 ; infill
G1 X139.419 Y29.965 E1.76775 ; infill
G1 X138.915 Y29.965 E.0224 ; infill
G1 X167.54 Y58.59 E1.79943 ; infill
G1 X167.54 Y59.094 E.0224 ; infill
G1 X138.411 Y29.965 E1.83111 ; infill
G1 X137.907 Y29.965 E.0224 ; infill
G1 X167.54 Y59.598 E1.8628 ; infill
G1 X167.54 Y60.102 E.0224 ; infill
G1 X137.403 Y29.965 E1.89448 ; infill
G1 X136.899 Y29.965 E.0224 ; infill
G1 X167.54 Y60.606 E1.92616 ; infill
G1 X167.54 Y61.11 E.0224 ; infill
G1 X136.395 Y29.965 E1.95784 ; infill
G1 X135.891 Y29.965 E.0224 ; infill
G1 X167.54 Y61.614 E1.98953 ; infill
G1 X167.54 Y62.118 E.0224 ; infill
G1 X135.387 Y29.965 E2.02121 ; infill
G1 X134.883 Y29.965 E.0224 ; infill
G1 X167.54 Y62.622 E2.05289 ; infill
G1 X167.54 Y63.126 E.0224 ; infill
M73 P1 R130
G1 X134.379 Y29.965 E2.08457 ; infill
G1 X133.875 Y29.965 E.0224 ; infill
G1 X167.54 Y63.63 E2.11626 ; infill
G1 X167.54 Y64.134 E.0224 ; infill
G1 X133.382 Y29.976 E2.14725 ; infill
G1 X133.203 Y29.984 E.00796 ; infill
G1 X132.939 Y30.037 E.01197 ; infill
G1 X167.54 Y64.638 E2.1751 ; infill
G1 X167.54 Y65.142 E.0224 ; infill
G1 X132.518 Y30.12 E2.20156 ; infill
G1 X132.412 Y30.142 E.00481 ; infill
G1 X132.14 Y30.246 E.01294 ; infill
G1 X167.54 Y65.646 E2.22532 ; infill
G1 X167.54 Y66.15 E.0224 ; infill
G1 X131.788 Y30.398 E2.24745 ; infill
