; generated by PrusaSlicer 2.5.0 on 2022-12-10 at 11:01:44 UTC


;
;
; 

; external perimeters extrusion width = 0.60mm
; perimeters extrusion width = 0.50mm
; infill extrusion width = 0.50mm
; solid infill extrusion width = 0.50mm
; top infill extrusion width = 0.45mm
; support material extrusion width = 0.38mm
; first layer extrusion width = 0.42mm

; external perimeters extrusion width = 0.60mm
; perimeters extrusion width = 0.50mm
; infill extrusion width = 0.50mm
; solid infill extrusion width = 0.50mm
; top infill extrusion width = 0.45mm
; support material extrusion width = 0.38mm
; first layer extrusion width = 0.42mm

M73 P0 R118
M73 Q0 S120
M201 X1000 Y1000 Z200 E5000 ; sets maximum accelerations, mm/sec^2
M203 X200 Y200 Z12 E120 ; sets maximum feedrates, mm / sec
M204 P1250 R1250 T1250 ; sets acceleration (P, T) and retract acceleration (R), mm/sec^2
M205 X8.00 Y8.00 Z0.40 E4.50 ; sets the jerk limits, mm/sec
M205 S0 T0 ; sets the minimum extruding and travel feed rate, mm/sec
M107
;TYPE:Custom
M862.3 P "MK3S" ; printer model check
M862.1 P0.4 ; nozzle diameter check
M115 U3.11.0 ; tell printer latest fw version
G90 ; use absolute coordinates
M83 ; extruder relative mode
M104 S240 ; set extruder temp
M140 S95 ; set bed temp
M190 S95 ; wait for bed temp
M109 S240 ; wait for extruder temp
G28 W ; home all without mesh bed level
G80 ; mesh bed leveling

G1 Z0.2 F720
G1 Y-3 F1000 ; go outside print area
G92 E0
G1 X60 E9 F1000 ; intro line
G1 X100 E12.5 F1000 ; intro line

G92 E0
M221 S95

; Don't change E values below. Excessive value can damage the printer.

M907 E538 ; set extruder motor current
G21 ; set units to millimeters
G90 ; use absolute coordinates
M83 ; use relative distances for extrusion
M900 K0.08 ; Filament gcode LA 1.5
M900 K45 ; Filament gcode LA 1.0
M107
;LAYER_CHANGE
;Z:0.3
;HEIGHT:0.3
;BEFORE_LAYER_CHANGE
G92 E0.0
;0.3


G1 E-1.4 F2100
G1 Z.2 F720
G1 Z.3
;AFTER_LAYER_CHANGE
;0.3
G1 Z.5
G1 X78.165 Y35.752 F10800
G1 Z.3 F720
G1 E1.4 F2100
M204 S800
;TYPE:Skirt/Brim
;WIDTH:0.42
G1 F1200
G1 X79.296 Y35 E.06024
G1 X79.979 Y34.899 E.03065
G1 X129.875 Y34.899 E2.21312
G1 X170.607 Y34.96 E1.80667
G1 X171.907 Y35.354 E.06024
G1 X172.774 Y36.399 E.06024
G1 X172.946 Y37.065 E.03049
G1 X179.893 Y101.902 E2.89231
G1 X179.906 Y114.995 E.58075
G1 X179.219 Y116.659 E.07982
G1 X169.299 Y126.608 E.62316
G1 X167.631 Y127.3 E.08011
G1 X82.949 Y127.239 E3.75607
G1 X81.284 Y126.547 E.07998
G1 X71.364 Y116.597 E.62316
G1 X70.677 Y114.934 E.07982
G1 X70.69 Y101.841 E.58075
G1 X77.637 Y37.004 E2.89231
G1 X78.141 Y35.807 E.05758
M204 S1000
; printing object 3BL_calf-Body.stl id:0 copy 0
;WIPE_START
G1 F8640
G1 X79.296 Y35 E-.32524
G1 X79.979 Y34.899 E-.15954
G1 X83.64 Y34.899 E-.84523
;WIPE_END
G1 E-.07 F2100
G1 Z.5 F720
G1 X83.247 Y46.26 F10800
G1 Z.3 F720
G1 E1.4 F2100
M204 S800
;TYPE:Support material interface
;WIDTH:0.38
G1 F1200
G1 X82.927 Y46.261 E.01262
G1 X82.927 Y44.833 E.05619
G1 X83.405 Y44.833 E.01883
G1 X83.405 Y46.26 E.05617
G1 X83.921 Y46.26 E.0203
G1 X83.921 Y44.833 E.05614
G1 X84.436 Y44.833 E.0203
G1 X84.436 Y46.259 E.05612
G1 X84.952 Y46.259 E.0203
G1 X84.952 Y44.833 E.05613
G1 X85.243 Y44.833 E.01144
G1 X85.243 Y46.335 E.05913
G1 X85.167 Y46.26 E.00422
G1 X85.11 Y46.26 E.00224
M204 S1000
;WIPE_START
G1 F8640
G1 X85.167 Y46.26 E-.01312
G1 X85.243 Y46.335 E-.02478
G1 X85.243 Y44.833 E-.34684
G1 X84.952 Y44.833 E-.06708
G1 X84.952 Y46.259 E-.32926
G1 X84.436 Y46.259 E-.11906
G1 X84.436 Y44.833 E-.32918
G1 X84 Y44.833 E-.10069
;WIPE_END
G1 E-.07 F2100
G1 Z.5 F720
G1 X95.137 Y50.097 F10800
G1 Z.3 F720
G1 E1.4 F2100
M204 S800
;TYPE:Support material
;WIDTH:0.42
G1 F1200
G1 X85.522 Y50.097 E.42648
G1 X85.522 Y47.855 E.09945
G1 X85.188 Y47.521 E.02093
G1 X82.715 Y47.52 E.10969
G1 X82.61 Y47.625 E.00658
G1 X82.61 Y47.466 E.00708
G1 X79.979 Y47.466 E.11671
G1 X79.979 Y37.254 E.45291
G1 X95.137 Y37.254 E.67233
G1 X95.137 Y50.043 E.56725
M204 S1000
G1 X82.559 Y46.96 F10800
M204 S800
G1 F1200
G1 X82.89 Y46.629 E.02075
G1 X85.014 Y46.627 E.09423
G1 X85.102 Y46.715 E.0055
G1 X85.102 Y47.517 E.03557
G1 X85.61 Y47.517 E.02256
G1 X85.61 Y44.466 E.13535
G1 X82.559 Y44.466 E.13535
G1 X82.559 Y46.906 E.10827
M204 S1000
G1 X94.735 Y49.937 F10800
M204 S800
G1 F1200
G1 X94.735 Y37.575 E.54832
G1 X94.339 Y37.575 E.01753
G1 X94.339 Y49.777 E.54123
G1 X93.944 Y49.777 E.01753
G1 X93.944 Y37.575 E.54123
G1 X93.549 Y37.575 E.01753
G1 X93.549 Y49.777 E.54123
G1 X93.154 Y49.777 E.01753
G1 X93.154 Y37.575 E.54123
G1 X92.759 Y37.575 E.01753
G1 X92.759 Y49.777 E.54123
G1 X92.364 Y49.777 E.01753
G1 X92.364 Y37.575 E.54123
G1 X91.969 Y37.575 E.01753
G1 X91.969 Y49.777 E.54123
G1 X91.574 Y49.777 E.01753
G1 X91.574 Y37.575 E.54123
G1 X91.178 Y37.575 E.01753
G1 X91.178 Y49.777 E.54123
G1 X90.783 Y49.777 E.01753
G1 X90.783 Y37.575 E.54123
G1 X90.388 Y37.575 E.01753
G1 X90.388 Y49.777 E.54123
G1 X89.993 Y49.777 E.01753
M73 P0 R117
G1 X89.993 Y37.575 E.54123
G1 X89.598 Y37.575 E.01753
G1 X89.598 Y49.777 E.54123
G1 X89.203 Y49.777 E.01753
G1 X89.203 Y37.575 E.54123
G1 X88.808 Y37.575 E.01753
G1 X88.808 Y49.777 E.54123
G1 X88.412 Y49.777 E.01753
G1 X88.412 Y37.575 E.54123
G1 X88.017 Y37.575 E.01753
M73 Q0 S119
G1 X88.017 Y49.777 E.54123
G1 X87.622 Y49.777 E.01753
G1 X87.622 Y37.575 E.54123
G1 X87.227 Y37.575 E.01753
G1 X87.227 Y49.777 E.54123
G1 X86.832 Y49.777 E.01753
G1 X86.832 Y37.575 E.54123
G1 X86.437 Y37.575 E.01753
G1 X86.437 Y49.777 E.54123
G1 X86.042 Y49.777 E.01753
G1 X86.042 Y37.575 E.54123
G1 X85.647 Y37.575 E.01753
G1 X85.647 Y44.145 E.29145
G1 X85.251 Y44.145 E.01753
G1 X85.251 Y37.575 E.29145
G1 X84.856 Y37.575 E.01753
G1 X84.856 Y44.145 E.29145
G1 X84.461 Y44.145 E.01753
G1 X84.461 Y37.575 E.29145
G1 X84.066 Y37.575 E.01753
G1 X84.066 Y44.145 E.29145
G1 X83.671 Y44.145 E.01753
G1 X83.671 Y37.575 E.29145
G1 X83.276 Y37.575 E.01753
G1 X83.276 Y44.145 E.29145
G1 X82.881 Y44.145 E.01753
G1 X82.881 Y37.575 E.29145
G1 X82.485 Y37.575 E.01753
G1 X82.485 Y44.145 E.29145
G1 X82.239 Y44.145 E.01094
G1 X82.239 Y47.145 E.13306
G1 X82.09 Y47.145 E.00659
G1 X82.09 Y37.575 E.42452
G1 X81.695 Y37.575 E.01753
G1 X81.695 Y47.145 E.42452
G1 X81.3 Y47.145 E.01753
G1 X81.3 Y37.575 E.42452
G1 X80.905 Y37.575 E.01753
G1 X80.905 Y47.145 E.42452
G1 X80.51 Y47.145 E.01753
G1 X80.51 Y37.415 E.43161
M204 S1000
;WIPE_START
G1 F8640
G1 X80.51 Y43.175 E-1.33
;WIPE_END
G1 E-.07 F2100
G1 Z.5 F720
G1 X84.461 Y47.36 F10800
G1 Z.3 F720
G1 E1.4 F2100
M204 S800
G1 F1200
G1 X84.461 Y46.947 E.01832
G1 X84.066 Y46.947 E.01753
G1 X84.066 Y47.2 E.01119
G1 X83.671 Y47.199 E.01753
G1 X83.671 Y46.948 E.01115
G1 X83.276 Y46.948 E.01753
G1 X83.276 Y47.199 E.01114
G1 X82.93 Y47.2 E.01532
G1 X82.93 Y47.145 E.00242
G1 X82.881 Y47.145 E.00221
G1 X82.881 Y46.864 E.01248
M204 S1000
;WIPE_START
G1 F8640
G1 X82.881 Y47.145 E-.06494
G1 X82.93 Y47.145 E-.01151
G1 X82.93 Y47.2 E-.01258
G1 X83.276 Y47.199 E-.07973
G1 X83.276 Y46.948 E-.05799
G1 X83.671 Y46.948 E-.09124
G1 X83.671 Y47.199 E-.05805
G1 X84.066 Y47.2 E-.09124
G1 X84.066 Y46.947 E-.05824
G1 X84.461 Y46.947 E-.09124
G1 X84.461 Y47.36 E-.09539
;WIPE_END
G1 E-.68785 F2100
G1 Z.5 F720
G1 X122.434 Y44.833 F10800
G1 Z.3 F720
G1 E1.4 F2100
M204 S800
;TYPE:Support material interface
;WIDTH:0.38
G1 F1200
G1 X122.292 Y44.833 E.00559
G1 X122.292 Y47.149 E.09116
G1 X122.434 Y47.149 E.00558
G1 X122.434 Y46.563 E.02308
G1 X122.592 Y46.404 E.00881
G1 X122.592 Y44.833 E.06185
G1 X122.95 Y44.833 E.01409
M204 S1000
;WIPE_START
G1 F8640
G1 X122.592 Y44.833 E-.08262
G1 X122.592 Y46.404 E-.36277
G1 X122.434 Y46.563 E-.05168
G1 X122.434 Y47.149 E-.13537
G1 X122.292 Y47.149 E-.03271
G1 X122.292 Y44.833 E-.53469
G1 X122.434 Y44.833 E-.03279
;WIPE_END
G1 E-.16738 F2100
G1 Z.5 F720
G1 X122.704 Y46.293 F10800
G1 Z.3 F720
G1 E1.4 F2100
M204 S800
G1 F1200
G1 X122.737 Y46.26 E.00185
G1 X123.108 Y46.259 E.0146
G1 X123.108 Y44.833 E.05613
G1 X123.623 Y44.833 E.0203
G1 X123.623 Y46.259 E.05613
G1 X124.139 Y46.26 E.0203
G1 X124.139 Y44.833 E.05615
G1 X124.655 Y44.833 E.0203
G1 X124.655 Y46.26 E.05618
G1 X125.17 Y46.265 E.0203
G1 X125.17 Y44.833 E.05634
G1 X125.528 Y44.833 E.01409
M204 S1000
;WIPE_START
G1 F8640
G1 X125.17 Y44.833 E-.08262
G1 X125.17 Y46.265 E-.33047
G1 X124.655 Y46.26 E-.11906
G1 X124.655 Y44.833 E-.3295
G1 X124.139 Y44.833 E-.11906
G1 X124.139 Y46.26 E-.32936
G1 X124.053 Y46.26 E-.01993
;WIPE_END
G1 E-.07 F2100
G1 Z.5 F720
G1 X126.924 Y45.225 F10800
G1 Z.3 F720
G1 E1.4 F2100
M204 S800
G1 F1200
G1 X126.924 Y44.833 E.0154
G1 X126.717 Y44.833 E.00813
G1 X126.717 Y47.149 E.09116
G1 X126.202 Y47.149 E.0203
G1 X126.202 Y44.833 E.09116
G1 X125.686 Y44.833 E.0203
G1 X125.686 Y47.149 E.09116
G1 X125.47 Y47.149 E.00851
G1 X125.47 Y46.743 E.01599
M204 S1000
;WIPE_START
G1 F8640
G1 X125.47 Y47.149 E-.09381
G1 X125.686 Y47.149 E-.04994
G1 X125.686 Y44.833 E-.53469
G1 X126.202 Y44.833 E-.11906
G1 X126.202 Y47.14 E-.53249
;WIPE_END
G1 E-.07 F2100
G1 Z.5 F720
G1 X129.871 Y47.466 F10800
G1 Z.3 F720
G1 E1.4 F2100
M204 S800
;TYPE:Support material
;WIDTH:0.42
G1 F1200
G1 X127.292 Y47.466 E.11443
G1 X127.292 Y44.466 E.13306
G1 X121.924 Y44.466 E.23806
G1 X121.924 Y47.517 E.13535
G1 X122.802 Y47.517 E.03892
G1 X122.802 Y46.715 E.03557
G1 X122.89 Y46.627 E.0055
G1 X125.014 Y46.629 E.09423
G1 X125.102 Y46.717 E.0055
G1 X125.102 Y47.466 E.03322
G1 X124.924 Y47.466 E.00786
G1 X124.924 Y47.52 E.00241
G1 X122.715 Y47.521 E.09799
G1 X122.382 Y47.855 E.02093
G1 X122.382 Y50.097 E.09945
G1 X112.398 Y50.097 E.44284
G1 X112.398 Y37.254 E.56962
G1 X129.871 Y37.254 E.77504
G1 X129.871 Y47.412 E.45054
M204 S1000
G1 X129.506 Y47.305 F10800
M204 S800
G1 F1200
G1 X129.506 Y37.575 E.43161
G1 X129.111 Y37.575 E.01753
G1 X129.111 Y47.145 E.42452
G1 X128.716 Y47.145 E.01753
G1 X128.716 Y37.575 E.42452
G1 X128.321 Y37.575 E.01753
G1 X128.321 Y47.145 E.42452
G1 X127.926 Y47.145 E.01753
G1 X127.926 Y37.575 E.42452
G1 X127.531 Y37.575 E.01753
G1 X127.531 Y44.145 E.29145
G1 X127.135 Y44.145 E.01753
G1 X127.135 Y37.575 E.29145
G1 X126.74 Y37.575 E.01753
G1 X126.74 Y44.145 E.29145
G1 X126.345 Y44.145 E.01753
G1 X126.345 Y37.575 E.29145
G1 X125.95 Y37.575 E.01753
G1 X125.95 Y44.145 E.29145
G1 X125.555 Y44.145 E.01753
G1 X125.555 Y37.575 E.29145
G1 X125.16 Y37.575 E.01753
G1 X125.16 Y44.145 E.29145
G1 X124.765 Y44.145 E.01753
G1 X124.765 Y37.575 E.29145
G1 X124.369 Y37.575 E.01753
G1 X124.369 Y44.145 E.29145
G1 X123.974 Y44.145 E.01753
G1 X123.974 Y37.575 E.29145
G1 X123.579 Y37.575 E.01753
G1 X123.579 Y44.145 E.29145
G1 X123.184 Y44.145 E.01753
G1 X123.184 Y37.575 E.29145
G1 X122.789 Y37.575 E.01753
G1 X122.789 Y44.145 E.29145
G1 X122.394 Y44.145 E.01753
G1 X122.394 Y37.575 E.29145
G1 X121.999 Y37.575 E.01753
G1 X121.999 Y44.145 E.29145
G1 X121.604 Y44.145 E.01749
G1 X121.604 Y47.837 E.16374
G1 X121.999 Y47.837 E.01749
G1 X121.999 Y49.777 E.08603
G1 X121.604 Y49.777 E.01753
G1 X121.604 Y37.575 E.54123
G1 X121.208 Y37.575 E.01753
G1 X121.208 Y49.777 E.54123
G1 X120.813 Y49.777 E.01753
G1 X120.813 Y37.575 E.54123
G1 X120.418 Y37.575 E.01753
G1 X120.418 Y49.777 E.54123
G1 X120.023 Y49.777 E.01753
M73 P1 R117
G1 X120.023 Y37.575 E.54123
G1 X119.628 Y37.575 E.01753
M73 Q1 S119
G1 X119.628 Y49.777 E.54123
G1 X119.233 Y49.777 E.01753
G1 X119.233 Y37.575 E.54123
G1 X118.838 Y37.575 E.01753
G1 X118.838 Y49.777 E.54123
G1 X118.443 Y49.777 E.01753
G1 X118.443 Y37.575 E.54123
G1 X118.047 Y37.575 E.01753
G1 X118.047 Y49.777 E.54123
G1 X117.652 Y49.777 E.01753
G1 X117.652 Y37.575 E.54123
G1 X117.257 Y37.575 E.01753
G1 X117.257 Y49.777 E.54123
G1 X116.862 Y49.777 E.01753
G1 X116.862 Y37.575 E.54123
G1 X116.467 Y37.575 E.01753
G1 X116.467 Y49.777 E.54123
G1 X116.072 Y49.777 E.01753
G1 X116.072 Y37.575 E.54123
G1 X115.677 Y37.575 E.01753
G1 X115.677 Y49.777 E.54123
G1 X115.281 Y49.777 E.01753
G1 X115.281 Y37.575 E.54123
G1 X114.886 Y37.575 E.01753
G1 X114.886 Y49.777 E.54123
G1 X114.491 Y49.777 E.01753
G1 X114.491 Y37.575 E.54123
G1 X114.096 Y37.575 E.01753
G1 X114.096 Y49.777 E.54123
G1 X113.701 Y49.777 E.01753
G1 X113.701 Y37.575 E.54123
G1 X113.306 Y37.575 E.01753
G1 X113.306 Y49.777 E.54123
G1 X112.911 Y49.777 E.01753
G1 X112.911 Y37.415 E.54832
M204 S1000
;WIPE_START
G1 F8640
G1 X112.911 Y43.175 E-1.33
;WIPE_END
G1 E-.07 F2100
G1 Z.5 F720
G1 X124.765 Y47.305 F10800
G1 Z.3 F720
G1 E1.4 F2100
M204 S800
G1 F1200
G1 X124.765 Y46.949 E.01583
G1 X124.369 Y46.948 E.01753
G1 X124.369 Y47.199 E.01114
G1 X123.974 Y47.2 E.01753
G1 X123.974 Y46.948 E.01118
G1 X123.579 Y46.947 E.01753
G1 X123.579 Y47.2 E.01121
G1 X123.184 Y47.2 E.01753
G1 X123.184 Y46.787 E.01833
M204 S1000
;WIPE_START
G1 F8640
G1 X123.184 Y47.2 E-.09541
G1 X123.579 Y47.2 E-.09124
G1 X123.579 Y46.947 E-.05837
G1 X123.974 Y46.948 E-.09124
G1 X123.974 Y47.2 E-.05818
G1 X124.369 Y47.199 E-.09124
G1 X124.369 Y46.948 E-.05799
G1 X124.765 Y46.949 E-.09124
G1 X124.765 Y47.305 E-.08243
;WIPE_END
G1 E-.68268 F2100
G1 Z.5 F720
G1 X82.382 Y114.934 F10800
G1 Z.3 F720
G1 E1.4 F2100
M204 S800
G1 F1200
G1 X73.032 Y114.934 E.4147
G1 X73.032 Y102.092 E.56962
G1 X82.382 Y102.092 E.4147
G1 X82.382 Y114.881 E.56725
M204 S1000
G1 X81.695 Y114.774 F10800
M204 S800
G1 F1200
G1 X81.695 Y102.412 E.54832
G1 X81.3 Y102.412 E.01753
G1 X81.3 Y114.614 E.54123
G1 X80.905 Y114.614 E.01753
G1 X80.905 Y102.412 E.54123
G1 X80.51 Y102.412 E.01753
G1 X80.51 Y114.614 E.54123
G1 X80.115 Y114.614 E.01753
G1 X80.115 Y102.412 E.54123
G1 X79.72 Y102.412 E.01753
G1 X79.72 Y114.614 E.54123
G1 X79.324 Y114.614 E.01753
G1 X79.324 Y102.412 E.54123
G1 X78.929 Y102.412 E.01753
G1 X78.929 Y114.614 E.54123
G1 X78.534 Y114.614 E.01753
G1 X78.534 Y102.412 E.54123
G1 X78.139 Y102.412 E.01753
G1 X78.139 Y114.614 E.54123
G1 X77.744 Y114.614 E.01753
G1 X77.744 Y102.412 E.54123
G1 X77.349 Y102.412 E.01753
G1 X77.349 Y114.614 E.54123
G1 X76.954 Y114.614 E.01753
G1 X76.954 Y102.412 E.54123
G1 X76.559 Y102.412 E.01753
G1 X76.559 Y114.614 E.54123
G1 X76.163 Y114.614 E.01753
G1 X76.163 Y102.412 E.54123
G1 X75.768 Y102.412 E.01753
G1 X75.768 Y114.614 E.54123
G1 X75.373 Y114.614 E.01753
G1 X75.373 Y102.412 E.54123
G1 X74.978 Y102.412 E.01753
M73 P1 R116
G1 X74.978 Y114.614 E.54123
G1 X74.583 Y114.614 E.01753
G1 X74.583 Y102.412 E.54123
G1 X74.188 Y102.412 E.01753
G1 X74.188 Y114.614 E.54123
G1 X73.793 Y114.614 E.01753
G1 X73.793 Y102.412 E.54123
G1 X73.397 Y102.412 E.01753
G1 X73.397 Y114.774 E.54832
M204 S1000
;WIPE_START
G1 F8640
M73 Q1 S118
G1 X73.397 Y109.014 E-1.33
;WIPE_END
G1 E-.07 F2100
G1 Z.5 F720
G1 X122.638 Y96.991 F10800
G1 Z.3 F720
G1 E1.4 F2100
M204 S800
;TYPE:Perimeter
;WIDTH:0.42
G1 F1200
G1 X122.44 Y97.047 E.00913
G1 X122.256 Y97.237 E.0117
G1 X122.186 Y97.501 E.01213
G1 X122.186 Y124.118 E1.18057
G1 X83.717 Y124.118 E1.70627
G1 X83.717 Y63.797 E2.6755
;WIDTH:0.465306
G1 X83.74 Y63.463 E.01677
;WIDTH:0.510612
G1 X83.763 Y63.128 E.01867
;WIDTH:0.555919
G1 X83.785 Y62.794 E.02056
;WIDTH:0.581011
G1 X83.798 Y62.726 E.00444
G1 X83.773 Y62.123 E.0389
;WIDTH:0.531256
G1 X83.749 Y61.086 E.06037
;WIDTH:0.482686
G1 X83.746 Y49.09 E.62586
;WIDTH:0.476955
G1 X83.746 Y48.884 E.01062
G1 X84.158 Y48.884 E.02122
G1 X84.158 Y49.09 E.0106
;WIDTH:0.482686
G1 X84.167 Y61.086 E.62586
;WIDTH:0.484513
G1 X84.169 Y61.14 E.00285
;WIDTH:0.509825
G1 X84.206 Y61.641 E.02789
;WIDTH:0.535138
G1 X84.242 Y62.142 E.02948
;WIDTH:0.555919
G1 X84.333 Y62.726 E.03625
G1 X84.436 Y63.045 E.02056
;WIDTH:0.510612
G1 X84.539 Y63.364 E.01867
;WIDTH:0.465306
G1 X84.643 Y63.683 E.01677
;WIDTH:0.42
G1 X85.016 Y64.727 E.04918
G1 X85.445 Y65.635 E.04452
G1 X85.732 Y66.14 E.02579
G1 X86.312 Y67.007 E.04625
G1 X86.647 Y67.433 E.02405
G1 X87.358 Y68.214 E.04684
G1 X88.132 Y68.913 E.04626
G1 X88.56 Y69.246 E.02405
G1 X89.44 Y69.83 E.04684
G1 X90.36 Y70.321 E.04626
G1 X90.857 Y70.539 E.02405
G1 X91.852 Y70.892 E.04684
G1 X92.826 Y71.136 E.04452
G1 X93.385 Y71.234 E.0252
G1 X93.923 Y71.299 E.02403
G1 X94.949 Y71.349 E.04554
G1 X112.955 Y71.349 E.79867
G1 X113.981 Y71.299 E.04554
G1 X114.599 Y71.221 E.02767
G1 X115.582 Y71.023 E.04446
G1 X116.142 Y70.864 E.02584
G1 X117.096 Y70.519 E.04496
G1 X118.003 Y70.09 E.04452
