; generated by PrusaSlicer 2.5.0 on 2023-03-02 at 16:15:40 UTC


;
;
; 

; external perimeters extrusion width = 0.60mm
; perimeters extrusion width = 0.50mm
; infill extrusion width = 0.50mm
; solid infill extrusion width = 0.50mm
; top infill extrusion width = 0.45mm
; support material extrusion width = 0.38mm
; first layer extrusion width = 0.42mm

; external perimeters extrusion width = 0.60mm
; perimeters extrusion width = 0.50mm
; infill extrusion width = 0.50mm
; solid infill extrusion width = 0.50mm
; top infill extrusion width = 0.45mm
; support material extrusion width = 0.38mm
; first layer extrusion width = 0.42mm

M73 P0 R120
M73 Q0 S122
M201 X1000 Y1000 Z200 E5000 ; sets maximum accelerations, mm/sec^2
M203 X200 Y200 Z12 E120 ; sets maximum feedrates, mm / sec
M204 P1250 R1250 T1250 ; sets acceleration (P, T) and retract acceleration (R), mm/sec^2
M205 X8.00 Y8.00 Z0.40 E4.50 ; sets the jerk limits, mm/sec
M205 S0 T0 ; sets the minimum extruding and travel feed rate, mm/sec
M107 ; disable fan
;TYPE:Custom
M862.3 P "MK3S" ; printer model check
M862.1 P0.4 ; nozzle diameter check
M115 U3.11.0 ; tell printer latest fw version
G90 ; use absolute coordinates
M83 ; extruder relative mode
M104 S240 ; set extruder temp
M140 S95 ; set bed temp
M190 S95 ; wait for bed temp
M109 S240 ; wait for extruder temp
G28 W ; home all without mesh bed level
G80 ; mesh bed leveling

G1 Z0.2 F720
G1 Y-3 F1000 ; go outside print area
G92 E0
G1 X60 E9 F1000 ; intro line
G1 X100 E12.5 F1000 ; intro line

G92 E0
M221 S95

; Don't change E values below. Excessive value can damage the printer.

M907 E538 ; set extruder motor current
G21 ; set units to millimeters
G90 ; use absolute coordinates
M83 ; use relative distances for extrusion
M900 K0.08 ; Filament gcode LA 1.5
M900 K45 ; Filament gcode LA 1.0
M107 ; disable fan
;LAYER_CHANGE
;Z:0.3
;HEIGHT:0.3
;BEFORE_LAYER_CHANGE
G92 E0.0
;0.3


G1 E-1.4 F2100 ; retract
G1 Z.2 F720 ; lift Z
G1 Z.3 ; move to next layer (0)
;AFTER_LAYER_CHANGE
;0.3
G1 Z.5 ; lift Z
G1 X81.713 Y46.553 F10800 ; move to first skirt point
G1 Z.3 F720 ; restore layer Z
G1 E1.4 F2100 ;  ; unretract
M204 S800 ; adjust acceleration
;TYPE:Skirt/Brim
;WIDTH:0.42
G1 F1200
G1 X82.844 Y45.801 E.06024 ; skirt
G1 X83.527 Y45.7 E.03065 ; skirt
G1 X176.473 Y45.7 E4.12257 ; skirt
G1 X177.773 Y46.091 E.06024 ; skirt
G1 X178.641 Y47.136 E.06024 ; skirt
G1 X178.815 Y47.805 E.03065 ; skirt
G1 X185.762 Y112.642 E2.89231 ; skirt
G1 X185.775 Y128.051 E.68346 ; skirt
G1 X185.088 Y129.714 E.07982 ; skirt
G1 X175.168 Y139.663 E.62316 ; skirt
G1 X173.5 Y140.356 E.08011 ; skirt
G1 X86.5 Y140.356 E3.85887 ; skirt
G1 X84.832 Y139.663 E.08011 ; skirt
G1 X74.912 Y129.714 E.62316 ; skirt
G1 X74.225 Y128.051 E.07982 ; skirt
G1 X74.238 Y112.642 E.68346 ; skirt
G1 X81.185 Y47.805 E2.89231 ; skirt
G1 X81.69 Y46.608 E.05758 ; skirt
M204 S1000 ; adjust acceleration
; printing object 3BR_calf-Body.stl id:1 copy 0
;WIPE_START
G1 F8640
G1 X82.844 Y45.801 E-.32524 ; wipe and retract
G1 X83.527 Y45.7 E-.15954 ; wipe and retract
G1 X87.188 Y45.7 E-.84523 ; wipe and retract
;WIPE_END
G1 E-.07 F2100 ; retract
G1 Z.5 F720 ; lift Z
G1 X139.423 Y50.371 F10800 ; move to first support material point
G1 Z.3 F720 ; restore layer Z
G1 E1.4 F2100 ;  ; unretract
M204 S800 ; adjust acceleration
;TYPE:Support material
G1 F1200
G1 X144.054 Y50.371 E.20542 ; support material
G1 X144.054 Y63.213 E.56962 ; support material
G1 X134.07 Y63.213 E.44284 ; support material
G1 X134.07 Y60.971 E.09945 ; support material
G1 X133.736 Y60.637 E.02093 ; support material
G1 X131.263 Y60.637 E.10969 ; support material
G1 X130.93 Y60.971 E.02093 ; support material
G1 X130.93 Y62.326 E.0601 ; support material
G1 X128.896 Y62.328 E.09021 ; support material
G1 X128.896 Y48.056 E.63306 ; support material
G1 X139.423 Y48.056 E.46691 ; support material
G1 X139.423 Y50.318 E.10034 ; support material
M204 S1000 ; adjust acceleration
G1 X143.541 Y63.053 F10800 ; move to first support material point
M204 S800 ; adjust acceleration
G1 F1200
G1 X143.541 Y50.691 E.54832 ; support material
G1 X143.146 Y50.691 E.01753 ; support material
G1 X143.146 Y62.893 E.54123 ; support material
G1 X142.751 Y62.893 E.01753 ; support material
G1 X142.751 Y50.691 E.54123 ; support material
G1 X142.356 Y50.691 E.01753 ; support material
G1 X142.356 Y62.893 E.54123 ; support material
G1 X141.961 Y62.893 E.01753 ; support material
G1 X141.961 Y50.691 E.54123 ; support material
G1 X141.566 Y50.691 E.01753 ; support material
G1 X141.566 Y62.893 E.54123 ; support material
G1 X141.17 Y62.893 E.01753 ; support material
G1 X141.17 Y50.691 E.54123 ; support material
G1 X140.775 Y50.691 E.01753 ; support material
G1 X140.775 Y62.893 E.54123 ; support material
G1 X140.38 Y62.893 E.01753 ; support material
G1 X140.38 Y50.691 E.54123 ; support material
G1 X139.985 Y50.691 E.01753 ; support material
M73 P0 R119
G1 X139.985 Y62.893 E.54123 ; support material
G1 X139.59 Y62.893 E.01753 ; support material
G1 X139.59 Y50.691 E.54123 ; support material
G1 X139.195 Y50.691 E.01753 ; support material
G1 X139.195 Y62.893 E.54123 ; support material
G1 X138.8 Y62.893 E.01753 ; support material
G1 X138.8 Y48.376 E.64393 ; support material
G1 X138.404 Y48.376 E.01753 ; support material
G1 X138.404 Y62.893 E.64393 ; support material
G1 X138.009 Y62.893 E.01753 ; support material
G1 X138.009 Y48.376 E.64393 ; support material
G1 X137.614 Y48.376 E.01753 ; support material
G1 X137.614 Y62.893 E.64393 ; support material
G1 X137.219 Y62.893 E.01753 ; support material
G1 X137.219 Y48.376 E.64393 ; support material
G1 X136.824 Y48.376 E.01753 ; support material
G1 X136.824 Y62.893 E.64393 ; support material
G1 X136.429 Y62.893 E.01753 ; support material
M73 Q0 S121
G1 X136.429 Y48.376 E.64393 ; support material
G1 X136.034 Y48.376 E.01753 ; support material
G1 X136.034 Y62.893 E.64393 ; support material
G1 X135.639 Y62.893 E.01753 ; support material
G1 X135.639 Y48.376 E.64393 ; support material
G1 X135.243 Y48.376 E.01753 ; support material
G1 X135.243 Y62.893 E.64393 ; support material
G1 X134.848 Y62.893 E.01753 ; support material
G1 X134.848 Y48.376 E.64393 ; support material
G1 X134.453 Y48.376 E.01753 ; support material
G1 X134.453 Y62.893 E.64393 ; support material
G1 X134.39 Y62.893 E.0028 ; support material
G1 X134.39 Y60.839 E.09113 ; support material
G1 X134.058 Y60.506 E.02084 ; support material
G1 X134.058 Y48.376 E.53806 ; support material
G1 X133.663 Y48.376 E.01753 ; support material
G1 X133.663 Y60.317 E.52967 ; support material
G1 X133.268 Y60.317 E.01753 ; support material
G1 X133.268 Y48.376 E.52966 ; support material
G1 X132.873 Y48.376 E.01753 ; support material
G1 X132.873 Y60.317 E.52964 ; support material
G1 X132.477 Y60.316 E.01753 ; support material
G1 X132.477 Y48.376 E.52962 ; support material
G1 X132.082 Y48.376 E.01753 ; support material
G1 X132.082 Y60.316 E.52961 ; support material
G1 X131.687 Y60.316 E.01753 ; support material
G1 X131.687 Y48.376 E.52963 ; support material
G1 X131.292 Y48.376 E.01753 ; support material
G1 X131.292 Y60.317 E.52965 ; support material
G1 X131.131 Y60.317 E.00717 ; support material
G1 X130.897 Y60.551 E.01466 ; support material
G1 X130.897 Y48.376 E.54003 ; support material
G1 X130.502 Y48.376 E.01753 ; support material
G1 X130.502 Y62.006 E.60459 ; support material
G1 X130.107 Y62.007 E.01753 ; support material
G1 X130.107 Y48.376 E.60461 ; support material
G1 X129.712 Y48.376 E.01753 ; support material
G1 X129.712 Y62.007 E.60463 ; support material
G1 X129.316 Y62.008 E.01753 ; support material
G1 X129.316 Y48.216 E.61175 ; support material
M204 S1000 ; adjust acceleration
;WIPE_START
G1 F8640
G1 X129.316 Y53.976 E-1.33 ; wipe and retract
;WIPE_END
G1 E-.07 F2100 ; retract
G1 Z.5 F720 ; lift Z
G1 X176.473 Y66.31 F10800 ; move to first support material point
G1 Z.3 F720 ; restore layer Z
G1 E1.4 F2100 ;  ; unretract
M204 S800 ; adjust acceleration
G1 F1200
G1 X174.07 Y63.904 E.1508 ; support material
G1 X174.07 Y60.971 E.13012 ; support material
G1 X173.737 Y60.637 E.02093 ; support material
G1 X171.264 Y60.637 E.10969 ; support material
G1 X170.93 Y60.971 E.02093 ; support material
G1 X170.93 Y63.213 E.09945 ; support material
G1 X161.315 Y63.213 E.42648 ; support material
G1 X161.315 Y50.371 E.56962 ; support material
G1 X165.946 Y50.371 E.20542 ; support material
G1 X165.946 Y48.056 E.10271 ; support material
G1 X176.473 Y48.056 E.46691 ; support material
G1 X176.473 Y66.257 E.80731 ; support material
M204 S1000 ; adjust acceleration
G1 X175.942 Y65.552 F10800 ; move to first support material point
M204 S800 ; adjust acceleration
G1 F1200
G1 X175.942 Y48.376 E.76186 ; support material
G1 X175.547 Y48.376 E.01753 ; support material
G1 X175.547 Y64.93 E.73427 ; support material
G1 X175.152 Y64.535 E.0248 ; support material
G1 X175.152 Y48.376 E.71673 ; support material
G1 X174.757 Y48.376 E.01753 ; support material
G1 X174.757 Y64.139 E.69918 ; support material
G1 X174.39 Y63.772 E.02301 ; support material
G1 X174.39 Y60.838 E.13012 ; support material
G1 X174.361 Y60.81 E.00179 ; support material
G1 X174.361 Y48.376 E.55151 ; support material
G1 X173.966 Y48.376 E.01753 ; support material
G1 X173.966 Y60.414 E.53396 ; support material
G1 X173.869 Y60.317 E.00608 ; support material
G1 X173.571 Y60.317 E.01323 ; support material
G1 X173.571 Y48.376 E.52964 ; support material
G1 X173.176 Y48.376 E.01753 ; support material
G1 X173.176 Y60.316 E.52962 ; support material
G1 X172.781 Y60.316 E.01753 ; support material
G1 X172.781 Y48.376 E.52961 ; support material
G1 X172.386 Y48.376 E.01753 ; support material
G1 X172.386 Y60.316 E.52963 ; support material
G1 X171.991 Y60.317 E.01753 ; support material
G1 X171.991 Y48.376 E.52965 ; support material
G1 X171.596 Y48.376 E.01753 ; support material
G1 X171.596 Y60.317 E.52966 ; support material
G1 X171.2 Y60.317 E.01753 ; support material
G1 X171.2 Y48.376 E.52968 ; support material
G1 X170.805 Y48.376 E.01753 ; support material
G1 X170.805 Y60.643 E.54413 ; support material
G1 X170.61 Y60.839 E.01226 ; support material
G1 X170.61 Y62.893 E.09113 ; support material
G1 X170.41 Y62.893 E.00886 ; support material
G1 X170.41 Y48.376 E.64393 ; support material
G1 X170.015 Y48.376 E.01753 ; support material
G1 X170.015 Y62.893 E.64393 ; support material
G1 X169.62 Y62.893 E.01753 ; support material
G1 X169.62 Y48.376 E.64393 ; support material
G1 X169.225 Y48.376 E.01753 ; support material
M73 P1 R119
G1 X169.225 Y62.893 E.64393 ; support material
G1 X168.83 Y62.893 E.01753 ; support material
M73 Q1 S121
G1 X168.83 Y48.376 E.64393 ; support material
G1 X168.434 Y48.376 E.01753 ; support material
G1 X168.434 Y62.893 E.64393 ; support material
G1 X168.039 Y62.893 E.01753 ; support material
G1 X168.039 Y48.376 E.64393 ; support material
G1 X167.644 Y48.376 E.01753 ; support material
G1 X167.644 Y62.893 E.64393 ; support material
G1 X167.249 Y62.893 E.01753 ; support material
G1 X167.249 Y48.376 E.64393 ; support material
G1 X166.854 Y48.376 E.01753 ; support material
G1 X166.854 Y62.893 E.64393 ; support material
G1 X166.459 Y62.893 E.01753 ; support material
G1 X166.459 Y48.376 E.64393 ; support material
G1 X166.266 Y48.376 E.00855 ; support material
G1 X166.266 Y50.691 E.10271 ; support material
G1 X166.064 Y50.691 E.00898 ; support material
G1 X166.064 Y62.893 E.54123 ; support material
G1 X165.669 Y62.893 E.01753 ; support material
G1 X165.669 Y50.691 E.54123 ; support material
G1 X165.273 Y50.691 E.01753 ; support material
G1 X165.273 Y62.893 E.54123 ; support material
G1 X164.878 Y62.893 E.01753 ; support material
G1 X164.878 Y50.691 E.54123 ; support material
G1 X164.483 Y50.691 E.01753 ; support material
G1 X164.483 Y62.893 E.54123 ; support material
G1 X164.088 Y62.893 E.01753 ; support material
G1 X164.088 Y50.691 E.54123 ; support material
G1 X163.693 Y50.691 E.01753 ; support material
G1 X163.693 Y62.893 E.54123 ; support material
G1 X163.298 Y62.893 E.01753 ; support material
G1 X163.298 Y50.691 E.54123 ; support material
G1 X162.903 Y50.691 E.01753 ; support material
G1 X162.903 Y62.893 E.54123 ; support material
G1 X162.508 Y62.893 E.01753 ; support material
G1 X162.508 Y50.691 E.54123 ; support material
G1 X162.112 Y50.691 E.01753 ; support material
G1 X162.112 Y62.893 E.54123 ; support material
G1 X161.717 Y62.893 E.01753 ; support material
G1 X161.717 Y50.531 E.54832 ; support material
M204 S1000 ; adjust acceleration
;WIPE_START
G1 F8640
G1 X161.717 Y56.291 E-1.33 ; wipe and retract
;WIPE_END
G1 E-.07 F2100 ; retract
G1 Z.5 F720 ; lift Z
G1 X183.42 Y128.051 F10800 ; move to first support material point
G1 Z.3 F720 ; restore layer Z
G1 E1.4 F2100 ;  ; unretract
M204 S800 ; adjust acceleration
G1 F1200
G1 X174.07 Y128.051 E.4147 ; support material
G1 X174.07 Y112.893 E.67233 ; support material
G1 X183.42 Y112.893 E.4147 ; support material
G1 X183.42 Y127.997 E.66996 ; support material
M204 S1000 ; adjust acceleration
G1 X183.054 Y127.891 F10800 ; move to first support material point
M204 S800 ; adjust acceleration
G1 F1200
G1 X183.054 Y113.213 E.65103 ; support material
G1 X182.659 Y113.213 E.01753 ; support material
G1 X182.659 Y127.731 E.64393 ; support material
G1 X182.264 Y127.731 E.01753 ; support material
G1 X182.264 Y113.213 E.64393 ; support material
G1 X181.869 Y113.213 E.01753 ; support material
G1 X181.869 Y127.731 E.64393 ; support material
G1 X181.474 Y127.731 E.01753 ; support material
G1 X181.474 Y113.213 E.64393 ; support material
G1 X181.079 Y113.213 E.01753 ; support material
G1 X181.079 Y127.731 E.64393 ; support material
G1 X180.684 Y127.731 E.01753 ; support material
G1 X180.684 Y113.213 E.64393 ; support material
G1 X180.288 Y113.213 E.01753 ; support material
G1 X180.288 Y127.731 E.64393 ; support material
G1 X179.893 Y127.731 E.01753 ; support material
M73 P1 R118
G1 X179.893 Y113.213 E.64393 ; support material
G1 X179.498 Y113.213 E.01753 ; support material
G1 X179.498 Y127.731 E.64393 ; support material
G1 X179.103 Y127.731 E.01753 ; support material
G1 X179.103 Y113.213 E.64393 ; support material
G1 X178.708 Y113.213 E.01753 ; support material
G1 X178.708 Y127.731 E.64393 ; support material
G1 X178.313 Y127.731 E.01753 ; support material
G1 X178.313 Y113.213 E.64393 ; support material
G1 X177.918 Y113.213 E.01753 ; support material
G1 X177.918 Y127.731 E.64393 ; support material
G1 X177.523 Y127.731 E.01753 ; support material
G1 X177.523 Y113.213 E.64393 ; support material
G1 X177.127 Y113.213 E.01753 ; support material
G1 X177.127 Y127.731 E.64393 ; support material
G1 X176.732 Y127.731 E.01753 ; support material
M73 Q1 S120
G1 X176.732 Y113.213 E.64393 ; support material
G1 X176.337 Y113.213 E.01753 ; support material
G1 X176.337 Y127.731 E.64393 ; support material
G1 X175.942 Y127.731 E.01753 ; support material
G1 X175.942 Y113.213 E.64393 ; support material
G1 X175.547 Y113.213 E.01753 ; support material
G1 X175.547 Y127.731 E.64393 ; support material
G1 X175.152 Y127.731 E.01753 ; support material
G1 X175.152 Y113.213 E.64393 ; support material
G1 X174.757 Y113.213 E.01753 ; support material
G1 X174.757 Y127.891 E.65103 ; support material
M204 S1000 ; adjust acceleration
;WIPE_START
G1 F8640
G1 X174.757 Y122.131 E-1.33 ; wipe and retract
;WIPE_END
G1 E-.07 F2100 ; retract
G1 Z.5 F720 ; lift Z
G1 X172.734 Y137.234 F10800 ; move to first perimeter point
G1 Z.3 F720 ; restore layer Z
G1 E1.4 F2100 ;  ; unretract
M204 S800 ; adjust acceleration
;TYPE:Perimeter
;WIDTH:0.42
G1 F1200
G1 X134.266 Y137.234 E1.70627 ; perimeter
G1 X134.266 Y110.618 E1.18057 ; perimeter
G1 X134.195 Y110.353 E.01213 ; perimeter
G1 X134.012 Y110.164 E.0117 ; perimeter
G1 X133.732 Y110.084 E.01291 ; perimeter
G1 X132.266 Y110.084 E.06505 ; perimeter
G1 X132.266 Y76.367 E1.49551 ; perimeter
;WIDTH:0.457515
G1 X132.284 Y76.033 E.01643 ; perimeter
;WIDTH:0.49503
G1 X132.303 Y75.698 E.018 ; perimeter
;WIDTH:0.532545
G1 X132.322 Y75.364 E.01957 ; perimeter
;WIDTH:0.533883
G1 X132.298 Y74.278 E.06358 ; perimeter
