; generated by PrusaSlicer 2.4.2 on 2022-09-05 at 16:52:50 UTC

; 

; external perimeters extrusion width = 0.60mm
; perimeters extrusion width = 0.50mm
; infill extrusion width = 0.50mm
; solid infill extrusion width = 0.50mm
; top infill extrusion width = 0.45mm
; first layer extrusion width = 0.42mm

M73 P0 R26
M73 Q0 S27
M201 X1000 Y1000 Z200 E5000 ; sets maximum accelerations, mm/sec^2
M203 X200 Y200 Z12 E120 ; sets maximum feedrates, mm / sec
M204 P1250 R1250 T1250 ; sets acceleration (P, T) and retract acceleration (R), mm/sec^2
M205 X8.00 Y8.00 Z0.40 E4.50 ; sets the jerk limits, mm/sec
M205 S0 T0 ; sets the minimum extruding and travel feed rate, mm/sec
M107
;TYPE:Custom
M862.3 P "MK3S" ; printer model check
M862.1 P0.4 ; nozzle diameter check
M115 U3.10.1 ; tell printer latest fw version
G90 ; use absolute coordinates
M83 ; extruder relative mode
M104 S240 ; set extruder temp
M140 S95 ; set bed temp
M190 S95 ; wait for bed temp
M109 S240 ; wait for extruder temp
G28 W ; home all without mesh bed level
G80 ; mesh bed leveling
G1 Z0.2 F720
G1 Y-3 F1000 ; go outside print area
G92 E0
G1 X60 E9 F1000 ; intro line
G1 X100 E12.5 F1000 ; intro line
G92 E0
M221 S95

; Don't change E values below. Excessive value can damage the printer.

M907 E538 ; set extruder motor current
G21 ; set units to millimeters
G90 ; use absolute coordinates
M83 ; use relative distances for extrusion
M900 K0.08 ; Filament gcode LA 1.5
M900 K45 ; Filament gcode LA 1.0
M107
;LAYER_CHANGE
;Z:0.3
;HEIGHT:0.3
;BEFORE_LAYER_CHANGE
G92 E0.0
;0.3


G1 E-1.4 F2100
M73 Q0 S26
G1 Z.2 F720
G1 Z.3
;AFTER_LAYER_CHANGE
;0.3
G1 Z.5
G1 X94.036 Y68.567 F10800
G1 Z.3 F720
G1 E1.4 F2100
M204 S800
;TYPE:Skirt/Brim
;WIDTH:0.42
G1 F1200
G1 X95.08 Y67.699 E.06024
G1 X96 Y67.512 E.04163
G1 X154 Y67.512 E2.57258
G1 X155.3 Y67.903 E.06024
G1 X156.169 Y68.948 E.06024
G1 X156.356 Y69.867 E.04163
G1 X156.356 Y140.133 E3.1166
G1 X155.964 Y141.433 E.06024
G1 X154.92 Y142.301 E.06024
G1 X154 Y142.488 E.04163
G1 X96 Y142.488 E2.57258
G1 X94.7 Y142.097 E.06024
M73 P1 R26
M73 Q1 S26
G1 X93.831 Y141.052 E.06024
G1 X93.644 Y140.133 E.04163
G1 X93.644 Y69.867 E3.1166
G1 X94.019 Y68.624 E.05758
M204 S1000
; printing object 3F_shin-Body.stl id:0 copy 0
;WIPE_START
G1 F8640
G1 X95.08 Y67.699 E-.32524
G1 X96 Y67.512 E-.21671
G1 X99.413 Y67.512 E-.78805
;WIPE_END
G1 E-.07 F2100
G1 Z.5 F720
G1 X96.766 Y72.052 F10800
G1 Z.3 F720
G1 E1.4 F2100
M204 S800
;TYPE:Perimeter
G1 F1200
G1 X97.234 Y72.052 E.02079
G1 X97.234 Y85.766 E.60826
G1 X152.766 Y85.766 E2.46308
G1 X152.766 Y72.052 E.60826
G1 X153.234 Y72.052 E.02079
G1 X153.234 Y137.948 E2.9228
G1 X152.766 Y137.948 E.02079
G1 X152.766 Y124.234 E.60826
G1 X97.234 Y124.234 E2.46308
G1 X97.234 Y137.948 E.60826
G1 X96.766 Y137.948 E.02079
M73 P2 R26
M73 Q2 S26
G1 X96.766 Y72.112 E2.92014
M204 S1000
G1 X96.41 Y71.696 F10800
M204 S800
;TYPE:External perimeter
G1 F1200
G1 X97.59 Y71.696 E.05234
G1 X97.59 Y85.41 E.60826
G1 X152.41 Y85.41 E2.43153
G1 X152.41 Y71.696 E.60826
G1 X153.59 Y71.696 E.05234
G1 X153.59 Y138.304 E2.95435
G1 X152.41 Y138.304 E.05234
G1 X152.41 Y124.59 E.60826
G1 X97.59 Y124.59 E2.43153
G1 X97.59 Y138.304 E.60826
G1 X96.41 Y138.304 E.05234
G1 X96.41 Y71.756 E2.95169
M204 S1000
G1 X96.758 Y71.894 F10800
M73 P3 R26
M73 Q3 S26
G1 X97 Y72.23
M204 S800
;TYPE:Gap fill
;WIDTH:0.177525
G1 F1200
M73 P3 R25
G1 X97 Y85.943 E.19353
M204 S1000
;WIPE_START
G1 F8640
G1 X97 Y80.183 E-1.33
;WIPE_END
G1 E-.07 F2100
G1 Z.5 F720
G1 X97 Y124.057 F10800
G1 Z.3 F720
G1 E1.4 F2100
M204 S800
G1 F1200
G1 X97 Y137.77 E.19353
M204 S1000
;WIPE_START
G1 F8640
G1 X97 Y132.01 E-1.33
;WIPE_END
G1 E-.07 F2100
G1 Z.5 F720
G1 X153 Y137.77 F10800
G1 Z.3 F720
G1 E1.4 F2100
M204 S800
G1 F1200
G1 X153 Y124.057 E.19353
M204 S1000
;WIPE_START
G1 F8640
G1 X153 Y129.817 E-1.33
;WIPE_END
G1 E-.07 F2100
G1 Z.5 F720
G1 X153.128 Y86.77 F10800
G1 Z.3 F720
G1 E1.4 F2100
M204 S800
;TYPE:Solid infill
;WIDTH:0.42068
G1 F1200
G1 X152.39 Y86.032 E.04639
G1 X151.886 Y86.032 E.02239
G1 X152.968 Y87.114 E.068
G1 X152.968 Y87.618 E.02239
G1 X151.382 Y86.032 E.09967
G1 X150.878 Y86.032 E.02239
G1 X152.968 Y88.122 E.13133
G1 X152.968 Y88.626 E.02239
G1 X150.374 Y86.032 E.163
G1 X149.87 Y86.032 E.02239
G1 X152.968 Y89.13 E.19467
G1 X152.968 Y89.634 E.02239
G1 X149.366 Y86.032 E.22634
G1 X148.862 Y86.032 E.02239
G1 X152.968 Y90.138 E.258
G1 X152.968 Y90.641 E.02239
G1 X148.359 Y86.032 E.28967
G1 X147.855 Y86.032 E.02239
G1 X152.968 Y91.145 E.32134
G1 X152.968 Y91.649 E.02239
G1 X147.351 Y86.032 E.35301
G1 X146.847 Y86.032 E.02239
G1 X152.968 Y92.153 E.38467
G1 X152.968 Y92.657 E.02239
G1 X146.343 Y86.032 E.41634
G1 X145.839 Y86.032 E.02239
G1 X152.968 Y93.161 E.44801
G1 X152.968 Y93.665 E.02239
G1 X145.335 Y86.032 E.47968
G1 X144.831 Y86.032 E.02239
G1 X152.968 Y94.169 E.51134
G1 X152.968 Y94.673 E.02239
G1 X144.327 Y86.032 E.54301
G1 X143.824 Y86.032 E.02239
G1 X152.968 Y95.176 E.57468
G1 X152.968 Y95.68 E.02239
G1 X143.32 Y86.032 E.60635
G1 X142.816 Y86.032 E.02239
G1 X152.968 Y96.184 E.63801
G1 X152.968 Y96.688 E.02239
G1 X142.312 Y86.032 E.66968
G1 X141.808 Y86.032 E.02239
M73 P4 R25
M73 Q4 S26
G1 X152.968 Y97.192 E.70135
G1 X152.968 Y97.696 E.02239
M73 Q4 S25
G1 X141.304 Y86.032 E.73302
G1 X140.8 Y86.032 E.02239
G1 X152.968 Y98.2 E.76468
G1 X152.968 Y98.704 E.02239
G1 X140.296 Y86.032 E.79635
G1 X139.793 Y86.032 E.02239
G1 X152.968 Y99.207 E.82802
G1 X152.968 Y99.711 E.02239
G1 X139.289 Y86.032 E.85969
G1 X138.785 Y86.032 E.02239
G1 X152.968 Y100.215 E.89135
G1 X152.968 Y100.719 E.02239
G1 X138.281 Y86.032 E.92302
G1 X137.777 Y86.032 E.02239
G1 X152.968 Y101.223 E.95469
G1 X152.968 Y101.727 E.02239
G1 X137.273 Y86.032 E.98636
G1 X136.769 Y86.032 E.02239
G1 X152.968 Y102.231 E1.01802
G1 X152.968 Y102.735 E.02239
G1 X136.265 Y86.032 E1.04969
G1 X135.761 Y86.032 E.02239
G1 X152.968 Y103.239 E1.08136
G1 X152.968 Y103.742 E.02239
G1 X135.258 Y86.032 E1.11303
G1 X134.754 Y86.032 E.02239
G1 X152.968 Y104.246 E1.14469
G1 X152.968 Y104.75 E.02239
M73 P5 R25
M73 Q5 S25
G1 X134.25 Y86.032 E1.17636
G1 X133.746 Y86.032 E.02239
G1 X152.968 Y105.254 E1.20803
G1 X152.968 Y105.758 E.02239
G1 X133.242 Y86.032 E1.2397
G1 X132.738 Y86.032 E.02239
G1 X152.968 Y106.262 E1.27136
G1 X152.968 Y106.766 E.02239
G1 X132.234 Y86.032 E1.30303
G1 X131.73 Y86.032 E.02239
G1 X152.968 Y107.27 E1.3347
G1 X152.968 Y107.773 E.02239
G1 X131.227 Y86.032 E1.36637
G1 X130.723 Y86.032 E.02239
G1 X152.968 Y108.277 E1.39804
G1 X152.968 Y108.781 E.02239
G1 X130.219 Y86.032 E1.4297
G1 X129.715 Y86.032 E.02239
G1 X152.968 Y109.285 E1.46137
G1 X152.968 Y109.789 E.02239
G1 X129.211 Y86.032 E1.49304
G1 X128.707 Y86.032 E.02239
M73 P6 R25
M73 Q6 S25
G1 X152.968 Y110.293 E1.52471
G1 X152.968 Y110.797 E.02239
G1 X128.203 Y86.032 E1.55637
G1 X127.699 Y86.032 E.02239
G1 X152.968 Y111.301 E1.58804
G1 X152.968 Y111.805 E.02239
G1 X127.195 Y86.032 E1.61971
G1 X126.692 Y86.032 E.02239
G1 X152.968 Y112.308 E1.65138
G1 X152.968 Y112.812 E.02239
G1 X126.188 Y86.032 E1.68304
G1 X125.684 Y86.032 E.02239
G1 X152.968 Y113.316 E1.71471
G1 X152.968 Y113.82 E.02239
G1 X125.18 Y86.032 E1.74638
G1 X124.676 Y86.032 E.02239
M73 P7 R24
G1 X152.968 Y114.324 E1.77805
G1 X152.968 Y114.828 E.02239
M73 Q7 S25
G1 X124.172 Y86.032 E1.80971
G1 X123.668 Y86.032 E.02239
G1 X152.968 Y115.332 E1.84138
G1 X152.968 Y115.836 E.02239
G1 X123.164 Y86.032 E1.87305
G1 X122.661 Y86.032 E.02239
G1 X152.968 Y116.339 E1.90472
G1 X152.968 Y116.843 E.02239
G1 X122.157 Y86.032 E1.93638
G1 X121.653 Y86.032 E.02239
M73 Q7 S24
G1 X152.968 Y117.347 E1.96805
G1 X152.968 Y117.851 E.02239
G1 X121.149 Y86.032 E1.99972
G1 X120.645 Y86.032 E.02239
M73 P8 R24
M73 Q8 S24
G1 X152.968 Y118.355 E2.03139
G1 X152.968 Y118.859 E.02239
G1 X120.141 Y86.032 E2.06305
G1 X119.637 Y86.032 E.02239
G1 X152.968 Y119.363 E2.09472
G1 X152.968 Y119.867 E.02239
G1 X119.133 Y86.032 E2.12639
G1 X118.629 Y86.032 E.02239
G1 X152.968 Y120.371 E2.15806
G1 X152.968 Y120.874 E.02239
G1 X118.126 Y86.032 E2.18972
G1 X117.622 Y86.032 E.02239
G1 X152.968 Y121.378 E2.22139
G1 X152.968 Y121.882 E.02239
M73 P9 R24
M73 Q9 S24
G1 X117.118 Y86.032 E2.25306
G1 X116.614 Y86.032 E.02239
G1 X152.968 Y122.386 E2.28473
G1 X152.968 Y122.89 E.02239
G1 X116.11 Y86.032 E2.31639
G1 X115.606 Y86.032 E.02239
G1 X152.968 Y123.394 E2.34806
G1 X152.968 Y123.79 E.0176
G1 X152.86 Y123.79 E.00479
G1 X115.102 Y86.032 E2.37295
G1 X114.598 Y86.032 E.02239
G1 X152.534 Y123.968 E2.38413
G1 X152.03 Y123.968 E.02239
M73 P10 R24
M73 Q10 S24
G1 X114.095 Y86.032 E2.38413
G1 X113.591 Y86.032 E.02239
G1 X151.526 Y123.968 E2.38413
G1 X151.022 Y123.968 E.02239
G1 X113.087 Y86.032 E2.38413
G1 X112.583 Y86.032 E.02239
M73 P10 R23
G1 X150.518 Y123.968 E2.38413
G1 X150.014 Y123.968 E.02239
G1 X112.079 Y86.032 E2.38413
G1 X111.575 Y86.032 E.02239
G1 X149.51 Y123.968 E2.38413
G1 X149.007 Y123.968 E.02239
M73 P11 R23
M73 Q11 S24
G1 X111.071 Y86.032 E2.38413
G1 X110.567 Y86.032 E.02239
G1 X148.503 Y123.968 E2.38413
G1 X147.999 Y123.968 E.02239
G1 X110.063 Y86.032 E2.38413
G1 X109.56 Y86.032 E.02239
M73 Q11 S23
G1 X147.495 Y123.968 E2.38413
G1 X146.991 Y123.968 E.02239
G1 X109.056 Y86.032 E2.38413
G1 X108.552 Y86.032 E.02239
G1 X146.487 Y123.968 E2.38413
G1 X145.983 Y123.968 E.02239
M73 P12 R23
M73 Q12 S23
G1 X108.048 Y86.032 E2.38413
G1 X107.544 Y86.032 E.02239
G1 X145.479 Y123.968 E2.38413
G1 X144.976 Y123.968 E.02239
G1 X107.04 Y86.032 E2.38413
G1 X106.536 Y86.032 E.02239
G1 X144.472 Y123.968 E2.38413
G1 X143.968 Y123.968 E.02239
G1 X106.032 Y86.032 E2.38413
G1 X105.528 Y86.032 E.02239
M73 P13 R23
G1 X143.464 Y123.968 E2.38413
G1 X142.96 Y123.968 E.02239
M73 Q13 S23
G1 X105.025 Y86.032 E2.38413
G1 X104.521 Y86.032 E.02239
G1 X142.456 Y123.968 E2.38413
G1 X141.952 Y123.968 E.02239
G1 X104.017 Y86.032 E2.38413
G1 X103.513 Y86.032 E.02239
G1 X141.448 Y123.968 E2.38413
G1 X140.944 Y123.968 E.02239
G1 X103.009 Y86.032 E2.38413
G1 X102.505 Y86.032 E.02239
M73 P14 R23
G1 X140.441 Y123.968 E2.38413
G1 X139.937 Y123.968 E.02239
M73 Q14 S23
G1 X102.001 Y86.032 E2.38413
G1 X101.497 Y86.032 E.02239
G1 X139.433 Y123.968 E2.38413
G1 X138.929 Y123.968 E.02239
M73 P14 R22
G1 X100.994 Y86.032 E2.38413
G1 X100.49 Y86.032 E.02239
G1 X138.425 Y123.968 E2.38413
G1 X137.921 Y123.968 E.02239
G1 X99.986 Y86.032 E2.38413
G1 X99.482 Y86.032 E.02239
M73 P15 R22
G1 X137.417 Y123.968 E2.38413
G1 X136.913 Y123.968 E.02239
M73 Q15 S23
G1 X98.978 Y86.032 E2.38413
G1 X98.474 Y86.032 E.02239
M73 Q15 S22
G1 X136.409 Y123.968 E2.38413
G1 X135.906 Y123.968 E.02239
G1 X97.97 Y86.032 E2.38413
G1 X97.466 Y86.032 E.02239
G1 X135.402 Y123.968 E2.38413
G1 X134.898 Y123.968 E.02239
G1 X97.14 Y86.21 E2.37295
G1 X97.032 Y86.21 E.0048
M73 P16 R22
G1 X97.032 Y86.606 E.01759
G1 X134.394 Y123.968 E2.34807
G1 X133.89 Y123.968 E.02239
M73 Q16 S22
G1 X97.032 Y87.11 E2.3164
G1 X97.032 Y87.614 E.02239
G1 X133.386 Y123.968 E2.28473
G1 X132.882 Y123.968 E.02239
G1 X97.032 Y88.118 E2.25307
G1 X97.032 Y88.622 E.02239
G1 X132.378 Y123.968 E2.2214
G1 X131.875 Y123.968 E.02239
G1 X97.032 Y89.125 E2.18973
G1 X97.032 Y89.629 E.02239
M73 P17 R22
G1 X131.371 Y123.968 E2.15806
G1 X130.867 Y123.968 E.02239
M73 Q17 S22
G1 X97.032 Y90.133 E2.1264
G1 X97.032 Y90.637 E.02239
G1 X130.363 Y123.968 E2.09473
G1 X129.859 Y123.968 E.02239
G1 X97.032 Y91.141 E2.06306
G1 X97.032 Y91.645 E.02239
G1 X129.355 Y123.968 E2.03139
G1 X128.851 Y123.968 E.02239
G1 X97.032 Y92.149 E1.99973
G1 X97.032 Y92.653 E.02239
G1 X128.347 Y123.968 E1.96806
G1 X127.843 Y123.968 E.02239
M73 P18 R22
G1 X97.032 Y93.157 E1.93639
G1 X97.032 Y93.66 E.02239
M73 P18 R21
M73 Q18 S22
G1 X127.34 Y123.968 E1.90472
G1 X126.836 Y123.968 E.02239
G1 X97.032 Y94.164 E1.87306
G1 X97.032 Y94.668 E.02239
G1 X126.332 Y123.968 E1.84139
G1 X125.828 Y123.968 E.02239
G1 X97.032 Y95.172 E1.80972
G1 X97.032 Y95.676 E.02239
G1 X125.324 Y123.968 E1.77805
G1 X124.82 Y123.968 E.02239
G1 X97.032 Y96.18 E1.74639
G1 X97.032 Y96.684 E.02239
G1 X124.316 Y123.968 E1.71472
G1 X123.812 Y123.968 E.02239
M73 P19 R21
M73 Q18 S21
G1 X97.032 Y97.188 E1.68305
G1 X97.032 Y97.691 E.02239
M73 Q19 S21
G1 X123.309 Y123.968 E1.65138
G1 X122.805 Y123.968 E.02239
G1 X97.032 Y98.195 E1.61972
G1 X97.032 Y98.699 E.02239
G1 X122.301 Y123.968 E1.58805
G1 X121.797 Y123.968 E.02239
G1 X97.032 Y99.203 E1.55638
G1 X97.032 Y99.707 E.02239
G1 X121.293 Y123.968 E1.52471
G1 X120.789 Y123.968 E.02239
G1 X97.032 Y100.211 E1.49305
G1 X97.032 Y100.715 E.02239
G1 X120.285 Y123.968 E1.46138
G1 X119.781 Y123.968 E.02239
G1 X97.032 Y101.219 E1.42971
G1 X97.032 Y101.723 E.02239
M73 P20 R21
G1 X119.277 Y123.968 E1.39804
G1 X118.774 Y123.968 E.02239
M73 Q20 S21
G1 X97.032 Y102.226 E1.36637
G1 X97.032 Y102.73 E.02239
G1 X118.27 Y123.968 E1.33471
G1 X117.766 Y123.968 E.02239
G1 X97.032 Y103.234 E1.30304
G1 X97.032 Y103.738 E.02239
G1 X117.262 Y123.968 E1.27137
G1 X116.758 Y123.968 E.02239
G1 X97.032 Y104.242 E1.2397
G1 X97.032 Y104.746 E.02239
G1 X116.254 Y123.968 E1.20804
G1 X115.75 Y123.968 E.02239
G1 X97.032 Y105.25 E1.17637
G1 X97.032 Y105.754 E.02239
G1 X115.246 Y123.968 E1.1447
G1 X114.743 Y123.968 E.02239
G1 X97.032 Y106.257 E1.11303
G1 X97.032 Y106.761 E.02239
G1 X114.239 Y123.968 E1.08137
G1 X113.735 Y123.968 E.02239
M73 P21 R21
G1 X97.032 Y107.265 E1.0497
G1 X97.032 Y107.769 E.02239
G1 X113.231 Y123.968 E1.01803
G1 X112.727 Y123.968 E.02239
M73 Q21 S21
G1 X97.032 Y108.273 E.98636
G1 X97.032 Y108.777 E.02239
G1 X112.223 Y123.968 E.9547
G1 X111.719 Y123.968 E.02239
G1 X97.032 Y109.281 E.92303
G1 X97.032 Y109.785 E.02239
G1 X111.215 Y123.968 E.89136
G1 X110.711 Y123.968 E.02239
G1 X97.032 Y110.289 E.85969
G1 X97.032 Y110.792 E.02239
G1 X110.208 Y123.968 E.82803
G1 X109.704 Y123.968 E.02239
G1 X97.032 Y111.296 E.79636
G1 X97.032 Y111.8 E.02239
G1 X109.2 Y123.968 E.76469
G1 X108.696 Y123.968 E.02239
G1 X97.032 Y112.304 E.73302
G1 X97.032 Y112.808 E.02239
G1 X108.192 Y123.968 E.70136
G1 X107.688 Y123.968 E.02239
M73 P21 R20
G1 X97.032 Y113.312 E.66969
G1 X97.032 Y113.816 E.02239
G1 X107.184 Y123.968 E.63802
G1 X106.68 Y123.968 E.02239
G1 X97.032 Y114.32 E.60635
G1 X97.032 Y114.823 E.02239
G1 X106.177 Y123.968 E.57469
G1 X105.673 Y123.968 E.02239
M73 P22 R20
G1 X97.032 Y115.327 E.54302
G1 X97.032 Y115.831 E.02239
G1 X105.169 Y123.968 E.51135
G1 X104.665 Y123.968 E.02239
G1 X97.032 Y116.335 E.47968
G1 X97.032 Y116.839 E.02239
G1 X104.161 Y123.968 E.44802
G1 X103.657 Y123.968 E.02239
G1 X97.032 Y117.343 E.41635
G1 X97.032 Y117.847 E.02239
M73 Q22 S21
G1 X103.153 Y123.968 E.38468
G1 X102.649 Y123.968 E.02239
G1 X97.032 Y118.351 E.35301
G1 X97.032 Y118.855 E.02239
G1 X102.145 Y123.968 E.32135
G1 X101.642 Y123.968 E.02239
G1 X97.032 Y119.358 E.28968
G1 X97.032 Y119.862 E.02239
G1 X101.138 Y123.968 E.25801
G1 X100.634 Y123.968 E.02239
G1 X97.032 Y120.366 E.22634
G1 X97.032 Y120.87 E.02239
G1 X100.13 Y123.968 E.19468
G1 X99.626 Y123.968 E.02239
G1 X97.032 Y121.374 E.16301
G1 X97.032 Y121.878 E.02239
G1 X99.122 Y123.968 E.13134
G1 X98.618 Y123.968 E.02239
G1 X97.032 Y122.382 E.09967
G1 X97.032 Y122.886 E.02239
G1 X98.114 Y123.968 E.06801
G1 X97.611 Y123.968 E.02239
G1 X96.872 Y123.229 E.0464
M204 S1000
;WIPE_START
G1 F8640
G1 X97.611 Y123.968 E-.24106
G1 X98.114 Y123.968 E-.11635
G1 X97.032 Y122.886 E-.35335
G1 X97.032 Y122.382 E-.11635
G1 X98.572 Y123.922 E-.50289
;WIPE_END
G1 E-.07 F2100
G1 Z.5 F720
G1 X153 Y85.943 F10800
G1 Z.3 F720
G1 E1.4 F2100
M204 S800
;TYPE:Gap fill
;WIDTH:0.177525
G1 F1200
G1 X153 Y72.23 E.19353
M204 S1000
; stop printing object 3F_shin-Body.stl id:0 copy 0
;LAYER_CHANGE
;Z:0.6
;HEIGHT:0.3
;BEFORE_LAYER_CHANGE
G92 E0.0
;0.6


;WIPE_START
G1 F8640
G1 X153 Y77.99 E-1.33
;WIPE_END
G1 E-.07 F2100
G1 Z.5 F720
G1 Z.6
;AFTER_LAYER_CHANGE
;0.6
M140 S90 ; set bed temperature
G1 Z.8
G1 X156.356 Y77.99 F10800
G1 Z.6 F720
G1 E1.4 F2100
;TYPE:Skirt/Brim
;WIDTH:0.42
G1 F2700
G1 X156.356 Y140.133 E2.75633
G1 X155.964 Y141.433 E.06024
G1 X154.92 Y142.301 E.06024
G1 X154 Y142.488 E.04163
G1 X96 Y142.488 E2.57258
G1 X94.7 Y142.097 E.06024
M73 Q22 S20
G1 X93.831 Y141.052 E.06024
G1 X93.644 Y140.133 E.04163
