; generated by PrusaSlicer 2.4.2 on 2022-09-10 at 08:38:44 UTC

; 

; external perimeters extrusion width = 0.60mm
; perimeters extrusion width = 0.50mm
; infill extrusion width = 0.50mm
; solid infill extrusion width = 0.50mm
; top infill extrusion width = 0.45mm
; first layer extrusion width = 0.42mm

M73 P0 R28
M73 Q0 S28
M201 X1000 Y1000 Z200 E5000 ; sets maximum accelerations, mm/sec^2
M203 X200 Y200 Z12 E120 ; sets maximum feedrates, mm / sec
M204 P1250 R1250 T1250 ; sets acceleration (P, T) and retract acceleration (R), mm/sec^2
M205 X8.00 Y8.00 Z0.40 E4.50 ; sets the jerk limits, mm/sec
M205 S0 T0 ; sets the minimum extruding and travel feed rate, mm/sec
M107
;TYPE:Custom
M862.3 P "MK3S" ; printer model check
M862.1 P0.4 ; nozzle diameter check
M115 U3.10.1 ; tell printer latest fw version
G90 ; use absolute coordinates
M83 ; extruder relative mode
M104 S240 ; set extruder temp
M140 S95 ; set bed temp
M190 S95 ; wait for bed temp
M109 S240 ; wait for extruder temp
G28 W ; home all without mesh bed level
G80 ; mesh bed leveling
G1 Z0.2 F720
G1 Y-3 F1000 ; go outside print area
G92 E0
G1 X60 E9 F1000 ; intro line
G1 X100 E12.5 F1000 ; intro line
G92 E0
M221 S95

; Don't change E values below. Excessive value can damage the printer.

M907 E538 ; set extruder motor current
G21 ; set units to millimeters
G90 ; use absolute coordinates
M83 ; use relative distances for extrusion
M900 K0.08 ; Filament gcode LA 1.5
M900 K45 ; Filament gcode LA 1.0
M107
;LAYER_CHANGE
;Z:0.3
;HEIGHT:0.3
;BEFORE_LAYER_CHANGE
G92 E0.0
;0.3


M73 P0 R27
G1 E-1.4 F2100
G1 Z.2 F720
G1 Z.3
;AFTER_LAYER_CHANGE
;0.3
G1 Z.5
G1 X92.036 Y68.567 F10800
G1 Z.3 F720
G1 E1.4 F2100
M204 S800
;TYPE:Skirt/Brim
;WIDTH:0.42
G1 F1200
G1 X93.08 Y67.699 E.06024
G1 X94 Y67.512 E.04163
G1 X156 Y67.512 E2.75
G1 X157.3 Y67.903 E.06024
G1 X158.169 Y68.948 E.06024
G1 X158.356 Y69.867 E.04163
G1 X158.356 Y140.133 E3.1166
G1 X157.964 Y141.433 E.06024
G1 X156.92 Y142.301 E.06024
G1 X156 Y142.488 E.04163
G1 X94 Y142.488 E2.75
G1 X92.7 Y142.097 E.06024
M73 P1 R27
M73 Q1 S27
G1 X91.831 Y141.052 E.06024
G1 X91.644 Y140.133 E.04163
G1 X91.644 Y69.867 E3.1166
G1 X92.019 Y68.624 E.05758
M204 S1000
; printing object 3F_shin-Body.stl id:0 copy 0
;WIPE_START
G1 F8640
G1 X93.08 Y67.699 E-.32524
G1 X94 Y67.512 E-.21671
G1 X97.413 Y67.512 E-.78805
;WIPE_END
G1 E-.07 F2100
G1 Z.5 F720
G1 X94.766 Y72.052 F10800
G1 Z.3 F720
G1 E1.4 F2100
M204 S800
;TYPE:Perimeter
G1 F1200
G1 X95.234 Y72.052 E.02079
G1 X95.234 Y85.766 E.60826
G1 X154.766 Y85.766 E2.6405
G1 X154.766 Y72.052 E.60826
G1 X155.234 Y72.052 E.02079
G1 X155.234 Y137.948 E2.9228
G1 X154.766 Y137.948 E.02079
G1 X154.766 Y124.234 E.60826
G1 X95.234 Y124.234 E2.6405
G1 X95.234 Y137.948 E.60826
G1 X94.766 Y137.948 E.02079
M73 P2 R27
G1 X94.766 Y72.112 E2.92014
M204 S1000
G1 X94.41 Y71.696 F10800
M204 S800
;TYPE:External perimeter
M73 Q2 S27
G1 F1200
G1 X95.59 Y71.696 E.05234
G1 X95.59 Y85.41 E.60826
G1 X154.41 Y85.41 E2.60895
G1 X154.41 Y71.696 E.60826
G1 X155.59 Y71.696 E.05234
G1 X155.59 Y138.304 E2.95435
G1 X154.41 Y138.304 E.05234
G1 X154.41 Y124.59 E.60826
G1 X95.59 Y124.59 E2.60895
G1 X95.59 Y138.304 E.60826
G1 X94.41 Y138.304 E.05234
G1 X94.41 Y71.756 E2.95169
M204 S1000
G1 X94.758 Y71.894 F10800
M73 P3 R27
M73 Q3 S27
G1 X95 Y72.23
M204 S800
;TYPE:Gap fill
;WIDTH:0.177525
G1 F1200
G1 X95 Y85.943 E.19353
M204 S1000
;WIPE_START
G1 F8640
G1 X95 Y80.183 E-1.33
;WIPE_END
G1 E-.07 F2100
G1 Z.5 F720
G1 X95 Y124.057 F10800
G1 Z.3 F720
G1 E1.4 F2100
M204 S800
G1 F1200
G1 X95 Y137.77 E.19353
M204 S1000
;WIPE_START
G1 F8640
G1 X95 Y132.01 E-1.33
;WIPE_END
G1 E-.07 F2100
G1 Z.5 F720
G1 X155 Y137.77 F10800
G1 Z.3 F720
G1 E1.4 F2100
M204 S800
G1 F1200
G1 X155 Y124.057 E.19353
M204 S1000
;WIPE_START
G1 F8640
G1 X155 Y129.817 E-1.33
;WIPE_END
G1 E-.07 F2100
G1 Z.5 F720
G1 X155.128 Y86.77 F10800
G1 Z.3 F720
G1 E1.4 F2100
M204 S800
;TYPE:Solid infill
;WIDTH:0.420568
G1 F1200
G1 X154.39 Y86.032 E.04636
G1 X153.886 Y86.032 E.02238
G1 X154.968 Y87.114 E.06795
G1 X154.968 Y87.618 E.02238
G1 X153.382 Y86.032 E.0996
G1 X152.879 Y86.032 E.02238
G1 X154.968 Y88.121 E.13125
G1 X154.968 Y88.625 E.02238
G1 X152.375 Y86.032 E.16289
G1 X151.871 Y86.032 E.02238
G1 X154.968 Y89.129 E.19454
G1 X154.968 Y89.633 E.02238
G1 X151.367 Y86.032 E.22619
G1 X150.864 Y86.032 E.02238
G1 X154.968 Y90.136 E.25784
G1 X154.968 Y90.64 E.02238
G1 X150.36 Y86.032 E.28949
G1 X149.856 Y86.032 E.02238
G1 X154.968 Y91.144 E.32113
G1 X154.968 Y91.647 E.02238
G1 X149.353 Y86.032 E.35278
G1 X148.849 Y86.032 E.02238
G1 X154.968 Y92.151 E.38443
G1 X154.968 Y92.655 E.02238
G1 X148.345 Y86.032 E.41608
G1 X147.841 Y86.032 E.02238
G1 X154.968 Y93.159 E.44772
G1 X154.968 Y93.662 E.02238
M73 P3 R26
G1 X147.338 Y86.032 E.47937
G1 X146.834 Y86.032 E.02238
G1 X154.968 Y94.166 E.51102
G1 X154.968 Y94.67 E.02238
G1 X146.33 Y86.032 E.54267
G1 X145.827 Y86.032 E.02238
G1 X154.968 Y95.173 E.57431
G1 X154.968 Y95.677 E.02238
G1 X145.323 Y86.032 E.60596
G1 X144.819 Y86.032 E.02238
G1 X154.968 Y96.181 E.63761
G1 X154.968 Y96.685 E.02238
G1 X144.315 Y86.032 E.66926
G1 X143.812 Y86.032 E.02238
G1 X154.968 Y97.188 E.7009
G1 X154.968 Y97.692 E.02238
G1 X143.308 Y86.032 E.73255
G1 X142.804 Y86.032 E.02238
M73 P4 R26
M73 Q4 S27
G1 X154.968 Y98.196 E.7642
G1 X154.968 Y98.7 E.02238
G1 X142.3 Y86.032 E.79585
G1 X141.797 Y86.032 E.02238
G1 X154.968 Y99.203 E.8275
G1 X154.968 Y99.707 E.02238
G1 X141.293 Y86.032 E.85914
G1 X140.789 Y86.032 E.02238
G1 X154.968 Y100.211 E.89079
G1 X154.968 Y100.714 E.02238
G1 X140.286 Y86.032 E.92244
G1 X139.782 Y86.032 E.02238
G1 X154.968 Y101.218 E.95409
G1 X154.968 Y101.722 E.02238
G1 X139.278 Y86.032 E.98573
G1 X138.774 Y86.032 E.02238
M73 Q4 S26
G1 X154.968 Y102.226 E1.01738
G1 X154.968 Y102.729 E.02238
G1 X138.271 Y86.032 E1.04903
G1 X137.767 Y86.032 E.02238
G1 X154.968 Y103.233 E1.08068
G1 X154.968 Y103.737 E.02238
G1 X137.263 Y86.032 E1.11232
G1 X136.759 Y86.032 E.02238
G1 X154.968 Y104.241 E1.14397
G1 X154.968 Y104.744 E.02238
G1 X136.256 Y86.032 E1.17562
G1 X135.752 Y86.032 E.02238
G1 X154.968 Y105.248 E1.20727
G1 X154.968 Y105.752 E.02238
M73 P5 R26
M73 Q5 S26
G1 X135.248 Y86.032 E1.23891
G1 X134.745 Y86.032 E.02238
G1 X154.968 Y106.255 E1.27056
G1 X154.968 Y106.759 E.02238
G1 X134.241 Y86.032 E1.30221
G1 X133.737 Y86.032 E.02238
G1 X154.968 Y107.263 E1.33386
G1 X154.968 Y107.767 E.02238
G1 X133.233 Y86.032 E1.36551
G1 X132.73 Y86.032 E.02238
G1 X154.968 Y108.27 E1.39715
G1 X154.968 Y108.774 E.02238
G1 X132.226 Y86.032 E1.4288
G1 X131.722 Y86.032 E.02238
G1 X154.968 Y109.278 E1.46045
G1 X154.968 Y109.781 E.02238
G1 X131.219 Y86.032 E1.4921
G1 X130.715 Y86.032 E.02238
G1 X154.968 Y110.285 E1.52374
G1 X154.968 Y110.789 E.02238
M73 P6 R26
G1 X130.211 Y86.032 E1.55539
G1 X129.707 Y86.032 E.02238
M73 Q6 S26
G1 X154.968 Y111.293 E1.58704
G1 X154.968 Y111.796 E.02238
G1 X129.204 Y86.032 E1.61869
G1 X128.7 Y86.032 E.02238
G1 X154.968 Y112.3 E1.65033
G1 X154.968 Y112.804 E.02238
G1 X128.196 Y86.032 E1.68198
G1 X127.692 Y86.032 E.02238
G1 X154.968 Y113.308 E1.71363
G1 X154.968 Y113.811 E.02238
G1 X127.189 Y86.032 E1.74528
G1 X126.685 Y86.032 E.02238
G1 X154.968 Y114.315 E1.77692
G1 X154.968 Y114.819 E.02238
G1 X126.181 Y86.032 E1.80857
G1 X125.678 Y86.032 E.02238
M73 P7 R26
M73 Q7 S26
G1 X154.968 Y115.322 E1.84022
G1 X154.968 Y115.826 E.02238
G1 X125.174 Y86.032 E1.87187
G1 X124.67 Y86.032 E.02238
M73 P7 R25
G1 X154.968 Y116.33 E1.90352
G1 X154.968 Y116.834 E.02238
G1 X124.166 Y86.032 E1.93516
G1 X123.663 Y86.032 E.02238
G1 X154.968 Y117.337 E1.96681
G1 X154.968 Y117.841 E.02238
G1 X123.159 Y86.032 E1.99846
G1 X122.655 Y86.032 E.02238
G1 X154.968 Y118.345 E2.03011
G1 X154.968 Y118.849 E.02238
G1 X122.151 Y86.032 E2.06175
G1 X121.648 Y86.032 E.02238
M73 P8 R25
M73 Q8 S25
G1 X154.968 Y119.352 E2.0934
G1 X154.968 Y119.856 E.02238
G1 X121.144 Y86.032 E2.12505
G1 X120.64 Y86.032 E.02238
G1 X154.968 Y120.36 E2.1567
G1 X154.968 Y120.863 E.02238
G1 X120.137 Y86.032 E2.18834
G1 X119.633 Y86.032 E.02238
G1 X154.968 Y121.367 E2.21999
G1 X154.968 Y121.871 E.02238
G1 X119.129 Y86.032 E2.25164
G1 X118.625 Y86.032 E.02238
G1 X154.968 Y122.375 E2.28329
G1 X154.968 Y122.878 E.02238
M73 P9 R25
M73 Q9 S25
G1 X118.122 Y86.032 E2.31493
G1 X117.618 Y86.032 E.02238
G1 X154.968 Y123.382 E2.34658
G1 X154.968 Y123.79 E.01812
G1 X154.872 Y123.79 E.00426
G1 X117.114 Y86.032 E2.37221
G1 X116.611 Y86.032 E.02238
G1 X154.546 Y123.968 E2.38338
G1 X154.042 Y123.968 E.02238
G1 X116.107 Y86.032 E2.38338
G1 X115.603 Y86.032 E.02238
G1 X153.538 Y123.968 E2.38338
G1 X153.035 Y123.968 E.02238
M73 P10 R25
M73 Q10 S25
G1 X115.099 Y86.032 E2.38338
G1 X114.596 Y86.032 E.02238
G1 X152.531 Y123.968 E2.38338
G1 X152.027 Y123.968 E.02238
G1 X114.092 Y86.032 E2.38338
G1 X113.588 Y86.032 E.02238
G1 X151.524 Y123.968 E2.38338
G1 X151.02 Y123.968 E.02238
G1 X113.084 Y86.032 E2.38338
G1 X112.581 Y86.032 E.02238
M73 P10 R24
G1 X150.516 Y123.968 E2.38338
G1 X150.012 Y123.968 E.02238
M73 P11 R24
M73 Q11 S25
G1 X112.077 Y86.032 E2.38338
G1 X111.573 Y86.032 E.02238
G1 X149.509 Y123.968 E2.38338
G1 X149.005 Y123.968 E.02238
G1 X111.07 Y86.032 E2.38338
G1 X110.566 Y86.032 E.02238
G1 X148.501 Y123.968 E2.38338
G1 X147.997 Y123.968 E.02238
M73 Q11 S24
G1 X110.062 Y86.032 E2.38338
G1 X109.558 Y86.032 E.02238
G1 X147.494 Y123.968 E2.38338
G1 X146.99 Y123.968 E.02238
M73 P12 R24
G1 X109.055 Y86.032 E2.38338
G1 X108.551 Y86.032 E.02238
M73 Q12 S24
G1 X146.486 Y123.968 E2.38338
G1 X145.983 Y123.968 E.02238
G1 X108.047 Y86.032 E2.38338
G1 X107.543 Y86.032 E.02238
G1 X145.479 Y123.968 E2.38338
G1 X144.975 Y123.968 E.02238
G1 X107.04 Y86.032 E2.38338
G1 X106.536 Y86.032 E.02238
G1 X144.471 Y123.968 E2.38338
G1 X143.968 Y123.968 E.02238
M73 P13 R24
G1 X106.032 Y86.032 E2.38338
G1 X105.529 Y86.032 E.02238
M73 Q13 S24
G1 X143.464 Y123.968 E2.38338
G1 X142.96 Y123.968 E.02238
G1 X105.025 Y86.032 E2.38338
G1 X104.521 Y86.032 E.02238
G1 X142.456 Y123.968 E2.38338
G1 X141.953 Y123.968 E.02238
G1 X104.017 Y86.032 E2.38338
G1 X103.514 Y86.032 E.02238
G1 X141.449 Y123.968 E2.38338
G1 X140.945 Y123.968 E.02238
M73 P14 R24
G1 X103.01 Y86.032 E2.38338
G1 X102.506 Y86.032 E.02238
M73 Q14 S24
G1 X140.442 Y123.968 E2.38338
G1 X139.938 Y123.968 E.02238
G1 X102.002 Y86.032 E2.38338
G1 X101.499 Y86.032 E.02238
M73 P14 R23
G1 X139.434 Y123.968 E2.38338
G1 X138.93 Y123.968 E.02238
G1 X100.995 Y86.032 E2.38338
G1 X100.491 Y86.032 E.02238
G1 X138.427 Y123.968 E2.38338
G1 X137.923 Y123.968 E.02238
G1 X99.988 Y86.032 E2.38338
G1 X99.484 Y86.032 E.02238
M73 P15 R23
M73 Q15 S24
G1 X137.419 Y123.968 E2.38338
G1 X136.916 Y123.968 E.02238
M73 Q15 S23
G1 X98.98 Y86.032 E2.38338
G1 X98.476 Y86.032 E.02238
G1 X136.412 Y123.968 E2.38338
G1 X135.908 Y123.968 E.02238
G1 X97.973 Y86.032 E2.38338
G1 X97.469 Y86.032 E.02238
G1 X135.404 Y123.968 E2.38338
G1 X134.901 Y123.968 E.02238
G1 X96.965 Y86.032 E2.38338
G1 X96.462 Y86.032 E.02238
M73 P16 R23
M73 Q16 S23
G1 X134.397 Y123.968 E2.38338
G1 X133.893 Y123.968 E.02238
G1 X95.958 Y86.032 E2.38338
G1 X95.454 Y86.032 E.02238
G1 X133.389 Y123.968 E2.38338
G1 X132.886 Y123.968 E.02238
G1 X95.128 Y86.21 E2.37221
G1 X95.032 Y86.21 E.00426
G1 X95.032 Y86.618 E.01812
G1 X132.382 Y123.968 E2.34658
G1 X131.878 Y123.968 E.02238
G1 X95.032 Y87.122 E2.31493
G1 X95.032 Y87.625 E.02238
M73 P17 R23
G1 X131.375 Y123.968 E2.28328
G1 X130.871 Y123.968 E.02238
M73 Q17 S23
G1 X95.032 Y88.129 E2.25164
G1 X95.032 Y88.633 E.02238
G1 X130.367 Y123.968 E2.21999
G1 X129.863 Y123.968 E.02238
G1 X95.032 Y89.137 E2.18834
G1 X95.032 Y89.64 E.02238
G1 X129.36 Y123.968 E2.15669
G1 X128.856 Y123.968 E.02238
G1 X95.032 Y90.144 E2.12504
G1 X95.032 Y90.648 E.02238
M73 P17 R22
G1 X128.352 Y123.968 E2.0934
G1 X127.848 Y123.968 E.02238
M73 P18 R22
G1 X95.032 Y91.152 E2.06175
G1 X95.032 Y91.655 E.02238
M73 Q18 S23
G1 X127.345 Y123.968 E2.0301
G1 X126.841 Y123.968 E.02238
G1 X95.032 Y92.159 E1.99845
G1 X95.032 Y92.663 E.02238
G1 X126.337 Y123.968 E1.96681
G1 X125.834 Y123.968 E.02238
G1 X95.032 Y93.166 E1.93516
G1 X95.032 Y93.67 E.02238
M73 Q18 S22
G1 X125.33 Y123.968 E1.90351
G1 X124.826 Y123.968 E.02238
G1 X95.032 Y94.174 E1.87186
G1 X95.032 Y94.678 E.02238
M73 P19 R22
G1 X124.322 Y123.968 E1.84022
G1 X123.819 Y123.968 E.02238
M73 Q19 S22
G1 X95.032 Y95.181 E1.80857
G1 X95.032 Y95.685 E.02238
G1 X123.315 Y123.968 E1.77692
G1 X122.811 Y123.968 E.02238
G1 X95.032 Y96.189 E1.74527
G1 X95.032 Y96.693 E.02238
G1 X122.307 Y123.968 E1.71363
G1 X121.804 Y123.968 E.02238
G1 X95.032 Y97.196 E1.68198
G1 X95.032 Y97.7 E.02238
G1 X121.3 Y123.968 E1.65033
G1 X120.796 Y123.968 E.02238
G1 X95.032 Y98.204 E1.61868
G1 X95.032 Y98.707 E.02238
G1 X120.293 Y123.968 E1.58703
G1 X119.789 Y123.968 E.02238
M73 P20 R22
G1 X95.032 Y99.211 E1.55539
G1 X95.032 Y99.715 E.02238
M73 Q20 S22
G1 X119.285 Y123.968 E1.52374
G1 X118.781 Y123.968 E.02238
G1 X95.032 Y100.219 E1.49209
G1 X95.032 Y100.722 E.02238
G1 X118.278 Y123.968 E1.46044
G1 X117.774 Y123.968 E.02238
G1 X95.032 Y101.226 E1.4288
G1 X95.032 Y101.73 E.02238
G1 X117.27 Y123.968 E1.39715
G1 X116.767 Y123.968 E.02238
G1 X95.032 Y102.233 E1.3655
G1 X95.032 Y102.737 E.02238
G1 X116.263 Y123.968 E1.33385
G1 X115.759 Y123.968 E.02238
G1 X95.032 Y103.241 E1.30221
G1 X95.032 Y103.745 E.02238
G1 X115.255 Y123.968 E1.27056
G1 X114.752 Y123.968 E.02238
M73 P21 R22
G1 X95.032 Y104.248 E1.23891
G1 X95.032 Y104.752 E.02238
M73 Q21 S22
G1 X114.248 Y123.968 E1.20726
G1 X113.744 Y123.968 E.02238
G1 X95.032 Y105.256 E1.17562
G1 X95.032 Y105.76 E.02238
G1 X113.24 Y123.968 E1.14397
G1 X112.737 Y123.968 E.02238
G1 X95.032 Y106.263 E1.11232
G1 X95.032 Y106.767 E.02238
M73 P21 R21
G1 X112.233 Y123.968 E1.08067
G1 X111.729 Y123.968 E.02238
G1 X95.032 Y107.271 E1.04902
G1 X95.032 Y107.774 E.02238
G1 X111.226 Y123.968 E1.01738
G1 X110.722 Y123.968 E.02238
G1 X95.032 Y108.278 E.98573
G1 X95.032 Y108.782 E.02238
G1 X110.218 Y123.968 E.95408
G1 X109.714 Y123.968 E.02238
G1 X95.032 Y109.286 E.92243
G1 X95.032 Y109.789 E.02238
G1 X109.211 Y123.968 E.89079
G1 X108.707 Y123.968 E.02238
G1 X95.032 Y110.293 E.85914
G1 X95.032 Y110.797 E.02238
M73 P22 R21
G1 X108.203 Y123.968 E.82749
G1 X107.699 Y123.968 E.02238
G1 X95.032 Y111.301 E.79584
G1 X95.032 Y111.804 E.02238
G1 X107.196 Y123.968 E.7642
G1 X106.692 Y123.968 E.02238
M73 Q22 S22
G1 X95.032 Y112.308 E.73255
G1 X95.032 Y112.812 E.02238
G1 X106.188 Y123.968 E.7009
G1 X105.685 Y123.968 E.02238
G1 X95.032 Y113.315 E.66925
G1 X95.032 Y113.819 E.02238
G1 X105.181 Y123.968 E.63761
G1 X104.677 Y123.968 E.02238
M73 Q22 S21
G1 X95.032 Y114.323 E.60596
G1 X95.032 Y114.827 E.02238
G1 X104.173 Y123.968 E.57431
G1 X103.67 Y123.968 E.02238
G1 X95.032 Y115.33 E.54266
G1 X95.032 Y115.834 E.02238
G1 X103.166 Y123.968 E.51101
G1 X102.662 Y123.968 E.02238
G1 X95.032 Y116.338 E.47937
G1 X95.032 Y116.841 E.02238
G1 X102.159 Y123.968 E.44772
G1 X101.655 Y123.968 E.02238
G1 X95.032 Y117.345 E.41607
G1 X95.032 Y117.849 E.02238
G1 X101.151 Y123.968 E.38442
G1 X100.647 Y123.968 E.02238
G1 X95.032 Y118.353 E.35278
G1 X95.032 Y118.856 E.02238
G1 X100.144 Y123.968 E.32113
G1 X99.64 Y123.968 E.02238
G1 X95.032 Y119.36 E.28948
G1 X95.032 Y119.864 E.02238
G1 X99.136 Y123.968 E.25783
G1 X98.632 Y123.968 E.02238
G1 X95.032 Y120.368 E.22619
G1 X95.032 Y120.871 E.02238
G1 X98.129 Y123.968 E.19454
G1 X97.625 Y123.968 E.02238
G1 X95.032 Y121.375 E.16289
G1 X95.032 Y121.879 E.02238
G1 X97.121 Y123.968 E.13124
G1 X96.618 Y123.968 E.02238
G1 X95.032 Y122.382 E.0996
G1 X95.032 Y122.886 E.02238
G1 X96.114 Y123.968 E.06795
G1 X95.61 Y123.968 E.02238
G1 X94.872 Y123.23 E.04635
M204 S1000
;WIPE_START
G1 F8640
G1 X95.61 Y123.968 E-.24093
G1 X96.114 Y123.968 E-.11631
G1 X95.032 Y122.886 E-.35316
G1 X95.032 Y122.382 E-.11631
G1 X96.574 Y123.924 E-.50329
;WIPE_END
G1 E-.07 F2100
G1 Z.5 F720
G1 X155 Y85.943 F10800
G1 Z.3 F720
G1 E1.4 F2100
M204 S800
;TYPE:Gap fill
;WIDTH:0.177525
G1 F1200
G1 X155 Y72.23 E.19353
M204 S1000
; stop printing object 3F_shin-Body.stl id:0 copy 0
;LAYER_CHANGE
;Z:0.6
;HEIGHT:0.3
;BEFORE_LAYER_CHANGE
G92 E0.0
;0.6


;WIPE_START
