; generated by PrusaSlicer 2.5.0 on 2023-02-20 at 09:57:43 UTC


;
;
; 

; external perimeters extrusion width = 0.60mm
; perimeters extrusion width = 0.50mm
; infill extrusion width = 0.50mm
; solid infill extrusion width = 0.50mm
; top infill extrusion width = 0.45mm
; first layer extrusion width = 0.42mm

; external perimeters extrusion width = 0.60mm
; perimeters extrusion width = 0.50mm
; infill extrusion width = 0.50mm
; solid infill extrusion width = 0.50mm
; top infill extrusion width = 0.45mm
; first layer extrusion width = 0.42mm

M73 P0 R63
M73 Q0 S64
M201 X1000 Y1000 Z200 E5000 ; sets maximum accelerations, mm/sec^2
M203 X200 Y200 Z12 E120 ; sets maximum feedrates, mm / sec
M204 P1250 R1250 T1250 ; sets acceleration (P, T) and retract acceleration (R), mm/sec^2
M205 X8.00 Y8.00 Z0.40 E4.50 ; sets the jerk limits, mm/sec
M205 S0 T0 ; sets the minimum extruding and travel feed rate, mm/sec
M107
;TYPE:Custom
M862.3 P "MK3S" ; printer model check
M862.1 P0.4 ; nozzle diameter check
M115 U3.11.0 ; tell printer latest fw version
G90 ; use absolute coordinates
M83 ; extruder relative mode
M104 S240 ; set extruder temp
M140 S95 ; set bed temp
M190 S95 ; wait for bed temp
M109 S240 ; wait for extruder temp
G28 W ; home all without mesh bed level
G80 ; mesh bed leveling

G1 Z0.2 F720
G1 Y-3 F1000 ; go outside print area
G92 E0
G1 X60 E9 F1000 ; intro line
G1 X100 E12.5 F1000 ; intro line

G92 E0
M221 S95

; Don't change E values below. Excessive value can damage the printer.

M907 E538 ; set extruder motor current
G21 ; set units to millimeters
G90 ; use absolute coordinates
M83 ; use relative distances for extrusion
M900 K0.08 ; Filament gcode LA 1.5
M900 K45 ; Filament gcode LA 1.0
M107
;LAYER_CHANGE
;Z:0.3
;HEIGHT:0.3
;BEFORE_LAYER_CHANGE
G92 E0.0
;0.3


G1 E-1.4 F2100
G1 Z.2 F720
G1 Z.3
;AFTER_LAYER_CHANGE
;0.3
G1 Z.5
G1 X65.972 Y28.784 F10800
G1 Z.3 F720
G1 E1.4 F2100
M204 S800
;TYPE:Skirt/Brim
;WIDTH:0.42
G1 F1200
G1 X67.016 Y27.916 E.06024
G1 X67.931 Y27.729 E.04142
G1 X127.319 Y27.608 E2.63417
G1 X185.319 Y27.608 E2.57258
G1 X186.62 Y27.999 E.06024
M73 Q0 S63
G1 X187.488 Y29.044 E.06024
G1 X187.675 Y29.963 E.04163
G1 X187.675 Y100.229 E3.1166
G1 X187.283 Y101.529 E.06024
G1 X186.239 Y102.397 E.06024
G1 X185.324 Y102.584 E.04142
G1 X125.936 Y102.705 E2.63417
G1 X67.936 Y102.705 E2.57258
G1 X66.635 Y102.314 E.06024
G1 X65.767 Y101.269 E.06024
G1 X65.58 Y100.35 E.04163
G1 X65.58 Y30.084 E3.1166
G1 X65.954 Y28.841 E.05758
M204 S1000
; printing object 3FU_shin-Body.stl id:0 copy 0
;WIPE_START
G1 F8640
G1 X67.016 Y27.916 E-.32524
G1 X67.931 Y27.729 E-.21562
G1 X71.349 Y27.722 E-.78914
;WIPE_END
G1 E-.07 F2100
G1 Z.5 F720
G1 X128.997 Y84.36 F10800
G1 Z.3 F720
G1 E1.4 F2100
M204 S800
;TYPE:Perimeter
;WIDTH:0.42
G1 F1200
G1 X128.767 Y84.437 E.01074
;WIDTH:0.448286
G1 X128.646 Y84.65 E.01174
;WIDTH:0.476572
G1 X128.525 Y84.864 E.01261
G1 X128.525 Y98.016 E.67615
G1 X128.113 Y98.016 E.02119
G1 X128.113 Y84.864 E.67615
G1 X128.099 Y84.48 E.01975
;WIDTH:0.448286
G1 X128.085 Y84.096 E.01839
;WIDTH:0.42
G1 X128.085 Y46.096 E1.68548
;WIDTH:0.448286
G1 X128.099 Y45.712 E.01839
;WIDTH:0.476572
G1 X128.113 Y45.328 E.01975
G1 X128.113 Y32.176 E.67615
G1 X128.525 Y32.176 E.02119
G1 X128.525 Y45.328 E.67615
;WIDTH:0.48239
G1 X128.531 Y45.426 E.00509
G1 X128.649 Y45.59 E.01056
;WIDTH:0.451195
G1 X128.767 Y45.755 E.00977
;WIDTH:0.42
G1 X129.087 Y45.862 E.01496
G1 X183.552 Y45.862 E2.41575
G1 X183.872 Y45.755 E.01496
;WIDTH:0.451194
G1 X183.99 Y45.59 E.00977
;WIDTH:0.482389
G1 X184.108 Y45.426 E.01056
G1 X184.113 Y45.328 E.00509
;WIDTH:0.476572
G1 X184.113 Y32.176 E.67615
G1 X184.525 Y32.176 E.02119
G1 X184.525 Y45.328 E.67615
;WIDTH:0.482389
G1 X184.538 Y45.779 E.02351
;WIDTH:0.451194
G1 X184.554 Y46.096 E.01532
;WIDTH:0.42
G1 X184.554 Y84.096 E1.68548
;WIDTH:0.448286
G1 X184.54 Y84.48 E.01839
;WIDTH:0.476572
M73 P0 R62
G1 X184.525 Y84.864 E.01975
M73 P1 R62
G1 X184.525 Y98.016 E.67615
G1 X184.113 Y98.016 E.02119
M73 Q1 S63
G1 X184.113 Y84.864 E.67615
G1 X183.992 Y84.65 E.01261
;WIDTH:0.448286
G1 X183.872 Y84.437 E.01174
;WIDTH:0.42
G1 X183.552 Y84.33 E.01496
G1 X129.054 Y84.342 E2.41724
M204 S1000
G1 X129.087 Y84.686 F10800
M204 S800
;TYPE:External perimeter
G1 F1200
G1 X128.98 Y84.722 E.00499
G1 X128.909 Y84.864 E.00705
G1 X128.909 Y98.4 E.60038
G1 X127.729 Y98.4 E.05234
G1 X127.729 Y31.792 E2.95434
G1 X128.909 Y31.792 E.05234
G1 X128.909 Y45.328 E.60038
G1 X128.98 Y45.47 E.00705
G1 X129.087 Y45.506 E.00499
G1 X183.552 Y45.506 E2.41575
G1 X183.658 Y45.47 E.00499
G1 X183.729 Y45.328 E.00705
G1 X183.729 Y31.792 E.60038
G1 X184.909 Y31.792 E.05234
G1 X184.909 Y98.4 E2.95434
G1 X183.729 Y98.4 E.05234
G1 X183.729 Y84.864 E.60038
G1 X183.658 Y84.722 E.00705
G1 X183.552 Y84.686 E.00499
G1 X129.147 Y84.686 E2.41309
M204 S1000
G1 X129.011 Y84.603 F10800
;WIPE_START
G1 F8640
G1 X128.98 Y84.722 E-.03935
G1 X128.909 Y84.864 E-.03672
G1 X128.909 Y90.294 E-1.25392
;WIPE_END
G1 E-.07 F2100
G1 Z.5 F720
G1 X184.064 Y45.669 F10800
G1 Z.3 F720
G1 E1.4 F2100
M204 S800
;TYPE:Solid infill
;WIDTH:0.420208
G1 F1200
G1 X184.264 Y45.869 E.01255
G1 X184.287 Y46.1 E.01032
G1 X184.287 Y46.395 E.01307
G1 X183.907 Y46.015 E.02386
G1 X183.566 Y46.128 E.01595
G1 X183.517 Y46.128 E.00216
G1 X184.287 Y46.898 E.04831
G1 X184.287 Y47.401 E.02233
G1 X183.014 Y46.128 E.0799
G1 X182.511 Y46.128 E.02233
G1 X184.287 Y47.904 E.11148
G1 X184.287 Y48.408 E.02233
G1 X182.008 Y46.128 E.14306
G1 X181.504 Y46.128 E.02233
G1 X184.287 Y48.911 E.17465
G1 X184.287 Y49.414 E.02233
G1 X181.001 Y46.128 E.20623
G1 X180.498 Y46.128 E.02233
G1 X184.287 Y49.917 E.23782
G1 X184.287 Y50.421 E.02233
G1 X179.995 Y46.128 E.2694
G1 X179.492 Y46.128 E.02233
G1 X184.287 Y50.924 E.30098
G1 X184.287 Y51.427 E.02233
G1 X178.988 Y46.128 E.33257
G1 X178.485 Y46.128 E.02233
G1 X184.287 Y51.93 E.36415
G1 X184.287 Y52.433 E.02233
G1 X177.982 Y46.128 E.39573
G1 X177.479 Y46.128 E.02233
G1 X184.287 Y52.937 E.42732
G1 X184.287 Y53.44 E.02233
G1 X176.975 Y46.128 E.4589
G1 X176.472 Y46.128 E.02233
G1 X184.287 Y53.943 E.49048
G1 X184.287 Y54.446 E.02233
G1 X175.969 Y46.128 E.52207
G1 X175.466 Y46.128 E.02233
G1 X184.287 Y54.95 E.55365
G1 X184.287 Y55.453 E.02233
G1 X174.963 Y46.128 E.58524
G1 X174.459 Y46.128 E.02233
G1 X184.287 Y55.956 E.61682
G1 X184.287 Y56.459 E.02233
G1 X173.956 Y46.128 E.6484
G1 X173.453 Y46.128 E.02233
G1 X184.287 Y56.962 E.67999
G1 X184.287 Y57.466 E.02233
G1 X172.95 Y46.128 E.71157
G1 X172.447 Y46.128 E.02233
G1 X184.287 Y57.969 E.74315
G1 X184.287 Y58.472 E.02233
G1 X171.943 Y46.128 E.77474
G1 X171.44 Y46.128 E.02233
G1 X184.287 Y58.975 E.80632
G1 X184.287 Y59.478 E.02233
M73 Q1 S62
G1 X170.937 Y46.128 E.83791
G1 X170.434 Y46.128 E.02233
G1 X184.287 Y59.982 E.86949
G1 X184.287 Y60.485 E.02233
G1 X169.93 Y46.128 E.90107
G1 X169.427 Y46.128 E.02233
G1 X184.287 Y60.988 E.93266
G1 X184.287 Y61.491 E.02233
G1 X168.924 Y46.128 E.96424
G1 X168.421 Y46.128 E.02233
M73 P2 R62
M73 Q2 S62
G1 X184.287 Y61.995 E.99582
G1 X184.287 Y62.498 E.02233
G1 X167.918 Y46.128 E1.02741
G1 X167.414 Y46.128 E.02233
G1 X184.287 Y63.001 E1.05899
G1 X184.287 Y63.504 E.02233
G1 X166.911 Y46.128 E1.09058
G1 X166.408 Y46.128 E.02233
G1 X184.287 Y64.007 E1.12216
G1 X184.287 Y64.511 E.02233
G1 X165.905 Y46.128 E1.15374
G1 X165.401 Y46.128 E.02233
G1 X184.287 Y65.014 E1.18533
G1 X184.287 Y65.517 E.02233
G1 X164.898 Y46.128 E1.21691
G1 X164.395 Y46.128 E.02233
G1 X184.287 Y66.02 E1.24849
G1 X184.287 Y66.523 E.02233
G1 X163.892 Y46.128 E1.28008
G1 X163.389 Y46.128 E.02233
G1 X184.287 Y67.027 E1.31166
G1 X184.287 Y67.53 E.02233
G1 X162.885 Y46.128 E1.34325
G1 X162.382 Y46.128 E.02233
G1 X184.287 Y68.033 E1.37483
G1 X184.287 Y68.536 E.02233
G1 X161.879 Y46.128 E1.40641
G1 X161.376 Y46.128 E.02233
G1 X184.287 Y69.04 E1.438
G1 X184.287 Y69.543 E.02233
M73 P2 R61
G1 X160.873 Y46.128 E1.46958
G1 X160.369 Y46.128 E.02233
G1 X184.287 Y70.046 E1.50116
G1 X184.287 Y70.549 E.02233
G1 X159.866 Y46.128 E1.53275
G1 X159.363 Y46.128 E.02233
G1 X184.287 Y71.052 E1.56433
G1 X184.287 Y71.556 E.02233
G1 X158.86 Y46.128 E1.59591
G1 X158.356 Y46.128 E.02233
G1 X184.287 Y72.059 E1.6275
G1 X184.287 Y72.562 E.02233
G1 X157.853 Y46.128 E1.65908
G1 X157.35 Y46.128 E.02233
G1 X184.287 Y73.065 E1.69067
G1 X184.287 Y73.568 E.02233
G1 X156.847 Y46.128 E1.72225
G1 X156.344 Y46.128 E.02233
G1 X184.287 Y74.072 E1.75383
G1 X184.287 Y74.575 E.02233
M73 P3 R61
M73 Q3 S62
G1 X155.84 Y46.128 E1.78542
G1 X155.337 Y46.128 E.02233
G1 X184.287 Y75.078 E1.817
G1 X184.287 Y75.581 E.02233
G1 X154.834 Y46.128 E1.84858
G1 X154.331 Y46.128 E.02233
G1 X184.287 Y76.085 E1.88017
G1 X184.287 Y76.588 E.02233
G1 X153.828 Y46.128 E1.91175
G1 X153.324 Y46.128 E.02233
G1 X184.287 Y77.091 E1.94334
G1 X184.287 Y77.594 E.02233
G1 X152.821 Y46.128 E1.97492
G1 X152.318 Y46.128 E.02233
M73 Q3 S61
G1 X184.287 Y78.097 E2.0065
G1 X184.287 Y78.601 E.02233
G1 X151.815 Y46.128 E2.03809
G1 X151.311 Y46.128 E.02233
G1 X184.287 Y79.104 E2.06967
G1 X184.287 Y79.607 E.02233
G1 X150.808 Y46.128 E2.10125
G1 X150.305 Y46.128 E.02233
G1 X184.287 Y80.11 E2.13284
G1 X184.287 Y80.613 E.02233
G1 X149.802 Y46.128 E2.16442
G1 X149.299 Y46.128 E.02233
G1 X184.287 Y81.117 E2.19601
G1 X184.287 Y81.62 E.02233
G1 X148.795 Y46.128 E2.22759
G1 X148.292 Y46.128 E.02233
G1 X184.287 Y82.123 E2.25917
G1 X184.287 Y82.626 E.02233
M73 P4 R61
G1 X147.789 Y46.128 E2.29076
G1 X147.286 Y46.128 E.02233
M73 Q4 S61
G1 X184.287 Y83.13 E2.32234
G1 X184.287 Y83.633 E.02233
M73 P4 R60
G1 X146.783 Y46.128 E2.35392
G1 X146.279 Y46.128 E.02233
G1 X184.284 Y84.133 E2.38532
G1 X184.254 Y84.534 E.01786
G1 X184.229 Y84.54 E.00116
G1 X184.038 Y84.221 E.01653
G1 X183.784 Y84.136 E.01185
G1 X145.776 Y46.128 E2.38553
G1 X145.273 Y46.128 E.02233
G1 X183.208 Y84.064 E2.38097
G1 X182.705 Y84.064 E.02233
G1 X144.77 Y46.128 E2.38097
G1 X144.266 Y46.128 E.02233
G1 X182.202 Y84.064 E2.38097
G1 X181.699 Y84.064 E.02233
G1 X143.763 Y46.128 E2.38097
G1 X143.26 Y46.128 E.02233
G1 X181.195 Y84.064 E2.38097
G1 X180.692 Y84.064 E.02233
G1 X142.757 Y46.128 E2.38097
G1 X142.254 Y46.128 E.02233
G1 X180.189 Y84.064 E2.38097
G1 X179.686 Y84.064 E.02233
G1 X141.75 Y46.128 E2.38097
G1 X141.247 Y46.128 E.02233
G1 X179.183 Y84.064 E2.38097
G1 X178.679 Y84.064 E.02233
M73 P5 R60
M73 Q4 S60
G1 X140.744 Y46.128 E2.38097
G1 X140.241 Y46.128 E.02233
M73 Q5 S60
G1 X178.176 Y84.064 E2.38097
G1 X177.673 Y84.064 E.02233
G1 X139.738 Y46.128 E2.38097
G1 X139.234 Y46.128 E.02233
G1 X177.17 Y84.064 E2.38097
G1 X176.666 Y84.064 E.02233
G1 X138.731 Y46.128 E2.38097
G1 X138.228 Y46.128 E.02233
G1 X176.163 Y84.064 E2.38097
G1 X175.66 Y84.064 E.02233
G1 X137.725 Y46.128 E2.38097
G1 X137.221 Y46.128 E.02233
G1 X175.157 Y84.064 E2.38097
G1 X174.654 Y84.064 E.02233
G1 X136.718 Y46.128 E2.38097
G1 X136.215 Y46.128 E.02233
G1 X174.15 Y84.064 E2.38097
G1 X173.647 Y84.064 E.02233
M73 P5 R59
G1 X135.712 Y46.128 E2.38097
G1 X135.209 Y46.128 E.02233
G1 X173.144 Y84.064 E2.38097
G1 X172.641 Y84.064 E.02233
G1 X134.705 Y46.128 E2.38097
G1 X134.202 Y46.128 E.02233
G1 X172.137 Y84.064 E2.38097
G1 X171.634 Y84.064 E.02233
M73 P6 R59
G1 X133.699 Y46.128 E2.38097
G1 X133.196 Y46.128 E.02233
M73 Q6 S60
G1 X171.131 Y84.064 E2.38097
G1 X170.628 Y84.064 E.02233
G1 X132.692 Y46.128 E2.38097
G1 X132.189 Y46.128 E.02233
G1 X170.125 Y84.064 E2.38097
G1 X169.621 Y84.064 E.02233
G1 X131.686 Y46.128 E2.38097
G1 X131.183 Y46.128 E.02233
G1 X169.118 Y84.064 E2.38097
G1 X168.615 Y84.064 E.02233
G1 X130.68 Y46.128 E2.38097
G1 X130.176 Y46.128 E.02233
G1 X168.112 Y84.064 E2.38097
G1 X167.609 Y84.064 E.02233
M73 Q6 S59
G1 X129.673 Y46.128 E2.38097
G1 X129.17 Y46.128 E.02233
G1 X167.105 Y84.064 E2.38097
G1 X166.602 Y84.064 E.02233
G1 X128.377 Y45.839 E2.39913
G1 X128.352 Y46.316 E.02122
G1 X166.099 Y84.064 E2.36916
G1 X165.596 Y84.064 E.02233
G1 X128.352 Y46.82 E2.33758
G1 X128.352 Y47.323 E.02233
G1 X165.092 Y84.064 E2.30599
G1 X164.589 Y84.064 E.02233
M73 P7 R59
G1 X128.352 Y47.826 E2.27441
G1 X128.352 Y48.329 E.02233
M73 Q7 S59
G1 X164.086 Y84.064 E2.24283
G1 X163.583 Y84.064 E.02233
G1 X128.352 Y48.832 E2.21124
G1 X128.352 Y49.336 E.02233
G1 X163.08 Y84.064 E2.17966
G1 X162.576 Y84.064 E.02233
M73 P7 R58
G1 X128.352 Y49.839 E2.14808
G1 X128.352 Y50.342 E.02233
G1 X162.073 Y84.064 E2.11649
G1 X161.57 Y84.064 E.02233
G1 X128.352 Y50.845 E2.08491
G1 X128.352 Y51.349 E.02233
G1 X161.067 Y84.064 E2.05332
G1 X160.564 Y84.064 E.02233
G1 X128.352 Y51.852 E2.02174
G1 X128.352 Y52.355 E.02233
G1 X160.06 Y84.064 E1.99016
G1 X159.557 Y84.064 E.02233
G1 X128.352 Y52.858 E1.95857
G1 X128.352 Y53.361 E.02233
G1 X159.054 Y84.064 E1.92699
G1 X158.551 Y84.064 E.02233
G1 X128.352 Y53.865 E1.89541
G1 X128.352 Y54.368 E.02233
G1 X158.047 Y84.064 E1.86382
G1 X157.544 Y84.064 E.02233
G1 X128.352 Y54.871 E1.83224
G1 X128.352 Y55.374 E.02233
G1 X157.041 Y84.064 E1.80065
G1 X156.538 Y84.064 E.02233
G1 X128.352 Y55.877 E1.76907
G1 X128.352 Y56.381 E.02233
M73 P8 R58
G1 X156.035 Y84.064 E1.73749
G1 X155.531 Y84.064 E.02233
M73 Q8 S59
G1 X128.352 Y56.884 E1.7059
G1 X128.352 Y57.387 E.02233
G1 X155.028 Y84.064 E1.67432
G1 X154.525 Y84.064 E.02233
M73 Q8 S58
G1 X128.352 Y57.89 E1.64274
G1 X128.352 Y58.394 E.02233
G1 X154.022 Y84.064 E1.61115
G1 X153.519 Y84.064 E.02233
G1 X128.352 Y58.897 E1.57957
G1 X128.352 Y59.4 E.02233
G1 X153.015 Y84.064 E1.54799
G1 X152.512 Y84.064 E.02233
G1 X128.352 Y59.903 E1.5164
G1 X128.352 Y60.406 E.02233
G1 X152.009 Y84.064 E1.48482
G1 X151.506 Y84.064 E.02233
G1 X128.352 Y60.91 E1.45323
G1 X128.352 Y61.413 E.02233
G1 X151.002 Y84.064 E1.42165
G1 X150.499 Y84.064 E.02233
G1 X128.352 Y61.916 E1.39007
G1 X128.352 Y62.419 E.02233
G1 X149.996 Y84.064 E1.35848
G1 X149.493 Y84.064 E.02233
G1 X128.352 Y62.923 E1.3269
G1 X128.352 Y63.426 E.02233
G1 X148.99 Y84.064 E1.29532
G1 X148.486 Y84.064 E.02233
G1 X128.352 Y63.929 E1.26373
G1 X128.352 Y64.432 E.02233
G1 X147.983 Y84.064 E1.23215
G1 X147.48 Y84.064 E.02233
G1 X128.352 Y64.935 E1.20056
G1 X128.352 Y65.439 E.02233
M73 P8 R57
G1 X146.977 Y84.064 E1.16898
G1 X146.474 Y84.064 E.02233
G1 X128.352 Y65.942 E1.1374
G1 X128.352 Y66.445 E.02233
G1 X145.97 Y84.064 E1.10581
G1 X145.467 Y84.064 E.02233
G1 X128.352 Y66.948 E1.07423
G1 X128.352 Y67.451 E.02233
G1 X144.964 Y84.064 E1.04265
G1 X144.461 Y84.064 E.02233
M73 P9 R57
G1 X128.352 Y67.955 E1.01106
G1 X128.352 Y68.458 E.02233
G1 X143.957 Y84.064 E.97948
G1 X143.454 Y84.064 E.02233
G1 X128.352 Y68.961 E.94789
G1 X128.352 Y69.464 E.02233
M73 Q9 S58
G1 X142.951 Y84.064 E.91631
G1 X142.448 Y84.064 E.02233
G1 X128.352 Y69.968 E.88473
G1 X128.352 Y70.471 E.02233
G1 X141.945 Y84.064 E.85314
G1 X141.441 Y84.064 E.02233
G1 X128.352 Y70.974 E.82156
G1 X128.352 Y71.477 E.02233
G1 X140.938 Y84.064 E.78998
G1 X140.435 Y84.064 E.02233
G1 X128.352 Y71.98 E.75839
G1 X128.352 Y72.484 E.02233
G1 X139.932 Y84.064 E.72681
G1 X139.428 Y84.064 E.02233
G1 X128.352 Y72.987 E.69523
G1 X128.352 Y73.49 E.02233
G1 X138.925 Y84.064 E.66364
G1 X138.422 Y84.064 E.02233
G1 X128.352 Y73.993 E.63206
G1 X128.352 Y74.496 E.02233
G1 X137.919 Y84.064 E.60047
G1 X137.416 Y84.064 E.02233
G1 X128.352 Y75 E.56889
G1 X128.352 Y75.503 E.02233
G1 X136.912 Y84.064 E.53731
G1 X136.409 Y84.064 E.02233
G1 X128.352 Y76.006 E.50572
G1 X128.352 Y76.509 E.02233
G1 X135.906 Y84.064 E.47414
G1 X135.403 Y84.064 E.02233
G1 X128.352 Y77.013 E.44256
G1 X128.352 Y77.516 E.02233
G1 X134.9 Y84.064 E.41097
G1 X134.396 Y84.064 E.02233
G1 X128.352 Y78.019 E.37939
G1 X128.352 Y78.522 E.02233
G1 X133.893 Y84.064 E.3478
G1 X133.39 Y84.064 E.02233
G1 X128.352 Y79.025 E.31622
G1 X128.352 Y79.529 E.02233
G1 X132.887 Y84.064 E.28464
G1 X132.383 Y84.064 E.02233
G1 X128.352 Y80.032 E.25305
G1 X128.352 Y80.535 E.02233
G1 X131.88 Y84.064 E.22147
G1 X131.377 Y84.064 E.02233
G1 X128.352 Y81.038 E.18989
G1 X128.352 Y81.541 E.02233
G1 X130.874 Y84.064 E.1583
G1 X130.371 Y84.064 E.02233
G1 X128.352 Y82.045 E.12672
G1 X128.352 Y82.548 E.02233
G1 X129.867 Y84.064 E.09513
G1 X129.364 Y84.064 E.02233
G1 X128.352 Y83.051 E.06355
G1 X128.352 Y83.554 E.02233
