; generated by PrusaSlicer 2.5.0 on 2023-02-25 at 14:15:18 UTC


;
;
; 

; external perimeters extrusion width = 0.60mm
; perimeters extrusion width = 0.50mm
; infill extrusion width = 0.50mm
; solid infill extrusion width = 0.50mm
; top infill extrusion width = 0.45mm
; first layer extrusion width = 0.42mm

M73 P0 R32
M73 Q0 S32
M201 X1000 Y1000 Z200 E5000 ; sets maximum accelerations, mm/sec^2
M203 X200 Y200 Z12 E120 ; sets maximum feedrates, mm / sec
M204 P1250 R1250 T1250 ; sets acceleration (P, T) and retract acceleration (R), mm/sec^2
M205 X8.00 Y8.00 Z0.40 E4.50 ; sets the jerk limits, mm/sec
M205 S0 T0 ; sets the minimum extruding and travel feed rate, mm/sec
M107
;TYPE:Custom
M862.3 P "MK3S" ; printer model check
M862.1 P0.4 ; nozzle diameter check
M115 U3.11.0 ; tell printer latest fw version
G90 ; use absolute coordinates
M83 ; extruder relative mode
M104 S240 ; set extruder temp
M140 S95 ; set bed temp
M190 S95 ; wait for bed temp
M109 S240 ; wait for extruder temp
G28 W ; home all without mesh bed level
G80 ; mesh bed leveling

G1 Z0.2 F720
G1 Y-3 F1000 ; go outside print area
G92 E0
G1 X60 E9 F1000 ; intro line
G1 X100 E12.5 F1000 ; intro line

G92 E0
M221 S95

; Don't change E values below. Excessive value can damage the printer.

M907 E538 ; set extruder motor current
G21 ; set units to millimeters
G90 ; use absolute coordinates
M83 ; use relative distances for extrusion
M900 K0.08 ; Filament gcode LA 1.5
M900 K45 ; Filament gcode LA 1.0
M107
;LAYER_CHANGE
;Z:0.3
;HEIGHT:0.3
;BEFORE_LAYER_CHANGE
G92 E0.0
;0.3


G1 E-1.4 F2100
G1 Z.2 F720
G1 Z.3
;AFTER_LAYER_CHANGE
;0.3
G1 Z.5
G1 X94.036 Y68.567 F10800
G1 Z.3 F720
G1 E1.4 F2100
M204 S800
;TYPE:Skirt/Brim
;WIDTH:0.42
G1 F1200
G1 X95.08 Y67.699 E.06024
G1 X96 Y67.512 E.04163
G1 X154 Y67.512 E2.57258
G1 X155.3 Y67.903 E.06024
G1 X156.169 Y68.948 E.06024
G1 X156.356 Y69.867 E.04163
G1 X156.356 Y140.133 E3.1166
G1 X155.964 Y141.433 E.06024
G1 X154.92 Y142.301 E.06024
G1 X154 Y142.488 E.04163
G1 X96 Y142.488 E2.57258
G1 X94.7 Y142.097 E.06024
G1 X93.831 Y141.052 E.06024
G1 X93.644 Y140.133 E.04163
G1 X93.644 Y69.867 E3.1166
G1 X94.019 Y68.624 E.05758
M204 S1000
; printing object 3FU_shin-Body.stl id:0 copy 0
;WIPE_START
M73 P1 R32
M73 Q1 S32
G1 F8640
G1 X95.08 Y67.699 E-.32524
G1 X96 Y67.512 E-.21671
G1 X99.413 Y67.512 E-.78805
;WIPE_END
G1 E-.07 F2100
G1 Z.5 F720
G1 X96.794 Y72.08 F10800
G1 Z.3 F720
G1 E1.4 F2100
M204 S800
;TYPE:Perimeter
;WIDTH:0.476572
M73 P1 R31
G1 F1200
G1 X97.206 Y72.08 E.02119
G1 X97.206 Y85.232 E.67615
;WIDTH:0.48239
G1 X97.212 Y85.33 E.00509
G1 X97.33 Y85.494 E.01056
;WIDTH:0.451195
G1 X97.448 Y85.659 E.00977
;WIDTH:0.42
G1 X97.768 Y85.766 E.01496
G1 X152.232 Y85.766 E2.41575
G1 X152.552 Y85.659 E.01496
;WIDTH:0.451194
G1 X152.67 Y85.494 E.00977
;WIDTH:0.482389
G1 X152.788 Y85.33 E.01056
G1 X152.794 Y85.232 E.00509
;WIDTH:0.476572
G1 X152.794 Y72.08 E.67615
G1 X153.206 Y72.08 E.02119
G1 X153.206 Y85.232 E.67615
;WIDTH:0.482389
G1 X153.219 Y85.683 E.02351
;WIDTH:0.451194
G1 X153.234 Y86 E.01532
;WIDTH:0.42
G1 X153.234 Y124 E1.68548
;WIDTH:0.448286
G1 X153.22 Y124.384 E.01839
;WIDTH:0.476572
G1 X153.206 Y124.768 E.01975
G1 X153.206 Y137.92 E.67615
G1 X152.794 Y137.92 E.02119
G1 X152.794 Y124.768 E.67615
G1 X152.673 Y124.554 E.01261
;WIDTH:0.448286
G1 X152.552 Y124.341 E.01174
;WIDTH:0.42
G1 X152.232 Y124.234 E.01496
G1 X97.768 Y124.234 E2.41575
G1 X97.448 Y124.341 E.01496
;WIDTH:0.448286
G1 X97.327 Y124.554 E.01174
;WIDTH:0.476572
G1 X97.206 Y124.768 E.01261
G1 X97.206 Y137.92 E.67615
G1 X96.794 Y137.92 E.02119
M73 Q1 S31
G1 X96.794 Y124.768 E.67615
G1 X96.78 Y124.384 E.01975
;WIDTH:0.448286
G1 X96.766 Y124 E.01839
;WIDTH:0.42
G1 X96.766 Y86 E1.68548
;WIDTH:0.448286
G1 X96.78 Y85.616 E.01839
;WIDTH:0.476572
G1 X96.794 Y85.232 E.01975
G1 X96.794 Y72.14 E.67306
M204 S1000
G1 X96.41 Y71.696 F10800
M204 S800
;TYPE:External perimeter
;WIDTH:0.42
G1 F1200
G1 X97.59 Y71.696 E.05234
G1 X97.59 Y85.232 E.60038
G1 X97.661 Y85.374 E.00705
G1 X97.768 Y85.41 E.00499
G1 X152.232 Y85.41 E2.41575
G1 X152.339 Y85.374 E.00499
M73 P2 R31
M73 Q2 S31
G1 X152.41 Y85.232 E.00705
G1 X152.41 Y71.696 E.60038
G1 X153.59 Y71.696 E.05234
G1 X153.59 Y138.304 E2.95434
G1 X152.41 Y138.304 E.05234
G1 X152.41 Y124.768 E.60038
G1 X152.339 Y124.626 E.00705
G1 X152.232 Y124.59 E.00499
G1 X97.768 Y124.59 E2.41575
G1 X97.661 Y124.626 E.00499
G1 X97.59 Y124.768 E.00705
G1 X97.59 Y138.304 E.60038
G1 X96.41 Y138.304 E.05234
G1 X96.41 Y71.756 E2.95168
M204 S1000
G1 X96.758 Y71.894 F10800
;WIPE_START
G1 F8640
G1 X97.59 Y71.696 E-.27282
G1 X97.59 Y76.275 E-1.05718
;WIPE_END
G1 E-.07 F2100
G1 Z.5 F720
G1 X152.745 Y85.573 F10800
G1 Z.3 F720
G1 E1.4 F2100
M204 S800
;TYPE:Solid infill
;WIDTH:0.420208
G1 F1200
G1 X152.945 Y85.773 E.01255
G1 X152.968 Y86.004 E.01032
G1 X152.968 Y86.299 E.01307
G1 X152.588 Y85.919 E.02386
G1 X152.247 Y86.032 E.01595
G1 X152.198 Y86.032 E.00216
G1 X152.968 Y86.802 E.04831
G1 X152.968 Y87.305 E.02233
G1 X151.695 Y86.032 E.0799
G1 X151.191 Y86.032 E.02233
G1 X152.968 Y87.809 E.11148
G1 X152.968 Y88.312 E.02233
G1 X150.688 Y86.032 E.14306
G1 X150.185 Y86.032 E.02233
G1 X152.968 Y88.815 E.17465
G1 X152.968 Y89.318 E.02233
G1 X149.682 Y86.032 E.20623
G1 X149.179 Y86.032 E.02233
G1 X152.968 Y89.821 E.23782
G1 X152.968 Y90.325 E.02233
G1 X148.675 Y86.032 E.2694
G1 X148.172 Y86.032 E.02233
G1 X152.968 Y90.828 E.30098
G1 X152.968 Y91.331 E.02233
G1 X147.669 Y86.032 E.33257
G1 X147.166 Y86.032 E.02233
G1 X152.968 Y91.834 E.36415
G1 X152.968 Y92.337 E.02233
G1 X146.663 Y86.032 E.39573
G1 X146.159 Y86.032 E.02233
G1 X152.968 Y92.841 E.42732
G1 X152.968 Y93.344 E.02233
G1 X145.656 Y86.032 E.4589
G1 X145.153 Y86.032 E.02233
G1 X152.968 Y93.847 E.49048
G1 X152.968 Y94.35 E.02233
G1 X144.65 Y86.032 E.52207
G1 X144.146 Y86.032 E.02233
G1 X152.968 Y94.854 E.55365
G1 X152.968 Y95.357 E.02233
M73 P3 R31
M73 Q3 S31
G1 X143.643 Y86.032 E.58524
G1 X143.14 Y86.032 E.02233
G1 X152.968 Y95.86 E.61682
G1 X152.968 Y96.363 E.02233
G1 X142.637 Y86.032 E.6484
G1 X142.134 Y86.032 E.02233
G1 X152.968 Y96.866 E.67999
G1 X152.968 Y97.37 E.02233
G1 X141.63 Y86.032 E.71157
G1 X141.127 Y86.032 E.02233
G1 X152.968 Y97.873 E.74315
G1 X152.968 Y98.376 E.02233
G1 X140.624 Y86.032 E.77474
G1 X140.121 Y86.032 E.02233
G1 X152.968 Y98.879 E.80632
G1 X152.968 Y99.382 E.02233
G1 X139.618 Y86.032 E.83791
G1 X139.114 Y86.032 E.02233
G1 X152.968 Y99.886 E.86949
G1 X152.968 Y100.389 E.02233
G1 X138.611 Y86.032 E.90107
G1 X138.108 Y86.032 E.02233
G1 X152.968 Y100.892 E.93266
G1 X152.968 Y101.395 E.02233
G1 X137.605 Y86.032 E.96424
G1 X137.101 Y86.032 E.02233
G1 X152.968 Y101.899 E.99582
G1 X152.968 Y102.402 E.02233
G1 X136.598 Y86.032 E1.02741
G1 X136.095 Y86.032 E.02233
G1 X152.968 Y102.905 E1.05899
G1 X152.968 Y103.408 E.02233
G1 X135.592 Y86.032 E1.09058
G1 X135.089 Y86.032 E.02233
G1 X152.968 Y103.911 E1.12216
G1 X152.968 Y104.415 E.02233
G1 X134.585 Y86.032 E1.15374
G1 X134.082 Y86.032 E.02233
M73 P4 R31
M73 Q4 S31
G1 X152.968 Y104.918 E1.18533
G1 X152.968 Y105.421 E.02233
G1 X133.579 Y86.032 E1.21691
G1 X133.076 Y86.032 E.02233
G1 X152.968 Y105.924 E1.24849
G1 X152.968 Y106.427 E.02233
M73 P4 R30
G1 X132.573 Y86.032 E1.28008
G1 X132.069 Y86.032 E.02233
G1 X152.968 Y106.931 E1.31166
G1 X152.968 Y107.434 E.02233
G1 X131.566 Y86.032 E1.34325
G1 X131.063 Y86.032 E.02233
G1 X152.968 Y107.937 E1.37483
G1 X152.968 Y108.44 E.02233
G1 X130.56 Y86.032 E1.40641
G1 X130.056 Y86.032 E.02233
G1 X152.968 Y108.944 E1.438
G1 X152.968 Y109.447 E.02233
G1 X129.553 Y86.032 E1.46958
G1 X129.05 Y86.032 E.02233
M73 Q4 S30
G1 X152.968 Y109.95 E1.50116
G1 X152.968 Y110.453 E.02233
G1 X128.547 Y86.032 E1.53275
G1 X128.044 Y86.032 E.02233
G1 X152.968 Y110.956 E1.56433
G1 X152.968 Y111.46 E.02233
M73 P5 R30
M73 Q5 S30
G1 X127.54 Y86.032 E1.59591
G1 X127.037 Y86.032 E.02233
G1 X152.968 Y111.963 E1.6275
G1 X152.968 Y112.466 E.02233
G1 X126.534 Y86.032 E1.65908
G1 X126.031 Y86.032 E.02233
G1 X152.968 Y112.969 E1.69067
G1 X152.968 Y113.472 E.02233
G1 X125.528 Y86.032 E1.72225
G1 X125.024 Y86.032 E.02233
G1 X152.968 Y113.976 E1.75383
G1 X152.968 Y114.479 E.02233
G1 X124.521 Y86.032 E1.78542
G1 X124.018 Y86.032 E.02233
G1 X152.968 Y114.982 E1.817
G1 X152.968 Y115.485 E.02233
G1 X123.515 Y86.032 E1.84858
G1 X123.011 Y86.032 E.02233
G1 X152.968 Y115.989 E1.88017
M73 P6 R30
G1 X152.968 Y116.492 E.02233
M73 Q6 S30
G1 X122.508 Y86.032 E1.91175
G1 X122.005 Y86.032 E.02233
G1 X152.968 Y116.995 E1.94334
G1 X152.968 Y117.498 E.02233
G1 X121.502 Y86.032 E1.97492
G1 X120.999 Y86.032 E.02233
G1 X152.968 Y118.001 E2.0065
G1 X152.968 Y118.505 E.02233
G1 X120.495 Y86.032 E2.03809
G1 X119.992 Y86.032 E.02233
G1 X152.968 Y119.008 E2.06967
G1 X152.968 Y119.511 E.02233
G1 X119.489 Y86.032 E2.10125
G1 X118.986 Y86.032 E.02233
G1 X152.968 Y120.014 E2.13284
G1 X152.968 Y120.518 E.02233
M73 P7 R30
M73 Q7 S30
G1 X118.482 Y86.032 E2.16442
G1 X117.979 Y86.032 E.02233
G1 X152.968 Y121.021 E2.19601
G1 X152.968 Y121.524 E.02233
M73 P7 R29
G1 X117.476 Y86.032 E2.22759
G1 X116.973 Y86.032 E.02233
G1 X152.968 Y122.027 E2.25917
G1 X152.968 Y122.53 E.02233
G1 X116.47 Y86.032 E2.29076
G1 X115.966 Y86.032 E.02233
G1 X152.968 Y123.034 E2.32234
G1 X152.968 Y123.537 E.02233
M73 Q7 S29
G1 X115.463 Y86.032 E2.35392
G1 X114.96 Y86.032 E.02233
G1 X152.965 Y124.037 E2.38532
G1 X152.935 Y124.438 E.01786
M73 P8 R29
M73 Q8 S29
G1 X152.91 Y124.444 E.00116
G1 X152.718 Y124.125 E.01653
G1 X152.465 Y124.04 E.01185
G1 X114.457 Y86.032 E2.38553
G1 X113.954 Y86.032 E.02233
G1 X151.889 Y123.968 E2.38097
G1 X151.386 Y123.968 E.02233
G1 X113.45 Y86.032 E2.38097
G1 X112.947 Y86.032 E.02233
G1 X150.882 Y123.968 E2.38097
G1 X150.379 Y123.968 E.02233
G1 X112.444 Y86.032 E2.38097
G1 X111.941 Y86.032 E.02233
G1 X149.876 Y123.968 E2.38097
G1 X149.373 Y123.968 E.02233
G1 X111.437 Y86.032 E2.38097
G1 X110.934 Y86.032 E.02233
M73 P9 R29
M73 Q9 S29
G1 X148.87 Y123.968 E2.38097
G1 X148.366 Y123.968 E.02233
G1 X110.431 Y86.032 E2.38097
G1 X109.928 Y86.032 E.02233
G1 X147.863 Y123.968 E2.38097
G1 X147.36 Y123.968 E.02233
G1 X109.425 Y86.032 E2.38097
G1 X108.921 Y86.032 E.02233
G1 X146.857 Y123.968 E2.38097
G1 X146.354 Y123.968 E.02233
G1 X108.418 Y86.032 E2.38097
G1 X107.915 Y86.032 E.02233
G1 X145.85 Y123.968 E2.38097
G1 X145.347 Y123.968 E.02233
M73 P10 R29
M73 Q10 S29
G1 X107.412 Y86.032 E2.38097
G1 X106.909 Y86.032 E.02233
G1 X144.844 Y123.968 E2.38097
G1 X144.341 Y123.968 E.02233
M73 P10 R28
G1 X106.405 Y86.032 E2.38097
G1 X105.902 Y86.032 E.02233
G1 X143.837 Y123.968 E2.38097
G1 X143.334 Y123.968 E.02233
G1 X105.399 Y86.032 E2.38097
G1 X104.896 Y86.032 E.02233
G1 X142.831 Y123.968 E2.38097
G1 X142.328 Y123.968 E.02233
M73 Q10 S28
G1 X104.392 Y86.032 E2.38097
G1 X103.889 Y86.032 E.02233
M73 P11 R28
M73 Q11 S28
G1 X141.825 Y123.968 E2.38097
G1 X141.321 Y123.968 E.02233
G1 X103.386 Y86.032 E2.38097
G1 X102.883 Y86.032 E.02233
G1 X140.818 Y123.968 E2.38097
G1 X140.315 Y123.968 E.02233
G1 X102.38 Y86.032 E2.38097
G1 X101.876 Y86.032 E.02233
G1 X139.812 Y123.968 E2.38097
G1 X139.309 Y123.968 E.02233
G1 X101.373 Y86.032 E2.38097
G1 X100.87 Y86.032 E.02233
G1 X138.805 Y123.968 E2.38097
G1 X138.302 Y123.968 E.02233
M73 P12 R28
M73 Q12 S28
G1 X100.367 Y86.032 E2.38097
G1 X99.864 Y86.032 E.02233
G1 X137.799 Y123.968 E2.38097
G1 X137.296 Y123.968 E.02233
G1 X99.36 Y86.032 E2.38097
G1 X98.857 Y86.032 E.02233
G1 X136.792 Y123.968 E2.38097
G1 X136.289 Y123.968 E.02233
G1 X98.354 Y86.032 E2.38097
G1 X97.851 Y86.032 E.02233
G1 X135.786 Y123.968 E2.38097
G1 X135.283 Y123.968 E.02233
G1 X97.058 Y85.743 E2.39913
G1 X97.032 Y86.22 E.02122
M73 P13 R28
G1 X134.78 Y123.968 E2.36916
G1 X134.276 Y123.968 E.02233
M73 Q13 S28
G1 X97.032 Y86.724 E2.33758
G1 X97.032 Y87.227 E.02233
G1 X133.773 Y123.968 E2.30599
G1 X133.27 Y123.968 E.02233
M73 P13 R27
G1 X97.032 Y87.73 E2.27441
G1 X97.032 Y88.233 E.02233
G1 X132.767 Y123.968 E2.24283
G1 X132.264 Y123.968 E.02233
G1 X97.032 Y88.736 E2.21124
G1 X97.032 Y89.24 E.02233
G1 X131.76 Y123.968 E2.17966
G1 X131.257 Y123.968 E.02233
G1 X97.032 Y89.743 E2.14808
G1 X97.032 Y90.246 E.02233
M73 P14 R27
M73 Q14 S27
G1 X130.754 Y123.968 E2.11649
G1 X130.251 Y123.968 E.02233
G1 X97.032 Y90.749 E2.08491
G1 X97.032 Y91.253 E.02233
G1 X129.747 Y123.968 E2.05332
G1 X129.244 Y123.968 E.02233
G1 X97.032 Y91.756 E2.02174
G1 X97.032 Y92.259 E.02233
G1 X128.741 Y123.968 E1.99016
G1 X128.238 Y123.968 E.02233
G1 X97.032 Y92.762 E1.95857
G1 X97.032 Y93.265 E.02233
G1 X127.735 Y123.968 E1.92699
G1 X127.231 Y123.968 E.02233
G1 X97.032 Y93.769 E1.89541
G1 X97.032 Y94.272 E.02233
M73 P15 R27
G1 X126.728 Y123.968 E1.86382
G1 X126.225 Y123.968 E.02233
M73 Q15 S27
G1 X97.032 Y94.775 E1.83224
G1 X97.032 Y95.278 E.02233
G1 X125.722 Y123.968 E1.80065
G1 X125.218 Y123.968 E.02233
G1 X97.032 Y95.782 E1.76907
G1 X97.032 Y96.285 E.02233
G1 X124.715 Y123.968 E1.73749
G1 X124.212 Y123.968 E.02233
G1 X97.032 Y96.788 E1.7059
G1 X97.032 Y97.291 E.02233
G1 X123.709 Y123.968 E1.67432
G1 X123.206 Y123.968 E.02233
G1 X97.032 Y97.794 E1.64274
G1 X97.032 Y98.298 E.02233
G1 X122.702 Y123.968 E1.61115
G1 X122.199 Y123.968 E.02233
G1 X97.032 Y98.801 E1.57957
G1 X97.032 Y99.304 E.02233
M73 P16 R27
M73 Q16 S27
G1 X121.696 Y123.968 E1.54799
G1 X121.193 Y123.968 E.02233
G1 X97.032 Y99.807 E1.5164
G1 X97.032 Y100.31 E.02233
G1 X120.69 Y123.968 E1.48482
G1 X120.186 Y123.968 E.02233
G1 X97.032 Y100.814 E1.45323
G1 X97.032 Y101.317 E.02233
G1 X119.683 Y123.968 E1.42165
G1 X119.18 Y123.968 E.02233
G1 X97.032 Y101.82 E1.39007
G1 X97.032 Y102.323 E.02233
M73 P16 R26
G1 X118.677 Y123.968 E1.35848
G1 X118.173 Y123.968 E.02233
G1 X97.032 Y102.827 E1.3269
G1 X97.032 Y103.33 E.02233
G1 X117.67 Y123.968 E1.29532
G1 X117.167 Y123.968 E.02233
G1 X97.032 Y103.833 E1.26373
G1 X97.032 Y104.336 E.02233
G1 X116.664 Y123.968 E1.23215
G1 X116.161 Y123.968 E.02233
G1 X97.032 Y104.839 E1.20056
G1 X97.032 Y105.343 E.02233
M73 P17 R26
G1 X115.657 Y123.968 E1.16898
G1 X115.154 Y123.968 E.02233
M73 Q17 S26
G1 X97.032 Y105.846 E1.1374
G1 X97.032 Y106.349 E.02233
G1 X114.651 Y123.968 E1.10581
G1 X114.148 Y123.968 E.02233
G1 X97.032 Y106.852 E1.07423
G1 X97.032 Y107.355 E.02233
G1 X113.645 Y123.968 E1.04265
G1 X113.141 Y123.968 E.02233
G1 X97.032 Y107.859 E1.01106
G1 X97.032 Y108.362 E.02233
G1 X112.638 Y123.968 E.97948
G1 X112.135 Y123.968 E.02233
G1 X97.032 Y108.865 E.94789
G1 X97.032 Y109.368 E.02233
G1 X111.632 Y123.968 E.91631
G1 X111.128 Y123.968 E.02233
G1 X97.032 Y109.872 E.88473
G1 X97.032 Y110.375 E.02233
G1 X110.625 Y123.968 E.85314
G1 X110.122 Y123.968 E.02233
G1 X97.032 Y110.878 E.82156
G1 X97.032 Y111.381 E.02233
G1 X109.619 Y123.968 E.78998
G1 X109.116 Y123.968 E.02233
G1 X97.032 Y111.884 E.75839
G1 X97.032 Y112.388 E.02233
G1 X108.612 Y123.968 E.72681
G1 X108.109 Y123.968 E.02233
G1 X97.032 Y112.891 E.69523
G1 X97.032 Y113.394 E.02233
G1 X107.606 Y123.968 E.66364
G1 X107.103 Y123.968 E.02233
M73 P18 R26
G1 X97.032 Y113.897 E.63206
G1 X97.032 Y114.4 E.02233
G1 X106.6 Y123.968 E.60047
G1 X106.096 Y123.968 E.02233
G1 X97.032 Y114.904 E.56889
G1 X97.032 Y115.407 E.02233
M73 Q18 S26
G1 X105.593 Y123.968 E.53731
G1 X105.09 Y123.968 E.02233
G1 X97.032 Y115.91 E.50572
G1 X97.032 Y116.413 E.02233
G1 X104.587 Y123.968 E.47414
G1 X104.083 Y123.968 E.02233
G1 X97.032 Y116.917 E.44256
G1 X97.032 Y117.42 E.02233
G1 X103.58 Y123.968 E.41097
G1 X103.077 Y123.968 E.02233
G1 X97.032 Y117.923 E.37939
G1 X97.032 Y118.426 E.02233
G1 X102.574 Y123.968 E.3478
G1 X102.071 Y123.968 E.02233
G1 X97.032 Y118.929 E.31622
G1 X97.032 Y119.433 E.02233
G1 X101.567 Y123.968 E.28464
G1 X101.064 Y123.968 E.02233
G1 X97.032 Y119.936 E.25305
G1 X97.032 Y120.439 E.02233
G1 X100.561 Y123.968 E.22147
G1 X100.058 Y123.968 E.02233
G1 X97.032 Y120.942 E.18989
G1 X97.032 Y121.445 E.02233
G1 X99.555 Y123.968 E.1583
G1 X99.051 Y123.968 E.02233
G1 X97.032 Y121.949 E.12672
G1 X97.032 Y122.452 E.02233
G1 X98.548 Y123.968 E.09513
G1 X98.045 Y123.968 E.02233
G1 X97.032 Y122.955 E.06355
G1 X97.032 Y123.458 E.02233
G1 X97.595 Y124.021 E.03529
G1 X97.282 Y124.125 E.01464
