; generated by PrusaSlicer 2.5.0 on 2023-02-19 at 19:04:05 UTC


;
;
; 

; external perimeters extrusion width = 0.60mm
; perimeters extrusion width = 0.50mm
; infill extrusion width = 0.50mm
; solid infill extrusion width = 0.50mm
; top infill extrusion width = 0.45mm
; support material extrusion width = 0.38mm
; first layer extrusion width = 0.42mm

; external perimeters extrusion width = 0.60mm
; perimeters extrusion width = 0.50mm
; infill extrusion width = 0.50mm
; solid infill extrusion width = 0.50mm
; top infill extrusion width = 0.45mm
; support material extrusion width = 0.38mm
; first layer extrusion width = 0.42mm

M73 P0 R82
M73 Q0 S83
M201 X1000 Y1000 Z200 E5000 ; sets maximum accelerations, mm/sec^2
M203 X200 Y200 Z12 E120 ; sets maximum feedrates, mm / sec
M204 P1250 R1250 T1250 ; sets acceleration (P, T) and retract acceleration (R), mm/sec^2
M205 X8.00 Y8.00 Z0.40 E4.50 ; sets the jerk limits, mm/sec
M205 S0 T0 ; sets the minimum extruding and travel feed rate, mm/sec
M107
;TYPE:Custom
M862.3 P "MK3S" ; printer model check
M862.1 P0.4 ; nozzle diameter check
M115 U3.11.0 ; tell printer latest fw version
G90 ; use absolute coordinates
M83 ; extruder relative mode
M104 S240 ; set extruder temp
M140 S95 ; set bed temp
M190 S95 ; wait for bed temp
M109 S240 ; wait for extruder temp
G28 W ; home all without mesh bed level
G80 ; mesh bed leveling

G1 Z0.2 F720
G1 Y-3 F1000 ; go outside print area
G92 E0
G1 X60 E9 F1000 ; intro line
G1 X100 E12.5 F1000 ; intro line

G92 E0
M221 S95

; Don't change E values below. Excessive value can damage the printer.

M907 E538 ; set extruder motor current
G21 ; set units to millimeters
G90 ; use absolute coordinates
M83 ; use relative distances for extrusion
M900 K0.08 ; Filament gcode LA 1.5
M900 K45 ; Filament gcode LA 1.0
M107
;LAYER_CHANGE
;Z:0.3
;HEIGHT:0.3
;BEFORE_LAYER_CHANGE
G92 E0.0
;0.3


G1 E-1.4 F2100
G1 Z.2 F720
G1 Z.3
;AFTER_LAYER_CHANGE
;0.3
G1 Z.5
G1 X55.093 Y53.866 F10800
G1 Z.3 F720
G1 E1.4 F2100
M204 S800
;TYPE:Skirt/Brim
;WIDTH:0.42
G1 F1200
G1 X56.138 Y52.998 E.06024
G1 X57.057 Y52.811 E.04163
G1 X183.373 Y52.811 E5.60273
G1 X184.674 Y53.202 E.06024
G1 X185.542 Y54.247 E.06024
G1 X185.729 Y55.166 E.04163
G1 X185.729 Y129.899 E3.31476
G1 X185.337 Y131.2 E.06024
G1 X184.293 Y132.068 E.06024
G1 X183.373 Y132.255 E.04163
G1 X57.057 Y132.255 E5.60273
G1 X55.757 Y131.863 E.06024
G1 X54.889 Y130.819 E.06024
G1 X54.702 Y129.899 E.04163
G1 X54.702 Y55.166 E3.31476
G1 X55.076 Y53.923 E.05758
M204 S1000
; printing object 3FU_shin-Body.stl id:1 copy 0
;WIPE_START
G1 F8640
G1 X56.138 Y52.998 E-.32524
G1 X57.057 Y52.811 E-.21671
G1 X60.47 Y52.811 E-.78805
;WIPE_END
G1 E-.07 F2100
G1 Z.5 F720
G1 X120.22 Y57.42 F10800
G1 Z.3 F720
G1 E1.4 F2100
M204 S800
;TYPE:Support material interface
;WIDTH:0.38
G1 F1200
G1 X120.22 Y57.799 E.01491
G1 X120.417 Y57.799 E.00776
G1 X120.417 Y55.483 E.09116
G1 X120.932 Y55.483 E.0203
G1 X120.932 Y57.621 E.08419
G1 X121.108 Y57.446 E.00979
G1 X121.448 Y57.446 E.01338
G1 X121.448 Y55.483 E.07727
G1 X121.964 Y55.483 E.0203
G1 X121.964 Y57.446 E.07727
G1 X122.479 Y57.446 E.0203
G1 X122.479 Y55.483 E.07727
G1 X122.995 Y55.483 E.0203
G1 X122.995 Y57.446 E.07727
G1 X123.51 Y57.446 E.0203
G1 X123.51 Y55.483 E.07727
G1 X124.026 Y55.483 E.0203
G1 X124.026 Y57.799 E.09116
G1 X124.542 Y57.799 E.0203
G1 X124.542 Y55.483 E.09116
G1 X124.851 Y55.483 E.01217
G1 X124.851 Y57.799 E.09116
G1 X124.699 Y57.799 E.00596
M204 S1000
;WIPE_START
G1 F8640
G1 X124.851 Y57.799 E-.03495
G1 X124.851 Y55.483 E-.53469
G1 X124.542 Y55.483 E-.07138
G1 X124.542 Y57.799 E-.53469
G1 X124.026 Y57.799 E-.11906
G1 X124.026 Y57.646 E-.03523
;WIPE_END
G1 E-.07 F2100
G1 Z.5 F720
G1 X127.798 Y65.377 F10800
G1 Z.3 F720
G1 E1.4 F2100
M204 S800
;TYPE:Support material
;WIDTH:0.42
G1 F1200
G1 X123.893 Y65.377 E.17325
G1 X123.893 Y58.583 E.30136
G1 X123.559 Y58.249 E.02094
G1 X121.086 Y58.249 E.10965
G1 X120.753 Y58.583 E.02094
G1 X120.753 Y65.377 E.30136
G1 X117.272 Y65.377 E.15439
G1 X117.272 Y55.166 E.45291
G1 X119.852 Y55.166 E.11443
G1 X119.852 Y58.166 E.13306
G1 X121.173 Y58.166 E.0586
G1 X121.173 Y57.901 E.01176
G1 X121.26 Y57.814 E.00551
G1 X123.385 Y57.814 E.09422
G1 X123.472 Y57.901 E.00551
G1 X123.472 Y58.166 E.01176
G1 X125.219 Y58.166 E.07745
G1 X125.219 Y55.166 E.13306
G1 X127.798 Y55.166 E.11443
G1 X127.798 Y65.324 E.45054
M204 S1000
;WIPE_START
G1 F8640
G1 X127.798 Y59.564 E-1.33
;WIPE_END
G1 E-.07 F2100
G1 Z.5 F720
G1 X120.293 Y65.217 F10800
G1 Z.3 F720
G1 E1.4 F2100
M204 S800
G1 F1200
G1 X120.293 Y58.487 E.29855
G1 X119.897 Y58.486 E.01753
G1 X119.897 Y65.057 E.29145
G1 X119.502 Y65.057 E.01753
G1 X119.502 Y55.486 E.42452
G1 X119.107 Y55.486 E.01753
G1 X119.107 Y65.057 E.42452
G1 X118.712 Y65.057 E.01753
G1 X118.712 Y55.486 E.42452
G1 X118.317 Y55.486 E.01753
G1 X118.317 Y65.057 E.42452
G1 X117.922 Y65.057 E.01753
G1 X117.922 Y55.326 E.43161
M204 S1000
;WIPE_START
G1 F8640
G1 X117.922 Y61.086 E-1.33
;WIPE_END
G1 E-.07 F2100
G1 Z.5 F720
G1 X127.405 Y65.217 F10800
G1 Z.3 F720
G1 E1.4 F2100
M204 S800
G1 F1200
G1 X127.405 Y55.486 E.43161
G1 X127.01 Y55.486 E.01753
G1 X127.01 Y65.057 E.42452
G1 X126.615 Y65.057 E.01753
G1 X126.615 Y55.486 E.42452
G1 X126.22 Y55.486 E.01753
G1 X126.22 Y65.057 E.42452
G1 X125.824 Y65.057 E.01753
G1 X125.824 Y55.486 E.42452
G1 X125.539 Y55.486 E.01267
G1 X125.539 Y58.487 E.13306
G1 X125.429 Y58.487 E.00486
G1 X125.429 Y65.057 E.29145
G1 X125.034 Y65.057 E.01753
G1 X125.034 Y58.487 E.29145
G1 X124.639 Y58.487 E.01753
G1 X124.639 Y65.057 E.29145
G1 X124.244 Y65.057 E.01753
G1 X124.244 Y58.326 E.29855
M204 S1000
;WIPE_START
G1 F8640
M73 P0 R81
G1 X124.244 Y64.086 E-1.33
;WIPE_END
G1 E-.07 F2100
G1 Z.5 F720
G1 X175.946 Y55.483 F10800
G1 Z.3 F720
G1 E1.4 F2100
M204 S800
;TYPE:Support material interface
;WIDTH:0.38
G1 F1200
G1 X175.794 Y55.483 E.00596
G1 X175.794 Y57.799 E.09116
G1 X176.104 Y57.799 E.01217
G1 X176.104 Y55.483 E.09116
G1 X176.619 Y55.483 E.0203
G1 X176.619 Y57.799 E.09116
G1 X176.805 Y57.799 E.00731
G1 X176.805 Y57.749 E.00195
G1 X177.108 Y57.446 E.01689
G1 X177.135 Y57.446 E.00105
G1 X177.135 Y55.483 E.07727
G1 X177.65 Y55.483 E.0203
G1 X177.65 Y57.446 E.07727
G1 X178.166 Y57.446 E.0203
G1 X178.166 Y55.483 E.07727
G1 X178.682 Y55.483 E.0203
G1 X178.682 Y57.446 E.07727
G1 X179.197 Y57.446 E.0203
G1 X179.197 Y55.483 E.07727
G1 X179.713 Y55.483 E.0203
G1 X179.713 Y57.621 E.08419
G1 X179.84 Y57.749 E.0071
G1 X179.84 Y57.799 E.00195
G1 X180.228 Y57.799 E.01528
G1 X180.228 Y55.483 E.09116
G1 X180.426 Y55.483 E.00776
G1 X180.426 Y55.862 E.01491
M204 S1000
;WIPE_START
G1 F8640
G1 X180.426 Y55.483 E-.08747
G1 X180.228 Y55.483 E-.04553
G1 X180.228 Y57.799 E-.53469
G1 X179.84 Y57.799 E-.08961
G1 X179.84 Y57.749 E-.01144
G1 X179.713 Y57.621 E-.04164
G1 X179.713 Y55.483 E-.4938
G1 X179.601 Y55.483 E-.02581
;WIPE_END
G1 E-.07 F2100
G1 Z.5 F720
G1 X183.373 Y65.377 F10800
G1 Z.3 F720
G1 E1.4 F2100
M204 S800
;TYPE:Support material
;WIDTH:0.42
G1 F1200
G1 X179.893 Y65.377 E.15439
G1 X179.893 Y58.583 E.30136
G1 X179.559 Y58.249 E.02094
G1 X177.086 Y58.249 E.10965
G1 X176.753 Y58.583 E.02094
G1 X176.753 Y65.377 E.30136
G1 X172.847 Y65.377 E.17325
G1 X172.847 Y55.166 E.45291
G1 X175.426 Y55.166 E.11443
G1 X175.426 Y58.166 E.13306
G1 X177.173 Y58.166 E.07745
G1 X177.173 Y57.901 E.01176
G1 X177.26 Y57.814 E.00551
G1 X179.385 Y57.814 E.09422
G1 X179.472 Y57.901 E.00551
G1 X179.472 Y58.166 E.01176
G1 X180.794 Y58.166 E.0586
G1 X180.794 Y55.166 E.13306
G1 X183.373 Y55.166 E.11443
G1 X183.373 Y65.324 E.45054
M204 S1000
;WIPE_START
G1 F8640
G1 X183.373 Y59.564 E-1.33
;WIPE_END
G1 E-.07 F2100
G1 Z.5 F720
G1 X176.401 Y65.217 F10800
G1 Z.3 F720
G1 E1.4 F2100
M204 S800
G1 F1200
G1 X176.401 Y58.487 E.29855
G1 X176.006 Y58.487 E.01753
G1 X176.006 Y65.057 E.29145
G1 X175.611 Y65.057 E.01753
M73 P1 R81
M73 Q1 S83
G1 X175.611 Y58.487 E.29145
G1 X175.216 Y58.486 E.01753
G1 X175.216 Y65.057 E.29145
G1 X174.821 Y65.057 E.01753
G1 X174.821 Y55.486 E.42452
G1 X174.426 Y55.486 E.01753
G1 X174.426 Y65.057 E.42452
G1 X174.03 Y65.057 E.01753
G1 X174.03 Y55.486 E.42452
G1 X173.635 Y55.486 E.01753
G1 X173.635 Y65.057 E.42452
G1 X173.24 Y65.057 E.01753
G1 X173.24 Y55.326 E.43161
M204 S1000
;WIPE_START
G1 F8640
M73 Q1 S82
G1 X173.24 Y61.086 E-1.33
;WIPE_END
G1 E-.07 F2100
G1 Z.5 F720
G1 X182.723 Y65.217 F10800
G1 Z.3 F720
G1 E1.4 F2100
M204 S800
G1 F1200
G1 X182.723 Y55.486 E.43161
G1 X182.328 Y55.486 E.01753
G1 X182.328 Y65.057 E.42452
G1 X181.933 Y65.057 E.01753
G1 X181.933 Y55.486 E.42452
G1 X181.538 Y55.486 E.01753
G1 X181.538 Y65.057 E.42452
G1 X181.143 Y65.057 E.01753
G1 X181.143 Y55.486 E.42452
G1 X181.114 Y55.486 E.0013
G1 X181.114 Y58.487 E.13306
G1 X180.748 Y58.487 E.01623
G1 X180.748 Y65.057 E.29145
G1 X180.353 Y65.057 E.01753
G1 X180.353 Y58.326 E.29855
M204 S1000
;WIPE_START
G1 F8640
G1 X180.353 Y64.086 E-1.33
;WIPE_END
G1 E-.07 F2100
G1 Z.5 F720
G1 X176.753 Y126.482 F10800
G1 Z.3 F720
G1 E1.4 F2100
M204 S800
G1 F1200
G1 X177.086 Y126.816 E.02094
G1 X179.559 Y126.816 E.10965
G1 X179.893 Y126.482 E.02094
G1 X179.893 Y119.688 E.30136
G1 X183.373 Y119.688 E.15439
G1 X183.373 Y129.899 E.45291
G1 X180.794 Y129.899 E.11443
G1 X180.794 Y126.899 E.13306
G1 X179.472 Y126.899 E.0586
G1 X179.472 Y127.164 E.01176
G1 X179.385 Y127.252 E.00551
G1 X177.26 Y127.252 E.09422
G1 X177.173 Y127.164 E.00551
G1 X177.173 Y126.899 E.01176
G1 X175.426 Y126.899 E.07745
G1 X175.426 Y129.899 E.13306
G1 X172.847 Y129.899 E.11443
G1 X172.847 Y119.688 E.45291
G1 X176.753 Y119.688 E.17325
G1 X176.753 Y126.429 E.299
M204 S1000
G1 X176.401 Y126.739 F10800
M204 S800
G1 F1200
G1 X176.401 Y120.008 E.29855
G1 X176.006 Y120.008 E.01753
G1 X176.006 Y126.579 E.29145
G1 X175.611 Y126.579 E.01753
G1 X175.611 Y120.008 E.29145
G1 X175.216 Y120.008 E.01753
G1 X175.216 Y126.579 E.29145
G1 X175.106 Y126.579 E.00486
G1 X175.106 Y129.579 E.13306
G1 X174.821 Y129.579 E.01267
G1 X174.821 Y120.008 E.42452
G1 X174.426 Y120.008 E.01753
G1 X174.426 Y129.579 E.42452
G1 X174.03 Y129.579 E.01753
G1 X174.03 Y120.008 E.42452
G1 X173.635 Y120.008 E.01753
G1 X173.635 Y129.579 E.42452
G1 X173.24 Y129.579 E.01753
G1 X173.24 Y119.848 E.43161
M204 S1000
;WIPE_START
G1 F8640
G1 X173.24 Y125.608 E-1.33
;WIPE_END
G1 E-.07 F2100
G1 Z.5 F720
G1 X182.723 Y129.739 F10800
G1 Z.3 F720
G1 E1.4 F2100
M204 S800
G1 F1200
G1 X182.723 Y120.008 E.43161
G1 X182.328 Y120.008 E.01753
G1 X182.328 Y129.579 E.42452
G1 X181.933 Y129.579 E.01753
G1 X181.933 Y120.008 E.42452
G1 X181.538 Y120.008 E.01753
G1 X181.538 Y129.579 E.42452
G1 X181.143 Y129.579 E.01753
G1 X181.143 Y120.008 E.42452
G1 X180.748 Y120.008 E.01753
G1 X180.748 Y126.579 E.29145
G1 X180.353 Y126.579 E.01753
G1 X180.353 Y119.848 E.29855
M204 S1000
;WIPE_START
G1 F8640
G1 X180.353 Y125.608 E-1.33
;WIPE_END
G1 E-.07 F2100
G1 Z.5 F720
G1 X180.426 Y127.646 F10800
G1 Z.3 F720
G1 E1.4 F2100
M204 S800
;TYPE:Support material interface
;WIDTH:0.38
G1 F1200
G1 X180.426 Y127.267 E.01491
G1 X180.228 Y127.267 E.00776
G1 X180.228 Y129.583 E.09116
G1 X179.713 Y129.583 E.0203
G1 X179.713 Y127.444 E.08419
G1 X179.537 Y127.62 E.00979
G1 X179.197 Y127.62 E.01338
G1 X179.197 Y129.583 E.07727
G1 X178.682 Y129.583 E.0203
G1 X178.682 Y127.62 E.07727
G1 X178.166 Y127.62 E.0203
G1 X178.166 Y129.583 E.07727
G1 X177.65 Y129.583 E.0203
G1 X177.65 Y127.62 E.07727
G1 X177.135 Y127.62 E.0203
G1 X177.135 Y129.583 E.07727
G1 X176.619 Y129.583 E.0203
G1 X176.619 Y127.267 E.09116
G1 X176.104 Y127.267 E.0203
G1 X176.104 Y129.583 E.09116
G1 X175.794 Y129.583 E.01217
G1 X175.794 Y127.267 E.09116
G1 X175.946 Y127.267 E.00596
M204 S1000
;WIPE_START
G1 F8640
G1 X175.794 Y127.267 E-.03494
G1 X175.794 Y129.583 E-.53469
G1 X176.104 Y129.583 E-.07138
G1 X176.104 Y127.267 E-.53469
G1 X176.619 Y127.267 E-.11906
G1 X176.619 Y127.42 E-.03523
;WIPE_END
G1 E-.07 F2100
G1 Z.5 F720
G1 X124.699 Y129.583 F10800
G1 Z.3 F720
G1 E1.4 F2100
M204 S800
G1 F1200
G1 X124.851 Y129.583 E.00596
G1 X124.851 Y127.267 E.09116
G1 X124.542 Y127.267 E.01217
G1 X124.542 Y129.583 E.09116
G1 X124.026 Y129.583 E.0203
G1 X124.026 Y127.267 E.09116
G1 X123.84 Y127.267 E.00731
G1 X123.84 Y127.317 E.00195
G1 X123.537 Y127.62 E.01689
G1 X123.51 Y127.62 E.00105
G1 X123.51 Y129.583 E.07727
G1 X122.995 Y129.583 E.0203
G1 X122.995 Y127.62 E.07727
G1 X122.479 Y127.62 E.0203
G1 X122.479 Y129.583 E.07727
G1 X121.964 Y129.583 E.0203
G1 X121.964 Y127.62 E.07727
G1 X121.448 Y127.62 E.0203
G1 X121.448 Y129.583 E.07727
G1 X120.932 Y129.583 E.0203
G1 X120.932 Y127.444 E.08419
G1 X120.805 Y127.317 E.0071
G1 X120.805 Y127.267 E.00195
G1 X120.417 Y127.267 E.01528
G1 X120.417 Y129.583 E.09116
G1 X120.22 Y129.583 E.00776
G1 X120.22 Y129.204 E.01491
M204 S1000
;WIPE_START
G1 F8640
G1 X120.22 Y129.583 E-.08747
G1 X120.417 Y129.583 E-.04552
G1 X120.417 Y127.267 E-.53469
G1 X120.805 Y127.267 E-.08961
G1 X120.805 Y127.317 E-.01144
G1 X120.932 Y127.444 E-.04164
G1 X120.932 Y129.583 E-.49381
G1 X121.044 Y129.583 E-.02581
;WIPE_END
G1 E-.07 F2100
G1 Z.5 F720
G1 X120.753 Y126.482 F10800
G1 Z.3 F720
G1 E1.4 F2100
M204 S800
;TYPE:Support material
;WIDTH:0.42
G1 F1200
G1 X121.086 Y126.816 E.02094
G1 X123.559 Y126.816 E.10965
G1 X123.893 Y126.482 E.02094
G1 X123.893 Y119.688 E.30136
G1 X127.798 Y119.688 E.17325
G1 X127.798 Y129.899 E.45291
G1 X125.219 Y129.899 E.11443
G1 X125.219 Y126.899 E.13306
G1 X123.472 Y126.899 E.07745
G1 X123.472 Y127.164 E.01176
G1 X123.385 Y127.252 E.00551
G1 X121.26 Y127.252 E.09422
G1 X121.173 Y127.164 E.00551
G1 X121.173 Y126.899 E.01176
G1 X119.852 Y126.899 E.0586
G1 X119.852 Y129.899 E.13306
G1 X117.272 Y129.899 E.11443
G1 X117.272 Y119.688 E.45291
G1 X120.753 Y119.688 E.15439
G1 X120.753 Y126.429 E.299
M204 S1000
G1 X120.293 Y126.739 F10800
M204 S800
G1 F1200
G1 X120.293 Y120.008 E.29855
G1 X119.897 Y120.008 E.01753
G1 X119.897 Y126.579 E.29145
G1 X119.532 Y126.579 E.01623
G1 X119.532 Y129.579 E.13306
G1 X119.502 Y129.579 E.0013
G1 X119.502 Y120.008 E.42452
G1 X119.107 Y120.008 E.01753
G1 X119.107 Y129.579 E.42452
G1 X118.712 Y129.579 E.01753
G1 X118.712 Y120.008 E.42452
G1 X118.317 Y120.008 E.01753
G1 X118.317 Y129.579 E.42452
G1 X117.922 Y129.579 E.01753
G1 X117.922 Y119.848 E.43161
M204 S1000
;WIPE_START
G1 F8640
G1 X117.922 Y125.608 E-1.33
;WIPE_END
G1 E-.07 F2100
G1 Z.5 F720
G1 X127.405 Y129.739 F10800
G1 Z.3 F720
G1 E1.4 F2100
M204 S800
G1 F1200
G1 X127.405 Y120.008 E.43161
G1 X127.01 Y120.008 E.01753
G1 X127.01 Y129.579 E.42452
G1 X126.615 Y129.579 E.01753
G1 X126.615 Y120.008 E.42452
G1 X126.22 Y120.008 E.01753
G1 X126.22 Y129.579 E.42452
G1 X125.824 Y129.579 E.01753
G1 X125.824 Y120.008 E.42452
G1 X125.429 Y120.008 E.01753
G1 X125.429 Y126.579 E.29145
G1 X125.034 Y126.579 E.01753
G1 X125.034 Y120.008 E.29145
G1 X124.639 Y120.008 E.01753
G1 X124.639 Y126.579 E.29145
G1 X124.244 Y126.579 E.01753
G1 X124.244 Y119.848 E.29855
M204 S1000
;WIPE_START
G1 F8640
G1 X124.244 Y125.608 E-1.33
;WIPE_END
G1 E-.07 F2100
G1 Z.5 F720
G1 X122.601 Y112.173 F10800
G1 Z.3 F720
G1 E1.4 F2100
M204 S800
;TYPE:Perimeter
;WIDTH:0.476572
G1 F1200
G1 X122.529 Y112.301 E.00752
G1 X122.529 Y125.452 E.67615
G1 X122.116 Y125.452 E.02119
G1 X122.116 Y112.301 E.67615
G1 X122.102 Y111.917 E.01975
;WIDTH:0.448286
G1 X122.088 Y111.533 E.01839
;WIDTH:0.42
G1 X122.088 Y73.533 E1.68548
;WIDTH:0.448286
G1 X122.102 Y73.149 E.01839
;WIDTH:0.476572
G1 X122.116 Y72.765 E.01975
G1 X122.116 Y59.613 E.67615
G1 X122.529 Y59.613 E.02119
G1 X122.529 Y72.765 E.67615
;WIDTH:0.48239
G1 X122.534 Y72.863 E.00509
G1 X122.652 Y73.027 E.01056
;WIDTH:0.451195
G1 X122.77 Y73.192 E.00977
;WIDTH:0.42
G1 X123.09 Y73.298 E.01496
G1 X177.555 Y73.298 E2.41575
G1 X177.875 Y73.192 E.01496
;WIDTH:0.451194
G1 X177.993 Y73.027 E.00977
;WIDTH:0.482389
G1 X178.111 Y72.863 E.01056
G1 X178.116 Y72.765 E.00509
;WIDTH:0.476572
G1 X178.116 Y59.613 E.67615
G1 X178.529 Y59.613 E.02119
G1 X178.529 Y72.765 E.67615
;WIDTH:0.482389
G1 X178.541 Y73.216 E.02351
;WIDTH:0.451194
G1 X178.557 Y73.533 E.01532
;WIDTH:0.42
G1 X178.557 Y111.533 E1.68548
;WIDTH:0.448286
G1 X178.543 Y111.917 E.01839
;WIDTH:0.476572
