; generated by PrusaSlicer 2.5.0 on 2022-09-17 at 15:39:37 UTC

; 

; external perimeters extrusion width = 0.60mm
; perimeters extrusion width = 0.50mm
; infill extrusion width = 0.50mm
; solid infill extrusion width = 0.50mm
; top infill extrusion width = 0.45mm
; first layer extrusion width = 0.42mm

M73 P0 R55
M73 Q0 S56
M201 X1000 Y1000 Z200 E5000 ; sets maximum accelerations, mm/sec^2
M203 X200 Y200 Z12 E120 ; sets maximum feedrates, mm / sec
M204 P1250 R1250 T1250 ; sets acceleration (P, T) and retract acceleration (R), mm/sec^2
M205 X8.00 Y8.00 Z0.40 E4.50 ; sets the jerk limits, mm/sec
M205 S0 T0 ; sets the minimum extruding and travel feed rate, mm/sec
M107
;TYPE:Custom
M862.3 P "MK3S" ; printer model check
M862.1 P0.4 ; nozzle diameter check
M115 U3.10.1 ; tell printer latest fw version
G90 ; use absolute coordinates
M83 ; extruder relative mode
M104 S240 ; set extruder temp
M140 S95 ; set bed temp
M190 S95 ; wait for bed temp
M109 S240 ; wait for extruder temp
G28 W ; home all without mesh bed level
G80 ; mesh bed leveling
G1 Z0.2 F720
G1 Y-3 F1000 ; go outside print area
G92 E0
G1 X60 E9 F1000 ; intro line
G1 X100 E12.5 F1000 ; intro line
G92 E0
M221 S95

; Don't change E values below. Excessive value can damage the printer.

M907 E538 ; set extruder motor current
G21 ; set units to millimeters
G90 ; use absolute coordinates
M83 ; use relative distances for extrusion
M900 K0.08 ; Filament gcode LA 1.5
M900 K45 ; Filament gcode LA 1.0
M107
;LAYER_CHANGE
;Z:0.3
;HEIGHT:0.3
;BEFORE_LAYER_CHANGE
G92 E0.0
;0.3


G1 E-1.4 F2100
G1 Z.2 F720
G1 Z.3
;AFTER_LAYER_CHANGE
;0.3
G1 Z.5
G1 X96.036 Y70.716 F10800
G1 Z.3 F720
G1 E1.4 F2100
M204 S800
;TYPE:Skirt/Brim
;WIDTH:0.42
G1 F1200
G1 X97.08 Y69.848 E.06024
G1 X98 Y69.661 E.04163
G1 X152 Y69.661 E2.39516
G1 X153.3 Y70.052 E.06024
G1 X154.169 Y71.097 E.06024
G1 X154.356 Y72.016 E.04163
G1 X154.356 Y137.984 E2.92596
G1 X153.964 Y139.284 E.06024
G1 X152.92 Y140.152 E.06024
G1 X152 Y140.339 E.04163
G1 X98 Y140.339 E2.39516
G1 X96.7 Y139.948 E.06024
G1 X95.831 Y138.903 E.06024
G1 X95.644 Y137.984 E.04163
G1 X95.644 Y72.016 E2.92596
G1 X96.019 Y70.773 E.05758
M204 S1000
; printing object 4L_knee-Body.stl id:0 copy 0
;WIPE_START
G1 F8640
G1 X97.08 Y69.848 E-.32524
G1 X98 Y69.661 E-.21671
G1 X101.413 Y69.661 E-.78805
;WIPE_END
G1 E-.07 F2100
G1 Z.5 F720
G1 X98.794 Y73.86 F10800
G1 Z.3 F720
G1 E1.4 F2100
M204 S800
;TYPE:Perimeter
;WIDTH:0.476572
G1 F1200
G1 X99.206 Y73.86 E.02119
G1 X99.206 Y85.232 E.58465
;WIDTH:0.48239
G1 X99.212 Y85.33 E.00509
G1 X99.33 Y85.494 E.01056
;WIDTH:0.451195
G1 X99.448 Y85.659 E.00977
;WIDTH:0.42
G1 X99.768 Y85.766 E.01496
G1 X150.232 Y85.766 E2.23834
G1 X150.552 Y85.659 E.01496
;WIDTH:0.451194
G1 X150.67 Y85.494 E.00977
;WIDTH:0.482389
G1 X150.788 Y85.33 E.01056
G1 X150.794 Y85.232 E.00509
;WIDTH:0.476572
G1 X150.794 Y73.86 E.58465
G1 X151.206 Y73.86 E.02119
G1 X151.206 Y85.232 E.58465
;WIDTH:0.482389
G1 X151.219 Y85.683 E.02351
;WIDTH:0.451194
G1 X151.234 Y86 E.01532
;WIDTH:0.42
G1 X151.234 Y124 E1.68548
;WIDTH:0.448286
G1 X151.22 Y124.384 E.01839
;WIDTH:0.476572
G1 X151.206 Y124.768 E.01975
G1 X151.206 Y136.14 E.58465
G1 X150.794 Y136.14 E.02119
G1 X150.794 Y124.768 E.58465
G1 X150.673 Y124.554 E.01261
;WIDTH:0.448286
G1 X150.552 Y124.341 E.01174
;WIDTH:0.42
G1 X150.232 Y124.234 E.01496
G1 X99.768 Y124.234 E2.23834
G1 X99.448 Y124.341 E.01496
;WIDTH:0.448286
G1 X99.327 Y124.554 E.01174
;WIDTH:0.476572
G1 X99.206 Y124.768 E.01261
G1 X99.206 Y136.14 E.58465
G1 X98.794 Y136.14 E.02119
G1 X98.794 Y124.768 E.58465
G1 X98.78 Y124.384 E.01975
;WIDTH:0.448286
G1 X98.766 Y124 E.01839
;WIDTH:0.42
G1 X98.766 Y86 E1.68548
;WIDTH:0.448286
G1 X98.78 Y85.616 E.01839
;WIDTH:0.476572
G1 X98.794 Y85.232 E.01975
G1 X98.794 Y73.92 E.58157
M204 S1000
M73 P1 R55
G1 X99.59 Y73.476 F10800
M204 S800
;TYPE:External perimeter
;WIDTH:0.42
M73 Q1 S56
G1 F1200
G1 X99.59 Y85.232 E.52144
G1 X99.661 Y85.374 E.00705
G1 X99.768 Y85.41 E.00499
G1 X150.232 Y85.41 E2.23834
G1 X150.339 Y85.374 E.00499
G1 X150.41 Y85.232 E.00705
G1 X150.41 Y73.476 E.52144
G1 X151.59 Y73.476 E.05234
G1 X151.59 Y136.524 E2.79647
G1 X150.41 Y136.524 E.05234
G1 X150.41 Y124.768 E.52144
G1 X150.339 Y124.626 E.00705
M73 Q1 S55
G1 X150.232 Y124.59 E.00499
G1 X99.768 Y124.59 E2.23834
G1 X99.661 Y124.626 E.00499
G1 X99.59 Y124.768 E.00705
G1 X99.59 Y136.524 E.52144
G1 X98.41 Y136.524 E.05234
G1 X98.41 Y73.476 E2.79647
G1 X99.53 Y73.476 E.04968
M204 S1000
G1 X99.588 Y73.876 F10800
;WIPE_START
G1 F8640
G1 X99.559 Y79.236 E-1.33
;WIPE_END
G1 E-.07 F2100
G1 Z.5 F720
G1 X150.745 Y85.573 F10800
G1 Z.3 F720
G1 E1.4 F2100
M204 S800
;TYPE:Solid infill
;WIDTH:0.420308
G1 F1200
G1 X150.945 Y85.773 E.01256
G1 X150.968 Y86.004 E.01032
G1 X150.968 Y86.299 E.01309
G1 X150.587 Y85.919 E.02388
G1 X150.247 Y86.032 E.01594
G1 X150.197 Y86.032 E.00218
G1 X150.968 Y86.803 E.04836
G1 X150.968 Y87.306 E.02235
G1 X149.694 Y86.032 E.07996
G1 X149.191 Y86.032 E.02235
G1 X150.968 Y87.809 E.11156
G1 X150.968 Y88.313 E.02235
G1 X148.687 Y86.032 E.14316
G1 X148.184 Y86.032 E.02235
G1 X150.968 Y88.816 E.17476
G1 X150.968 Y89.319 E.02235
G1 X147.681 Y86.032 E.20637
G1 X147.177 Y86.032 E.02235
G1 X150.968 Y89.823 E.23797
G1 X150.968 Y90.326 E.02235
G1 X146.674 Y86.032 E.26957
G1 X146.171 Y86.032 E.02235
G1 X150.968 Y90.829 E.30117
G1 X150.968 Y91.333 E.02235
G1 X145.667 Y86.032 E.33277
G1 X145.164 Y86.032 E.02235
G1 X150.968 Y91.836 E.36437
G1 X150.968 Y92.34 E.02235
G1 X144.66 Y86.032 E.39597
G1 X144.157 Y86.032 E.02235
G1 X150.968 Y92.843 E.42758
G1 X150.968 Y93.346 E.02235
G1 X143.654 Y86.032 E.45918
G1 X143.15 Y86.032 E.02235
G1 X150.968 Y93.85 E.49078
G1 X150.968 Y94.353 E.02235
M73 P1 R54
G1 X142.647 Y86.032 E.52238
G1 X142.144 Y86.032 E.02235
G1 X150.968 Y94.856 E.55398
G1 X150.968 Y95.36 E.02235
G1 X141.64 Y86.032 E.58558
G1 X141.137 Y86.032 E.02235
G1 X150.968 Y95.863 E.61718
G1 X150.968 Y96.366 E.02235
G1 X140.634 Y86.032 E.64879
G1 X140.13 Y86.032 E.02235
G1 X150.968 Y96.87 E.68039
G1 X150.968 Y97.373 E.02235
G1 X139.627 Y86.032 E.71199
G1 X139.124 Y86.032 E.02235
G1 X150.968 Y97.876 E.74359
G1 X150.968 Y98.38 E.02235
G1 X138.62 Y86.032 E.77519
G1 X138.117 Y86.032 E.02235
G1 X150.968 Y98.883 E.80679
G1 X150.968 Y99.386 E.02235
G1 X137.614 Y86.032 E.83839
G1 X137.11 Y86.032 E.02235
G1 X150.968 Y99.89 E.87
G1 X150.968 Y100.393 E.02235
G1 X136.607 Y86.032 E.9016
G1 X136.103 Y86.032 E.02235
G1 X150.968 Y100.897 E.9332
G1 X150.968 Y101.4 E.02235
G1 X135.6 Y86.032 E.9648
G1 X135.097 Y86.032 E.02235
M73 P2 R54
G1 X150.968 Y101.903 E.9964
G1 X150.968 Y102.407 E.02235
M73 Q2 S55
G1 X134.593 Y86.032 E1.028
G1 X134.09 Y86.032 E.02235
G1 X150.968 Y102.91 E1.0596
G1 X150.968 Y103.413 E.02235
G1 X133.587 Y86.032 E1.09121
G1 X133.083 Y86.032 E.02235
G1 X150.968 Y103.917 E1.12281
G1 X150.968 Y104.42 E.02235
G1 X132.58 Y86.032 E1.15441
G1 X132.077 Y86.032 E.02235
G1 X150.968 Y104.923 E1.18601
G1 X150.968 Y105.427 E.02235
G1 X131.573 Y86.032 E1.21761
G1 X131.07 Y86.032 E.02235
G1 X150.968 Y105.93 E1.24921
G1 X150.968 Y106.433 E.02235
G1 X130.567 Y86.032 E1.28081
G1 X130.063 Y86.032 E.02235
G1 X150.968 Y106.937 E1.31242
G1 X150.968 Y107.44 E.02235
G1 X129.56 Y86.032 E1.34402
G1 X129.056 Y86.032 E.02235
G1 X150.968 Y107.944 E1.37562
G1 X150.968 Y108.447 E.02235
G1 X128.553 Y86.032 E1.40722
G1 X128.05 Y86.032 E.02235
G1 X150.968 Y108.95 E1.43882
G1 X150.968 Y109.454 E.02235
G1 X127.546 Y86.032 E1.47042
G1 X127.043 Y86.032 E.02235
G1 X150.968 Y109.957 E1.50202
G1 X150.968 Y110.46 E.02235
G1 X126.54 Y86.032 E1.53363
G1 X126.036 Y86.032 E.02235
G1 X150.968 Y110.964 E1.56523
G1 X150.968 Y111.467 E.02235
G1 X125.533 Y86.032 E1.59683
G1 X125.03 Y86.032 E.02235
G1 X150.968 Y111.97 E1.62843
G1 X150.968 Y112.474 E.02235
G1 X124.526 Y86.032 E1.66003
G1 X124.023 Y86.032 E.02235
M73 P3 R54
G1 X150.968 Y112.977 E1.69163
G1 X150.968 Y113.48 E.02235
M73 Q3 S54
G1 X123.52 Y86.032 E1.72324
G1 X123.016 Y86.032 E.02235
G1 X150.968 Y113.984 E1.75484
G1 X150.968 Y114.487 E.02235
G1 X122.513 Y86.032 E1.78644
G1 X122.009 Y86.032 E.02235
G1 X150.968 Y114.991 E1.81804
G1 X150.968 Y115.494 E.02235
G1 X121.506 Y86.032 E1.84964
G1 X121.003 Y86.032 E.02235
G1 X150.968 Y115.997 E1.88124
G1 X150.968 Y116.501 E.02235
M73 P3 R53
G1 X120.499 Y86.032 E1.91284
G1 X119.996 Y86.032 E.02235
G1 X150.968 Y117.004 E1.94445
G1 X150.968 Y117.507 E.02235
G1 X119.493 Y86.032 E1.97605
G1 X118.989 Y86.032 E.02235
G1 X150.968 Y118.011 E2.00765
G1 X150.968 Y118.514 E.02235
G1 X118.486 Y86.032 E2.03925
G1 X117.983 Y86.032 E.02235
G1 X150.968 Y119.017 E2.07085
G1 X150.968 Y119.521 E.02235
G1 X117.479 Y86.032 E2.10245
G1 X116.976 Y86.032 E.02235
G1 X150.968 Y120.024 E2.13405
G1 X150.968 Y120.527 E.02235
G1 X116.473 Y86.032 E2.16566
G1 X115.969 Y86.032 E.02235
M73 P4 R53
M73 Q4 S54
G1 X150.968 Y121.031 E2.19726
G1 X150.968 Y121.534 E.02235
G1 X115.466 Y86.032 E2.22886
G1 X114.962 Y86.032 E.02235
G1 X150.968 Y122.038 E2.26046
G1 X150.968 Y122.541 E.02235
G1 X114.459 Y86.032 E2.29206
G1 X113.956 Y86.032 E.02235
G1 X150.968 Y123.044 E2.32366
G1 X150.968 Y123.548 E.02235
G1 X113.452 Y86.032 E2.35526
G1 X112.949 Y86.032 E.02235
G1 X150.964 Y124.047 E2.38663
G1 X150.935 Y124.438 E.01741
G1 X150.91 Y124.444 E.00116
G1 X150.718 Y124.125 E.01654
G1 X150.448 Y124.035 E.01264
G1 X112.446 Y86.032 E2.38585
G1 X111.942 Y86.032 E.02235
G1 X149.878 Y123.968 E2.38164
G1 X149.374 Y123.968 E.02235
G1 X111.439 Y86.032 E2.38164
G1 X110.936 Y86.032 E.02235
M73 Q4 S53
G1 X148.871 Y123.968 E2.38164
G1 X148.368 Y123.968 E.02235
G1 X110.432 Y86.032 E2.38164
G1 X109.929 Y86.032 E.02235
M73 P5 R53
G1 X147.864 Y123.968 E2.38164
G1 X147.361 Y123.968 E.02235
M73 Q5 S53
G1 X109.426 Y86.032 E2.38164
G1 X108.922 Y86.032 E.02235
G1 X146.858 Y123.968 E2.38164
G1 X146.354 Y123.968 E.02235
M73 P5 R52
G1 X108.419 Y86.032 E2.38164
G1 X107.915 Y86.032 E.02235
G1 X145.851 Y123.968 E2.38164
G1 X145.347 Y123.968 E.02235
G1 X107.412 Y86.032 E2.38164
G1 X106.909 Y86.032 E.02235
G1 X144.844 Y123.968 E2.38164
G1 X144.341 Y123.968 E.02235
G1 X106.405 Y86.032 E2.38164
G1 X105.902 Y86.032 E.02235
G1 X143.837 Y123.968 E2.38164
G1 X143.334 Y123.968 E.02235
G1 X105.399 Y86.032 E2.38164
G1 X104.895 Y86.032 E.02235
G1 X142.831 Y123.968 E2.38164
G1 X142.327 Y123.968 E.02235
G1 X104.392 Y86.032 E2.38164
G1 X103.889 Y86.032 E.02235
G1 X141.824 Y123.968 E2.38164
G1 X141.321 Y123.968 E.02235
M73 P6 R52
M73 Q6 S53
G1 X103.385 Y86.032 E2.38164
G1 X102.882 Y86.032 E.02235
G1 X140.817 Y123.968 E2.38164
G1 X140.314 Y123.968 E.02235
G1 X102.379 Y86.032 E2.38164
G1 X101.875 Y86.032 E.02235
G1 X139.811 Y123.968 E2.38164
G1 X139.307 Y123.968 E.02235
G1 X101.372 Y86.032 E2.38164
G1 X100.868 Y86.032 E.02235
G1 X138.804 Y123.968 E2.38164
G1 X138.3 Y123.968 E.02235
G1 X100.365 Y86.032 E2.38164
G1 X99.862 Y86.032 E.02235
M73 Q6 S52
G1 X137.797 Y123.968 E2.38164
G1 X137.294 Y123.968 E.02235
G1 X99.059 Y85.733 E2.40043
G1 X99.032 Y86.21 E.02119
G1 X136.79 Y123.968 E2.37051
G1 X136.287 Y123.968 E.02235
G1 X99.032 Y86.713 E2.3389
G1 X99.032 Y87.216 E.02235
G1 X135.784 Y123.968 E2.3073
G1 X135.28 Y123.968 E.02235
M73 P7 R51
G1 X99.032 Y87.72 E2.2757
G1 X99.032 Y88.223 E.02235
M73 Q7 S52
G1 X134.777 Y123.968 E2.2441
G1 X134.274 Y123.968 E.02235
G1 X99.032 Y88.726 E2.2125
G1 X99.032 Y89.23 E.02235
G1 X133.77 Y123.968 E2.1809
G1 X133.267 Y123.968 E.02235
G1 X99.032 Y89.733 E2.1493
G1 X99.032 Y90.236 E.02235
G1 X132.764 Y123.968 E2.11769
G1 X132.26 Y123.968 E.02235
G1 X99.032 Y90.74 E2.08609
G1 X99.032 Y91.243 E.02235
G1 X131.757 Y123.968 E2.05449
G1 X131.253 Y123.968 E.02235
G1 X99.032 Y91.747 E2.02289
G1 X99.032 Y92.25 E.02235
G1 X130.75 Y123.968 E1.99129
G1 X130.247 Y123.968 E.02235
G1 X99.032 Y92.753 E1.95969
G1 X99.032 Y93.257 E.02235
G1 X129.743 Y123.968 E1.92808
G1 X129.24 Y123.968 E.02235
G1 X99.032 Y93.76 E1.89648
G1 X99.032 Y94.263 E.02235
G1 X128.737 Y123.968 E1.86488
G1 X128.233 Y123.968 E.02235
M73 P8 R51
G1 X99.032 Y94.767 E1.83328
G1 X99.032 Y95.27 E.02235
M73 Q8 S52
G1 X127.73 Y123.968 E1.80168
G1 X127.227 Y123.968 E.02235
G1 X99.032 Y95.773 E1.77008
G1 X99.032 Y96.277 E.02235
G1 X126.723 Y123.968 E1.73848
G1 X126.22 Y123.968 E.02235
G1 X99.032 Y96.78 E1.70687
G1 X99.032 Y97.283 E.02235
G1 X125.717 Y123.968 E1.67527
G1 X125.213 Y123.968 E.02235
M73 Q8 S51
G1 X99.032 Y97.787 E1.64367
G1 X99.032 Y98.29 E.02235
G1 X124.71 Y123.968 E1.61207
G1 X124.206 Y123.968 E.02235
G1 X99.032 Y98.794 E1.58047
G1 X99.032 Y99.297 E.02235
G1 X123.703 Y123.968 E1.54887
G1 X123.2 Y123.968 E.02235
G1 X99.032 Y99.8 E1.51727
G1 X99.032 Y100.304 E.02235
G1 X122.696 Y123.968 E1.48566
G1 X122.193 Y123.968 E.02235
G1 X99.032 Y100.807 E1.45406
G1 X99.032 Y101.31 E.02235
M73 P8 R50
G1 X121.69 Y123.968 E1.42246
G1 X121.186 Y123.968 E.02235
G1 X99.032 Y101.814 E1.39086
G1 X99.032 Y102.317 E.02235
G1 X120.683 Y123.968 E1.35926
G1 X120.18 Y123.968 E.02235
G1 X99.032 Y102.82 E1.32766
G1 X99.032 Y103.324 E.02235
G1 X119.676 Y123.968 E1.29606
G1 X119.173 Y123.968 E.02235
M73 P9 R50
G1 X99.032 Y103.827 E1.26445
G1 X99.032 Y104.33 E.02235
G1 X118.67 Y123.968 E1.23285
G1 X118.166 Y123.968 E.02235
G1 X99.032 Y104.834 E1.20125
G1 X99.032 Y105.337 E.02235
M73 Q9 S51
G1 X117.663 Y123.968 E1.16965
G1 X117.159 Y123.968 E.02235
G1 X99.032 Y105.841 E1.13805
G1 X99.032 Y106.344 E.02235
G1 X116.656 Y123.968 E1.10645
G1 X116.153 Y123.968 E.02235
G1 X99.032 Y106.847 E1.07485
G1 X99.032 Y107.351 E.02235
G1 X115.649 Y123.968 E1.04324
G1 X115.146 Y123.968 E.02235
G1 X99.032 Y107.854 E1.01164
G1 X99.032 Y108.357 E.02235
G1 X114.643 Y123.968 E.98004
G1 X114.139 Y123.968 E.02235
G1 X99.032 Y108.861 E.94844
G1 X99.032 Y109.364 E.02235
G1 X113.636 Y123.968 E.91684
G1 X113.133 Y123.968 E.02235
G1 X99.032 Y109.867 E.88524
G1 X99.032 Y110.371 E.02235
G1 X112.629 Y123.968 E.85364
G1 X112.126 Y123.968 E.02235
G1 X99.032 Y110.874 E.82203
G1 X99.032 Y111.377 E.02235
G1 X111.623 Y123.968 E.79043
G1 X111.119 Y123.968 E.02235
G1 X99.032 Y111.881 E.75883
G1 X99.032 Y112.384 E.02235
G1 X110.616 Y123.968 E.72723
G1 X110.112 Y123.968 E.02235
G1 X99.032 Y112.888 E.69563
G1 X99.032 Y113.391 E.02235
G1 X109.609 Y123.968 E.66403
G1 X109.106 Y123.968 E.02235
G1 X99.032 Y113.894 E.63243
G1 X99.032 Y114.398 E.02235
G1 X108.602 Y123.968 E.60082
G1 X108.099 Y123.968 E.02235
G1 X99.032 Y114.901 E.56922
G1 X99.032 Y115.404 E.02235
G1 X107.596 Y123.968 E.53762
G1 X107.092 Y123.968 E.02235
G1 X99.032 Y115.908 E.50602
G1 X99.032 Y116.411 E.02235
G1 X106.589 Y123.968 E.47442
G1 X106.086 Y123.968 E.02235
G1 X99.032 Y116.914 E.44282
G1 X99.032 Y117.418 E.02235
G1 X105.582 Y123.968 E.41121
G1 X105.079 Y123.968 E.02235
G1 X99.032 Y117.921 E.37961
G1 X99.032 Y118.424 E.02235
G1 X104.576 Y123.968 E.34801
G1 X104.072 Y123.968 E.02235
G1 X99.032 Y118.928 E.31641
G1 X99.032 Y119.431 E.02235
G1 X103.569 Y123.968 E.28481
G1 X103.065 Y123.968 E.02235
G1 X99.032 Y119.935 E.25321
G1 X99.032 Y120.438 E.02235
G1 X102.562 Y123.968 E.22161
G1 X102.059 Y123.968 E.02235
G1 X99.032 Y120.941 E.19
G1 X99.032 Y121.445 E.02235
G1 X101.555 Y123.968 E.1584
G1 X101.052 Y123.968 E.02235
G1 X99.032 Y121.948 E.1268
G1 X99.032 Y122.451 E.02235
G1 X100.549 Y123.968 E.0952
G1 X100.045 Y123.968 E.02235
G1 X99.032 Y122.955 E.0636
G1 X99.032 Y123.458 E.02235
G1 X99.595 Y124.021 E.03532
G1 X99.282 Y124.125 E.01465
G1 X99.25 Y124.179 E.00278
G1 X98.872 Y123.801 E.02368
M204 S1000
; stop printing object 4L_knee-Body.stl id:0 copy 0
;LAYER_CHANGE
;Z:0.6
;HEIGHT:0.3
;BEFORE_LAYER_CHANGE
G92 E0.0
;0.6


;WIPE_START
G1 F8640
G1 X99.25 Y124.179 E-.12319
G1 X99.282 Y124.125 E-.01446
G1 X99.595 Y124.021 E-.0762
G1 X99.032 Y123.458 E-.18369
G1 X99.032 Y122.955 E-.11623
G1 X100.045 Y123.968 E-.3308
G1 X100.549 Y123.968 E-.11623
G1 X99.418 Y122.837 E-.36921
;WIPE_END
G1 E-.07 F2100
G1 Z.5 F720
G1 Z.6
;AFTER_LAYER_CHANGE
;0.6
M140 S90 ; set bed temperature
G1 Z.8
G1 X95.644 Y122.837 F10800
G1 Z.6 F720
G1 E1.4 F2100
;TYPE:Skirt/Brim
;WIDTH:0.42
G1 F2700
G1 X95.644 Y72.016 E2.25414
G1 X96.036 Y70.716 E.06024
G1 X97.08 Y69.848 E.06024
G1 X98 Y69.661 E.04163
G1 X152 Y69.661 E2.39516
