; generated by PrusaSlicer 2.5.0 on 2022-12-03 at 12:12:04 UTC


;
;
; 

; external perimeters extrusion width = 0.60mm
; perimeters extrusion width = 0.50mm
; infill extrusion width = 0.50mm
; solid infill extrusion width = 0.50mm
; top infill extrusion width = 0.45mm
; first layer extrusion width = 0.42mm

; external perimeters extrusion width = 0.60mm
; perimeters extrusion width = 0.50mm
; infill extrusion width = 0.50mm
; solid infill extrusion width = 0.50mm
; top infill extrusion width = 0.45mm
; first layer extrusion width = 0.42mm

M73 P0 R115
M73 Q0 S117
M201 X1000 Y1000 Z200 E5000 ; sets maximum accelerations, mm/sec^2
M203 X200 Y200 Z12 E120 ; sets maximum feedrates, mm / sec
M204 P1250 R1250 T1250 ; sets acceleration (P, T) and retract acceleration (R), mm/sec^2
M205 X8.00 Y8.00 Z0.40 E4.50 ; sets the jerk limits, mm/sec
M205 S0 T0 ; sets the minimum extruding and travel feed rate, mm/sec
M107
;TYPE:Custom
M862.3 P "MK3S" ; printer model check
M862.1 P0.4 ; nozzle diameter check
M115 U3.11.0 ; tell printer latest fw version
G90 ; use absolute coordinates
M83 ; extruder relative mode
M104 S240 ; set extruder temp
M140 S95 ; set bed temp
M190 S95 ; wait for bed temp
M109 S240 ; wait for extruder temp
G28 W ; home all without mesh bed level
G80 ; mesh bed leveling

G1 Z0.2 F720
G1 Y-3 F1000 ; go outside print area
G92 E0
G1 X60 E9 F1000 ; intro line
G1 X100 E12.5 F1000 ; intro line

G92 E0
M221 S95

; Don't change E values below. Excessive value can damage the printer.

M907 E538 ; set extruder motor current
G21 ; set units to millimeters
G90 ; use absolute coordinates
M83 ; use relative distances for extrusion
M900 K0.08 ; Filament gcode LA 1.5
M900 K45 ; Filament gcode LA 1.0
M107
;LAYER_CHANGE
;Z:0.3
;HEIGHT:0.3
;BEFORE_LAYER_CHANGE
G92 E0.0
;0.3


G1 E-1.4 F2100
G1 Z.2 F720
G1 Z.3
;AFTER_LAYER_CHANGE
;0.3
G1 Z.5
G1 X76.53 Y55.519 F10800
G1 Z.3 F720
G1 E1.4 F2100
M204 S800
;TYPE:Skirt/Brim
;WIDTH:0.42
G1 F1200
G1 X77.574 Y54.651 E.06024
G1 X78.488 Y54.464 E.04136
G1 X131.413 Y54.326 E2.34751
G1 X183.415 Y54.326 E2.30654
G1 X184.716 Y54.719 E.06024
G1 X185.583 Y55.763 E.06024
G1 X185.77 Y56.682 E.04157
G1 X185.77 Y116.946 E2.67301
G1 X185.378 Y118.247 E.06024
G1 X184.334 Y119.115 E.06024
G1 X183.42 Y119.302 E.04136
G1 X130.495 Y119.439 E2.34748
G1 X78.493 Y119.439 E2.30654
G1 X77.193 Y119.048 E.06024
G1 X76.325 Y118.003 E.06024
G1 X76.138 Y117.084 E.0416
G1 X76.138 Y56.82 E2.67301
G1 X76.513 Y55.577 E.05758
M204 S1000
; printing object 4L_knee-Body.stl id:0 copy 0
;WIPE_START
G1 F8640
G1 X77.574 Y54.651 E-.32524
G1 X78.488 Y54.464 E-.21532
G1 X81.907 Y54.455 E-.78944
;WIPE_END
G1 E-.07 F2100
G1 Z.5 F720
G1 X79.26 Y59.003 F10800
G1 Z.3 F720
G1 E1.4 F2100
M204 S800
;TYPE:Perimeter
;WIDTH:0.42
G1 F1200
G1 X85.344 Y59.002 E.26987
G1 X85.721 Y59.498 E.02763
G1 X86.064 Y59.828 E.02111
G1 X86.474 Y60.129 E.02255
G1 X86.949 Y60.385 E.02394
G1 X87.432 Y60.563 E.02282
G1 X87.942 Y60.676 E.02316
G1 X88.491 Y60.717 E.02442
G1 X120.6 Y60.716 E1.42419
G1 X121.052 Y60.675 E.02014
G1 X121.526 Y60.572 E.02153
G1 X121.993 Y60.405 E.022
G1 X122.491 Y60.143 E.02496
G1 X122.913 Y59.836 E.02315
G1 X123.298 Y59.463 E.02376
G1 X123.647 Y59.003 E.02562
G1 X129.728 Y59.003 E.26974
G1 X129.728 Y114.901 E2.47933
G1 X123.643 Y114.901 E.2699
G1 X123.267 Y114.405 E.02759
G1 X122.924 Y114.076 E.02111
G1 X122.514 Y113.775 E.02255
G1 X122.039 Y113.519 E.02394
G1 X121.556 Y113.34 E.02282
G1 X121.046 Y113.228 E.02316
G1 X120.497 Y113.186 E.02442
G1 X88.341 Y113.19 E1.42629
G1 X87.825 Y113.247 E.02304
G1 X87.337 Y113.369 E.0223
G1 X86.809 Y113.588 E.02537
G1 X86.115 Y114.033 E.03654
G1 X85.724 Y114.402 E.02388
G1 X85.344 Y114.901 E.02779
G1 X79.26 Y114.901 E.26988
G1 X79.26 Y59.063 E2.47667
M204 S1000
G1 X78.904 Y58.647 F10800
M204 S800
;TYPE:External perimeter
G1 F1200
G1 X85.542 Y58.646 E.29445
G1 X85.721 Y58.936 E.01511
G1 X85.995 Y59.272 E.01923
G1 X86.308 Y59.569 E.01912
G1 X86.682 Y59.84 E.02048
G1 X87.115 Y60.07 E.02174
G1 X87.552 Y60.229 E.02062
G1 X88.015 Y60.328 E.021
G1 X88.491 Y60.362 E.02116
G1 X120.6 Y60.36 E1.42419
G1 X121.018 Y60.321 E.01864
G1 X121.448 Y60.225 E.01953
G1 X121.87 Y60.071 E.01994
G1 X122.265 Y59.866 E.01972
G1 X122.654 Y59.591 E.02113
G1 X123.02 Y59.242 E.02246
G1 X123.447 Y58.647 E.03244
G1 X130.084 Y58.647 E.2944
G1 X130.084 Y115.256 E2.51087
G1 X123.445 Y115.256 E.29447
M73 Q0 S116
G1 X123.267 Y114.967 E.01506
G1 X122.992 Y114.631 E.01923
G1 X122.68 Y114.335 E.01912
G1 X122.306 Y114.063 E.02049
G1 X121.873 Y113.834 E.02174
G1 X121.436 Y113.675 E.02062
G1 X120.973 Y113.576 E.021
G1 X120.497 Y113.542 E.02116
G1 X88.341 Y113.545 E1.42629
G1 X87.867 Y113.6 E.02118
G1 X87.467 Y113.7 E.01826
G1 X87 Y113.888 E.02233
G1 X86.342 Y114.308 E.03465
G1 X86.014 Y114.612 E.01981
G1 X85.733 Y114.951 E.01955
G1 X85.543 Y115.256 E.01596
G1 X78.904 Y115.256 E.29445
G1 X78.904 Y58.707 E2.50821
M204 S1000
G1 X79.258 Y58.834 F10800
;WIPE_START
G1 F8640
G1 X84.664 Y58.654 E-1.33
;WIPE_END
G1 E-.07 F2100
G1 Z.5 F720
G1 X128.9 Y59.11 F10800
G1 Z.3 F720
G1 E1.4 F2100
M204 S800
;TYPE:Solid infill
;WIDTH:0.421337
G1 F1200
G1 X129.462 Y59.671 E.03537
G1 X129.462 Y60.176 E.02247
G1 X128.555 Y59.27 E.05708
G1 X128.05 Y59.27 E.02248
G1 X129.462 Y60.681 E.08887
G1 X129.462 Y61.186 E.02247
G1 X127.545 Y59.27 E.12065
G1 X127.041 Y59.27 E.02248
G1 X129.462 Y61.691 E.15244
G1 X129.462 Y62.195 E.02247
G1 X126.536 Y59.27 E.18422
G1 X126.031 Y59.269 E.02248
G1 X129.462 Y62.7 E.21601
G1 X129.462 Y63.205 E.02247
G1 X125.526 Y59.269 E.2478
G1 X125.021 Y59.269 E.02248
G1 X129.462 Y63.71 E.27958
G1 X129.462 Y64.215 E.02247
G1 X124.516 Y59.269 E.31137
G1 X124.012 Y59.269 E.02248
G1 X129.462 Y64.719 E.34316
G1 X129.462 Y65.224 E.02247
G1 X123.665 Y59.428 E.36497
G1 X123.434 Y59.702 E.01595
G1 X129.462 Y65.729 E.37951
G1 X129.462 Y66.234 E.02247
G1 X123.178 Y59.95 E.39563
G1 X122.896 Y60.173 E.016
M73 P0 R114
G1 X129.462 Y66.739 E.41337
G1 X129.462 Y67.244 E.02247
G1 X122.602 Y60.384 E.43192
G1 X122.273 Y60.56 E.0166
G1 X129.462 Y67.748 E.4526
G1 X129.462 Y68.253 E.02247
G1 X121.922 Y60.713 E.47473
G1 X121.545 Y60.841 E.01773
G1 X129.462 Y68.758 E.49848
G1 X129.462 Y69.263 E.02247
G1 X121.129 Y60.93 E.52465
G1 X120.671 Y60.976 E.02051
G1 X129.462 Y69.768 E.55352
G1 X129.462 Y70.272 E.02247
G1 X120.172 Y60.982 E.58493
G1 X119.667 Y60.982 E.02247
G1 X129.462 Y70.777 E.61671
G1 X129.462 Y71.282 E.02247
G1 X119.162 Y60.982 E.6485
G1 X118.657 Y60.982 E.02247
G1 X129.462 Y71.787 E.68028
G1 X129.462 Y72.292 E.02247
G1 X118.152 Y60.982 E.71207
G1 X117.648 Y60.982 E.02247
G1 X129.462 Y72.796 E.74385
G1 X129.462 Y73.301 E.02247
G1 X117.143 Y60.982 E.77563
G1 X116.638 Y60.982 E.02247
G1 X129.462 Y73.806 E.80742
G1 X129.462 Y74.311 E.02247
G1 X116.133 Y60.982 E.8392
G1 X115.628 Y60.982 E.02247
G1 X129.462 Y74.816 E.87099
G1 X129.462 Y75.321 E.02247
G1 X115.123 Y60.982 E.90277
G1 X114.619 Y60.982 E.02247
G1 X129.462 Y75.825 E.93456
G1 X129.462 Y76.33 E.02247
G1 X114.114 Y60.982 E.96634
G1 X113.609 Y60.982 E.02247
G1 X129.462 Y76.835 E.99813
G1 X129.462 Y77.34 E.02247
G1 X113.104 Y60.982 E1.02991
G1 X112.599 Y60.982 E.02247
M73 P1 R114
G1 X129.462 Y77.845 E1.06169
G1 X129.462 Y78.349 E.02247
M73 Q1 S116
G1 X112.095 Y60.982 E1.09348
G1 X111.59 Y60.982 E.02247
G1 X129.462 Y78.854 E1.12526
G1 X129.462 Y79.359 E.02247
G1 X111.085 Y60.982 E1.15705
G1 X110.58 Y60.982 E.02247
G1 X129.462 Y79.864 E1.18883
G1 X129.462 Y80.369 E.02247
G1 X110.075 Y60.982 E1.22062
G1 X109.571 Y60.982 E.02247
G1 X129.462 Y80.873 E1.2524
G1 X129.462 Y81.378 E.02247
G1 X109.066 Y60.982 E1.28419
G1 X108.561 Y60.982 E.02247
G1 X129.462 Y81.883 E1.31597
G1 X129.462 Y82.388 E.02247
G1 X108.056 Y60.982 E1.34775
G1 X107.551 Y60.982 E.02248
G1 X129.462 Y82.893 E1.37954
G1 X129.462 Y83.398 E.02247
G1 X107.047 Y60.982 E1.41132
G1 X106.542 Y60.982 E.02247
G1 X129.462 Y83.902 E1.44311
G1 X129.462 Y84.407 E.02247
G1 X106.037 Y60.982 E1.47489
G1 X105.532 Y60.982 E.02247
G1 X129.462 Y84.912 E1.50668
G1 X129.462 Y85.417 E.02247
G1 X105.027 Y60.982 E1.53846
G1 X104.522 Y60.982 E.02247
G1 X129.462 Y85.922 E1.57025
G1 X129.462 Y86.426 E.02247
G1 X104.018 Y60.982 E1.60203
G1 X103.513 Y60.982 E.02247
G1 X129.462 Y86.931 E1.63381
G1 X129.462 Y87.436 E.02247
M73 Q1 S115
G1 X103.008 Y60.982 E1.6656
G1 X102.503 Y60.982 E.02247
G1 X129.462 Y87.941 E1.69738
G1 X129.462 Y88.446 E.02247
G1 X101.998 Y60.982 E1.72917
G1 X101.494 Y60.982 E.02247
G1 X129.462 Y88.95 E1.76095
G1 X129.462 Y89.455 E.02247
G1 X100.989 Y60.982 E1.79274
G1 X100.484 Y60.982 E.02247
G1 X129.462 Y89.96 E1.82452
G1 X129.462 Y90.465 E.02247
G1 X99.979 Y60.982 E1.85631
G1 X99.474 Y60.982 E.02247
M73 P1 R113
G1 X129.462 Y90.97 E1.88809
G1 X129.462 Y91.475 E.02247
G1 X98.97 Y60.982 E1.91987
G1 X98.465 Y60.982 E.02247
G1 X129.462 Y91.979 E1.95166
G1 X129.462 Y92.484 E.02247
G1 X97.96 Y60.982 E1.98344
G1 X97.455 Y60.982 E.02247
G1 X129.462 Y92.989 E2.01523
G1 X129.462 Y93.494 E.02247
G1 X96.95 Y60.982 E2.04701
G1 X96.445 Y60.982 E.02247
G1 X129.462 Y93.999 E2.0788
G1 X129.462 Y94.503 E.02247
G1 X95.941 Y60.982 E2.11058
G1 X95.436 Y60.982 E.02247
G1 X129.462 Y95.008 E2.14237
G1 X129.462 Y95.513 E.02247
G1 X94.931 Y60.982 E2.17415
G1 X94.426 Y60.982 E.02247
G1 X129.462 Y96.018 E2.20593
G1 X129.462 Y96.523 E.02247
G1 X93.921 Y60.982 E2.23772
G1 X93.417 Y60.982 E.02247
M73 P2 R113
M73 Q2 S115
G1 X129.462 Y97.027 E2.2695
G1 X129.462 Y97.532 E.02247
G1 X92.912 Y60.982 E2.30129
G1 X92.407 Y60.982 E.02247
G1 X129.462 Y98.037 E2.33307
G1 X129.462 Y98.542 E.02247
G1 X91.902 Y60.982 E2.36486
G1 X91.397 Y60.982 E.02247
G1 X129.462 Y99.047 E2.39664
G1 X129.462 Y99.552 E.02247
G1 X90.893 Y60.982 E2.42843
G1 X90.388 Y60.982 E.02247
G1 X129.462 Y100.056 E2.46021
G1 X129.462 Y100.561 E.02247
M73 Q2 S114
G1 X89.883 Y60.982 E2.49199
G1 X89.378 Y60.982 E.02247
G1 X129.462 Y101.066 E2.52378
G1 X129.462 Y101.571 E.02247
G1 X88.873 Y60.982 E2.55556
G1 X88.362 Y60.976 E.02275
G1 X129.462 Y102.076 E2.58774
G1 X129.462 Y102.58 E.02247
M73 P2 R112
G1 X87.798 Y60.917 E2.62326
G1 X87.346 Y60.816 E.02061
G1 X87.101 Y60.725 E.01166
G1 X129.462 Y103.085 E2.66715
G1 X129.462 Y103.59 E.02247
G1 X85.14 Y59.269 E2.79059
G1 X84.636 Y59.269 E.02247
G1 X129.462 Y104.095 E2.82237
G1 X129.462 Y104.6 E.02247
G1 X84.131 Y59.269 E2.85415
G1 X83.626 Y59.269 E.02247
G1 X129.462 Y105.104 E2.88594
G1 X129.462 Y105.609 E.02247
G1 X83.121 Y59.269 E2.91772
G1 X82.617 Y59.269 E.02247
G1 X129.462 Y106.114 E2.9495
G1 X129.462 Y106.619 E.02247
G1 X82.112 Y59.269 E2.98128
G1 X81.607 Y59.269 E.02247
G1 X129.462 Y107.124 E3.01306
G1 X129.462 Y107.629 E.02247
G1 X81.102 Y59.269 E3.04484
G1 X80.598 Y59.269 E.02247
G1 X129.462 Y108.133 E3.07662
G1 X129.462 Y108.638 E.02247
M73 P3 R112
G1 X80.093 Y59.269 E3.1084
G1 X79.588 Y59.269 E.02247
M73 Q3 S114
G1 X129.462 Y109.143 E3.14018
G1 X129.462 Y109.648 E.02247
G1 X79.526 Y59.712 E3.14408
G1 X79.526 Y60.217 E.02247
M73 Q3 S113
G1 X129.462 Y110.153 E3.14408
G1 X129.462 Y110.657 E.02247
G1 X79.526 Y60.722 E3.14408
G1 X79.526 Y61.227 E.02247
G1 X129.462 Y111.162 E3.14408
G1 X129.462 Y111.667 E.02247
M73 P3 R111
G1 X79.526 Y61.732 E3.14408
G1 X79.526 Y62.236 E.02247
G1 X129.462 Y112.172 E3.14408
G1 X129.462 Y112.677 E.02247
G1 X79.526 Y62.741 E3.14408
G1 X79.526 Y63.246 E.02247
G1 X129.462 Y113.181 E3.14408
G1 X129.462 Y113.686 E.02247
G1 X79.526 Y63.751 E3.14408
G1 X79.526 Y64.256 E.02247
G1 X129.462 Y114.191 E3.14408
G1 X129.462 Y114.634 E.01972
G1 X129.4 Y114.634 E.00276
G1 X79.526 Y64.761 E3.14017
G1 X79.526 Y65.265 E.02247
G1 X128.895 Y114.634 E3.10839
G1 X128.39 Y114.634 E.02247
G1 X79.526 Y65.77 E3.07661
G1 X79.526 Y66.275 E.02247
G1 X127.885 Y114.634 E3.04482
G1 X127.38 Y114.634 E.02247
G1 X79.526 Y66.78 E3.01304
G1 X79.526 Y67.285 E.02247
G1 X126.876 Y114.634 E2.98125
G1 X126.371 Y114.634 E.02247
G1 X79.526 Y67.789 E2.94947
G1 X79.526 Y68.294 E.02247
M73 P4 R111
G1 X125.866 Y114.634 E2.91768
G1 X125.361 Y114.634 E.02247
M73 Q3 S112
G1 X79.526 Y68.799 E2.8859
G1 X79.526 Y69.304 E.02247
M73 Q4 S112
G1 X124.856 Y114.634 E2.85412
G1 X124.352 Y114.634 E.02247
G1 X79.526 Y69.809 E2.82233
G1 X79.526 Y70.313 E.02247
M73 P4 R110
G1 X124.007 Y114.794 E2.80062
M204 S1000
;WIPE_START
G1 F8640
G1 X119.934 Y110.721 E-1.33
;WIPE_END
G1 E-.07 F2100
G1 Z.5 F720
G1 X122.192 Y113.484 F10800
G1 Z.3 F720
G1 E1.4 F2100
M204 S800
G1 F1200
G1 X79.526 Y70.818 E2.68634
G1 X79.526 Y71.323 E.02247
G1 X121.194 Y112.991 E2.62352
G1 X120.997 Y112.952 E.00893
G1 X120.626 Y112.928 E.01656
G1 X79.526 Y71.828 E2.58776
G1 X79.526 Y72.333 E.02247
G1 X120.113 Y112.919 E2.55546
G1 X119.608 Y112.92 E.02247
G1 X79.526 Y72.838 E2.52368
G1 X79.526 Y73.342 E.02247
G1 X119.104 Y112.92 E2.4919
G1 X118.599 Y112.92 E.02247
G1 X79.526 Y73.847 E2.46012
G1 X79.526 Y74.352 E.02247
G1 X118.094 Y112.92 E2.42834
G1 X117.589 Y112.92 E.02247
G1 X79.526 Y74.857 E2.39656
G1 X79.526 Y75.362 E.02247
G1 X117.085 Y112.92 E2.36478
G1 X116.58 Y112.92 E.02247
G1 X79.526 Y75.866 E2.333
G1 X79.526 Y76.371 E.02247
G1 X116.075 Y112.92 E2.30122
G1 X115.57 Y112.92 E.02247
G1 X79.526 Y76.876 E2.26943
G1 X79.526 Y77.381 E.02247
G1 X115.066 Y112.92 E2.23765
G1 X114.561 Y112.92 E.02247
G1 X79.526 Y77.886 E2.20587
G1 X79.526 Y78.39 E.02247
G1 X114.056 Y112.92 E2.17409
G1 X113.551 Y112.92 E.02247
M73 Q4 S111
G1 X79.526 Y78.895 E2.14231
G1 X79.526 Y79.4 E.02247
G1 X113.046 Y112.92 E2.11053
G1 X112.542 Y112.92 E.02247
G1 X79.526 Y79.905 E2.07875
G1 X79.526 Y80.41 E.02247
G1 X112.037 Y112.92 E2.04697
G1 X111.532 Y112.92 E.02247
M73 P5 R110
G1 X79.526 Y80.915 E2.01519
G1 X79.526 Y81.419 E.02247
G1 X111.027 Y112.92 E1.98341
G1 X110.523 Y112.921 E.02247
M73 P5 R109
M73 Q5 S111
G1 X79.526 Y81.924 E1.95162
G1 X79.526 Y82.429 E.02247
G1 X110.018 Y112.921 E1.91984
G1 X109.513 Y112.921 E.02247
G1 X79.526 Y82.934 E1.88806
G1 X79.526 Y83.439 E.02247
G1 X109.008 Y112.921 E1.85628
G1 X108.504 Y112.921 E.02247
G1 X79.526 Y83.943 E1.8245
G1 X79.526 Y84.448 E.02247
G1 X107.999 Y112.921 E1.79272
G1 X107.494 Y112.921 E.02247
G1 X79.526 Y84.953 E1.76094
G1 X79.526 Y85.458 E.02247
G1 X106.989 Y112.921 E1.72916
G1 X106.485 Y112.921 E.02247
G1 X79.526 Y85.963 E1.69738
G1 X79.526 Y86.467 E.02247
G1 X105.98 Y112.921 E1.6656
G1 X105.475 Y112.921 E.02247
G1 X79.526 Y86.972 E1.63382
G1 X79.526 Y87.477 E.02247
G1 X104.97 Y112.921 E1.60203
G1 X104.466 Y112.921 E.02247
G1 X79.526 Y87.982 E1.57025
G1 X79.526 Y88.487 E.02247
G1 X103.961 Y112.921 E1.53847
G1 X103.456 Y112.921 E.02247
G1 X79.526 Y88.991 E1.50669
G1 X79.526 Y89.496 E.02247
G1 X102.951 Y112.921 E1.47491
G1 X102.447 Y112.921 E.02247
G1 X79.526 Y90.001 E1.44313
G1 X79.526 Y90.506 E.02247
G1 X101.942 Y112.921 E1.41135
G1 X101.437 Y112.922 E.02247
G1 X79.526 Y91.011 E1.37957
G1 X79.526 Y91.516 E.02247
G1 X100.932 Y112.922 E1.34779
G1 X100.428 Y112.922 E.02247
G1 X79.526 Y92.02 E1.31601
G1 X79.526 Y92.525 E.02247
G1 X99.923 Y112.922 E1.28423
G1 X99.418 Y112.922 E.02247
G1 X79.526 Y93.03 E1.25244
G1 X79.526 Y93.535 E.02247
G1 X98.913 Y112.922 E1.22066
G1 X98.409 Y112.922 E.02247
G1 X79.526 Y94.04 E1.18888
G1 X79.526 Y94.544 E.02247
G1 X97.904 Y112.922 E1.1571
G1 X97.399 Y112.922 E.02247
M73 Q5 S110
G1 X79.526 Y95.049 E1.12532
G1 X79.526 Y95.554 E.02247
G1 X96.894 Y112.922 E1.09354
G1 X96.39 Y112.922 E.02247
G1 X79.526 Y96.059 E1.06176
G1 X79.526 Y96.564 E.02247
G1 X95.885 Y112.922 E1.02998
G1 X95.38 Y112.922 E.02247
G1 X79.526 Y97.068 E.9982
G1 X79.526 Y97.573 E.02247
G1 X94.875 Y112.922 E.96642
G1 X94.371 Y112.922 E.02247
G1 X79.526 Y98.078 E.93463
G1 X79.526 Y98.583 E.02247
G1 X93.866 Y112.922 E.90285
G1 X93.361 Y112.922 E.02247
G1 X79.526 Y99.088 E.87107
G1 X79.526 Y99.593 E.02248
G1 X92.856 Y112.922 E.83929
G1 X92.351 Y112.923 E.02247
G1 X79.526 Y100.097 E.80751
G1 X79.526 Y100.602 E.02247
M73 P5 R108
G1 X91.847 Y112.923 E.77573
G1 X91.342 Y112.923 E.02247
G1 X79.526 Y101.107 E.74395
G1 X79.526 Y101.612 E.02247
G1 X90.837 Y112.923 E.71217
G1 X90.332 Y112.923 E.02247
G1 X79.526 Y102.117 E.68039
G1 X79.526 Y102.621 E.02247
G1 X89.828 Y112.923 E.64861
G1 X89.323 Y112.923 E.02247
