; generated by PrusaSlicer 2.7.1 on 2023-12-18 at 19:24:54 UTC


;
;
; 

; external perimeters extrusion width = 0.60mm
; perimeters extrusion width = 0.50mm
; infill extrusion width = 0.50mm
; solid infill extrusion width = 0.50mm
; top infill extrusion width = 0.45mm
; first layer extrusion width = 0.42mm

; external perimeters extrusion width = 0.60mm
; perimeters extrusion width = 0.50mm
; infill extrusion width = 0.50mm
; solid infill extrusion width = 0.50mm
; top infill extrusion width = 0.45mm
; first layer extrusion width = 0.42mm

M73 P0 R125
M73 Q0 S127
M201 X1000 Y1000 Z200 E5000 ; sets maximum accelerations, mm/sec^2
M203 X200 Y200 Z12 E120 ; sets maximum feedrates, mm / sec
M204 S1250 T1250 ; sets acceleration (S) and retract acceleration (R), mm/sec^2
M205 X8.00 Y8.00 Z0.40 E4.50 ; sets the jerk limits, mm/sec
M205 S0 T0 ; sets the minimum extruding and travel feed rate, mm/sec

; printing object 4R_knee-Body.stl id:0 copy 0
; stop printing object 4R_knee-Body.stl id:0 copy 0
; printing object 4L_knee-Body.stl id:1 copy 0
; stop printing object 4L_knee-Body.stl id:1 copy 0

;TYPE:Custom
M862.3 P "MK3S" ; printer model check
M862.1 P0.4 ; nozzle diameter check
M115 U3.12.2 ; tell printer latest fw version
G90 ; use absolute coordinates
M83 ; extruder relative mode
M104 S240 ; set extruder temp
M140 S95 ; set bed temp
M190 S95 ; wait for bed temp
M109 S240 ; wait for extruder temp
G28 W ; home all without mesh bed level
G80 ; mesh bed leveling

G1 Z0.2 F720
G1 Y-3 F1000 ; go outside print area
G92 E0
G1 X60 E9 F1000 ; intro line
G1 X100 E12.5 F1000 ; intro line
M73 Q0 S126

G92 E0
M221 S95

; Don't change E values below. Excessive value can damage the printer.

M907 E538 ; set extruder motor current
G21 ; set units to millimeters
G90 ; use absolute coordinates
M83 ; use relative distances for extrusion
M900 K0.08 ; Filament gcode LA 1.5
M900 K45 ; Filament gcode LA 1.0
M107 ; disable fan
;LAYER_CHANGE
;Z:0.3
;HEIGHT:0.3
;BEFORE_LAYER_CHANGE
G92 E0.0
;0.3


G1 E-1.4 F2100 ; retract
G1 Z.3 F720 ; move to next layer (0)
;AFTER_LAYER_CHANGE
;0.3
G1 X75.122 Y73.606 F10800 ; move to print after unknown position
G1 Z.3 F720 ; move to print after unknown position
G1 E1.4 F2100 ;  ; unretract
M204 S800 ; adjust acceleration
;TYPE:Skirt/Brim
;WIDTH:0.42
G1 F1200
G1 X76.166 Y72.738 E.06022 ; skirt
G1 X77.084 Y72.551 E.04155 ; skirt
G1 X184.786 Y72.551 E4.7771 ; skirt
G1 X186.086 Y72.944 E.06024 ; skirt
G1 X186.953 Y73.989 E.06023 ; skirt
G1 X187.139 Y74.907 E.04155 ; skirt
G1 X187.139 Y135.092 E2.66949 ; skirt
G1 X186.748 Y136.392 E.06021 ; skirt
G1 X185.703 Y137.26 E.06025 ; skirt
G1 X184.786 Y137.447 E.04151 ; skirt
G1 X77.083 Y137.447 E4.77715 ; skirt
G1 X75.783 Y137.055 E.06023 ; skirt
G1 X74.916 Y136.009 E.06026 ; skirt
G1 X74.73 Y135.092 E.0415 ; skirt
G1 X74.73 Y74.907 E2.66949 ; skirt
G1 X75.104 Y73.664 E.05757 ; skirt
M204 S1000 ; adjust acceleration
; printing object 4R_knee-Body.stl id:0 copy 0
;WIPE_START
G1 F8640
G1 X75.122 Y73.606 E-.01402 ; wipe and retract
G1 X76.166 Y72.738 E-.3135 ; wipe and retract
G1 X77.084 Y72.551 E-.21632 ; wipe and retract
G1 X80.792 Y72.551 E-.85616 ; wipe and retract
;WIPE_END
G1 Z.5 F720 ; move to first perimeter point
G1 X139.481 Y78.75 F10800 ; move to first perimeter point
G1 Z.3 F720 ; move to first perimeter point
G1 E1.4 F2100 ;  ; unretract
M204 S800 ; adjust acceleration
;TYPE:Perimeter
;WIDTH:0.42
G1 F1200
G1 X139.551 Y78.765 E.00318 ; perimeter
G1 X178.016 Y78.765 E1.70611 ; perimeter
G1 X178.082 Y78.761 E.00293 ; perimeter
G1 X178.313 Y78.674 E.01095 ; perimeter
G1 X178.461 Y78.524 E.00935 ; perimeter
G1 X178.549 Y78.231 E.01357 ; perimeter
G1 X178.549 Y77.16 E.0475 ; perimeter
G1 X184.018 Y77.16 E.24258 ; perimeter
G1 X184.018 Y80.187 E.13426 ; perimeter
G1 X184.018 Y132.838 E2.33532 ; perimeter
G1 X178.549 Y132.838 E.24258 ; perimeter
G1 X178.549 Y131.767 E.0475 ; perimeter
G1 X178.517 Y131.585 E.0082 ; perimeter
G1 X178.392 Y131.389 E.01031 ; perimeter
G1 X178.232 Y131.28 E.00859 ; perimeter
G1 X178.016 Y131.234 E.0098 ; perimeter
G1 X139.551 Y131.234 E1.70611 ; perimeter
G1 X139.483 Y131.238 E.00302 ; perimeter
G1 X139.243 Y131.332 E.01143 ; perimeter
G1 X139.093 Y131.494 E.00979 ; perimeter
G1 X139.018 Y131.767 E.01256 ; perimeter
G1 X139.018 Y132.952 E.05256 ; perimeter
G1 X133.549 Y132.95 E.24258 ; perimeter
G1 X133.549 Y77.063 E2.47885 ; perimeter
G1 X134.288 Y77.081 E.03279 ; perimeter
G1 X134.319 Y77.13 E.00257 ; perimeter
G1 X134.554 Y77.183 E.01069 ; perimeter
G1 X139.018 Y77.163 E.198 ; perimeter
G1 X139.018 Y78.231 E.04737 ; perimeter
G1 X139.051 Y78.415 E.00829 ; perimeter
G1 X139.177 Y78.611 E.01033 ; perimeter
G1 X139.335 Y78.719 E.00849 ; perimeter
G1 X139.422 Y78.738 E.00395 ; perimeter
M204 S1000 ; adjust acceleration
G1 X139.551 Y78.409 F10800 ; move to first perimeter point
M204 S800 ; adjust acceleration
;TYPE:External perimeter
G1 F1200
G1 X178.016 Y78.409 E1.70611 ; perimeter
G1 X178.141 Y78.358 E.00599 ; perimeter
G1 X178.193 Y78.231 E.00609 ; perimeter
G1 X178.193 Y76.804 E.06329 ; perimeter
G1 X184.373 Y76.805 E.27411 ; perimeter
G1 X184.373 Y80.187 E.15001 ; perimeter
G1 X184.373 Y133.194 E2.35111 ; perimeter
G1 X178.193 Y133.194 E.27411 ; perimeter
G1 X178.193 Y131.767 E.06329 ; perimeter
G1 X178.141 Y131.641 E.00605 ; perimeter
G1 X178.016 Y131.589 E.006 ; perimeter
G1 X139.551 Y131.589 E1.70611 ; perimeter
G1 X139.448 Y131.622 E.0048 ; perimeter
G1 X139.373 Y131.767 E.00724 ; perimeter
G1 X139.373 Y133.307 E.06831 ; perimeter
G1 X133.193 Y133.306 E.27411 ; perimeter
G1 X133.193 Y76.699 E2.51079 ; perimeter
G1 X134.423 Y76.728 E.05457 ; perimeter
G1 X134.474 Y76.81 E.00428 ; perimeter
G1 X134.552 Y76.827 E.00354 ; perimeter
G1 X139.373 Y76.806 E.21384 ; perimeter
G1 X139.373 Y78.231 E.06321 ; perimeter
G1 X139.426 Y78.358 E.0061 ; perimeter
G1 X139.496 Y78.386 E.00334 ; perimeter
M204 S1000 ; adjust acceleration
;WIPE_START
G1 F8640
G1 X139.551 Y78.409 E-.01377 ; wipe and retract
G1 X145.554 Y78.409 E-1.38623 ; wipe and retract
;WIPE_END
G1 Z.5 F720 ; move to first infill point
G1 X183.19 Y77.267 F10800 ; move to first infill point
G1 Z.3 F720 ; move to first infill point
G1 E1.4 F2100 ;  ; unretract
M204 S800 ; adjust acceleration
;TYPE:Solid infill
;WIDTH:0.420975
G1 F1200
G1 X183.751 Y77.828 E.03529 ; infill
G1 X183.751 Y78.332 E.02242 ; infill
G1 X182.846 Y77.427 E.05692 ; infill
G1 X182.342 Y77.427 E.02242 ; infill
G1 X183.751 Y78.836 E.08862 ; infill
G1 X183.751 Y79.341 E.02246 ; infill
G1 X181.837 Y77.427 E.12039 ; infill
G1 X181.333 Y77.427 E.02242 ; infill
G1 X183.751 Y79.845 E.15209 ; infill
G1 X183.751 Y80.349 E.02242 ; infill
G1 X180.829 Y77.427 E.18379 ; infill
G1 X180.324 Y77.427 E.02246 ; infill
G1 X183.751 Y80.854 E.21556 ; infill
G1 X183.751 Y81.358 E.02242 ; infill
G1 X179.82 Y77.427 E.24726 ; infill
G1 X179.316 Y77.427 E.02242 ; infill
G1 X183.751 Y81.862 E.27896 ; infill
G1 X183.751 Y82.367 E.02246 ; infill
G1 X178.816 Y77.431 E.31044 ; infill
G1 X178.816 Y77.935 E.02242 ; infill
G1 X183.751 Y82.871 E.31044 ; infill
G1 X183.751 Y83.375 E.02242 ; infill
G1 X178.786 Y78.41 E.31229 ; infill
G1 X178.769 Y78.502 E.00416 ; infill
G1 X178.685 Y78.671 E.00839 ; infill
G1 X178.621 Y78.749 E.00449 ; infill
G1 X183.751 Y83.879 E.32267 ; infill
G1 X183.751 Y84.384 E.02246 ; infill
G1 X178.326 Y78.959 E.34123 ; infill
G1 X178.225 Y79.005 E.00494 ; infill
G1 X177.895 Y79.032 E.01473 ; infill
G1 X183.751 Y84.888 E.36834 ; infill
G1 X183.751 Y85.392 E.02242 ; infill
G1 X177.39 Y79.032 E.40007 ; infill
G1 X176.886 Y79.032 E.02242 ; infill
G1 X183.751 Y85.897 E.4318 ; infill
G1 X183.751 Y86.401 E.02242 ; infill
G1 X176.382 Y79.032 E.4635 ; infill
G1 X175.877 Y79.032 E.02246 ; infill
G1 X183.751 Y86.905 E.49524 ; infill
G1 X183.751 Y87.41 E.02246 ; infill
G1 X175.373 Y79.032 E.52697 ; infill
G1 X174.869 Y79.032 E.02242 ; infill
M73 P0 R124
G1 X183.751 Y87.914 E.55867 ; infill
G1 X183.751 Y88.418 E.02242 ; infill
G1 X174.365 Y79.032 E.59037 ; infill
G1 X173.86 Y79.032 E.02246 ; infill
G1 X183.751 Y88.922 E.6221 ; infill
G1 X183.751 Y89.427 E.02246 ; infill
G1 X173.356 Y79.032 E.65384 ; infill
G1 X172.852 Y79.032 E.02242 ; infill
G1 X183.751 Y89.931 E.68554 ; infill
G1 X183.751 Y90.435 E.02242 ; infill
G1 X172.347 Y79.032 E.71727 ; infill
G1 X171.843 Y79.032 E.02242 ; infill
G1 X183.751 Y90.94 E.749 ; infill
G1 X183.751 Y91.444 E.02242 ; infill
G1 X171.339 Y79.032 E.7807 ; infill
G1 X170.834 Y79.032 E.02246 ; infill
G1 X183.751 Y91.948 E.81244 ; infill
G1 X183.751 Y92.453 E.02246 ; infill
G1 X170.33 Y79.032 E.84417 ; infill
G1 X169.826 Y79.032 E.02242 ; infill
M73 Q0 S125
G1 X183.751 Y92.957 E.87587 ; infill
G1 X183.751 Y93.461 E.02242 ; infill
G1 X169.322 Y79.032 E.90757 ; infill
G1 X168.817 Y79.032 E.02246 ; infill
G1 X183.751 Y93.965 E.9393 ; infill
G1 X183.751 Y94.47 E.02246 ; infill
G1 X168.313 Y79.032 E.97104 ; infill
G1 X167.809 Y79.032 E.02242 ; infill
G1 X183.751 Y94.974 E1.00274 ; infill
G1 X183.751 Y95.478 E.02242 ; infill
G1 X167.304 Y79.032 E1.03447 ; infill
G1 X166.8 Y79.032 E.02242 ; infill
G1 X183.751 Y95.983 E1.0662 ; infill
G1 X183.751 Y96.487 E.02242 ; infill
G1 X166.296 Y79.032 E1.0979 ; infill
G1 X165.791 Y79.032 E.02246 ; infill
G1 X183.751 Y96.991 E1.12964 ; infill
G1 X183.751 Y97.496 E.02246 ; infill
G1 X165.287 Y79.032 E1.16137 ; infill
G1 X164.783 Y79.032 E.02242 ; infill
G1 X183.751 Y98 E1.19307 ; infill
G1 X183.751 Y98.504 E.02242 ; infill
M73 P1 R124
M73 Q1 S125
G1 X164.279 Y79.032 E1.22477 ; infill
G1 X163.774 Y79.032 E.02246 ; infill
G1 X183.751 Y99.008 E1.2565 ; infill
G1 X183.751 Y99.513 E.02246 ; infill
G1 X163.27 Y79.032 E1.28824 ; infill
G1 X162.766 Y79.032 E.02242 ; infill
G1 X183.751 Y100.017 E1.31994 ; infill
G1 X183.751 Y100.521 E.02242 ; infill
G1 X162.261 Y79.032 E1.35167 ; infill
G1 X161.757 Y79.032 E.02242 ; infill
G1 X183.751 Y101.026 E1.3834 ; infill
G1 X183.751 Y101.53 E.02242 ; infill
G1 X161.253 Y79.032 E1.4151 ; infill
G1 X160.748 Y79.032 E.02246 ; infill
G1 X183.751 Y102.034 E1.44684 ; infill
G1 X183.751 Y102.539 E.02246 ; infill
G1 X160.244 Y79.032 E1.47857 ; infill
G1 X159.74 Y79.032 E.02242 ; infill
G1 X183.751 Y103.043 E1.51027 ; infill
G1 X183.751 Y103.547 E.02242 ; infill
G1 X159.236 Y79.032 E1.54197 ; infill
G1 X158.731 Y79.032 E.02246 ; infill
G1 X183.751 Y104.051 E1.5737 ; infill
G1 X183.751 Y104.556 E.02246 ; infill
G1 X158.227 Y79.032 E1.60544 ; infill
G1 X157.723 Y79.032 E.02242 ; infill
G1 X183.751 Y105.06 E1.63714 ; infill
G1 X183.751 Y105.564 E.02242 ; infill
G1 X157.218 Y79.032 E1.66887 ; infill
G1 X156.714 Y79.032 E.02242 ; infill
G1 X183.751 Y106.069 E1.7006 ; infill
G1 X183.751 Y106.573 E.02242 ; infill
G1 X156.21 Y79.032 E1.7323 ; infill
G1 X155.705 Y79.032 E.02246 ; infill
G1 X183.751 Y107.077 E1.76404 ; infill
G1 X183.751 Y107.582 E.02246 ; infill
G1 X155.201 Y79.032 E1.79577 ; infill
G1 X154.697 Y79.032 E.02242 ; infill
G1 X183.751 Y108.086 E1.82747 ; infill
G1 X183.751 Y108.59 E.02242 ; infill
G1 X154.193 Y79.032 E1.85917 ; infill
G1 X153.688 Y79.032 E.02246 ; infill
G1 X183.751 Y109.094 E1.8909 ; infill
G1 X183.751 Y109.599 E.02246 ; infill
M73 P1 R123
G1 X153.184 Y79.032 E1.92264 ; infill
G1 X152.68 Y79.032 E.02242 ; infill
G1 X183.751 Y110.103 E1.95434 ; infill
G1 X183.751 Y110.607 E.02242 ; infill
G1 X152.175 Y79.032 E1.98607 ; infill
G1 X151.671 Y79.032 E.02242 ; infill
G1 X183.751 Y111.112 E2.0178 ; infill
G1 X183.751 Y111.616 E.02242 ; infill
M73 Q1 S124
G1 X151.167 Y79.032 E2.0495 ; infill
G1 X150.662 Y79.032 E.02246 ; infill
G1 X183.751 Y112.12 E2.08124 ; infill
G1 X183.751 Y112.625 E.02246 ; infill
G1 X150.158 Y79.032 E2.11297 ; infill
G1 X149.654 Y79.032 E.02242 ; infill
G1 X183.751 Y113.129 E2.14467 ; infill
G1 X183.751 Y113.633 E.02242 ; infill
G1 X149.15 Y79.032 E2.17637 ; infill
G1 X148.645 Y79.032 E.02246 ; infill
G1 X183.751 Y114.137 E2.2081 ; infill
G1 X183.751 Y114.642 E.02246 ; infill
G1 X148.141 Y79.032 E2.23984 ; infill
G1 X147.637 Y79.032 E.02242 ; infill
G1 X183.751 Y115.146 E2.27154 ; infill
G1 X183.751 Y115.65 E.02242 ; infill
G1 X147.132 Y79.032 E2.30327 ; infill
G1 X146.628 Y79.032 E.02242 ; infill
G1 X183.751 Y116.155 E2.335 ; infill
G1 X183.751 Y116.659 E.02242 ; infill
G1 X146.124 Y79.032 E2.3667 ; infill
G1 X145.619 Y79.032 E.02246 ; infill
M73 P2 R123
M73 Q2 S124
G1 X183.751 Y117.163 E2.39844 ; infill
G1 X183.751 Y117.668 E.02246 ; infill
G1 X145.115 Y79.032 E2.43017 ; infill
G1 X144.611 Y79.032 E.02242 ; infill
G1 X183.751 Y118.172 E2.46187 ; infill
G1 X183.751 Y118.676 E.02242 ; infill
G1 X144.107 Y79.032 E2.49357 ; infill
G1 X143.602 Y79.032 E.02246 ; infill
G1 X183.751 Y119.18 E2.5253 ; infill
G1 X183.751 Y119.685 E.02246 ; infill
G1 X143.098 Y79.032 E2.55704 ; infill
G1 X142.594 Y79.032 E.02242 ; infill
G1 X183.751 Y120.189 E2.58874 ; infill
G1 X183.751 Y120.693 E.02242 ; infill
G1 X142.089 Y79.032 E2.62047 ; infill
G1 X141.585 Y79.032 E.02242 ; infill
M73 P2 R122
G1 X183.751 Y121.198 E2.6522 ; infill
G1 X183.751 Y121.702 E.02242 ; infill
G1 X141.081 Y79.032 E2.6839 ; infill
G1 X140.576 Y79.032 E.02246 ; infill
G1 X183.751 Y122.206 E2.71564 ; infill
G1 X183.751 Y122.711 E.02246 ; infill
M73 Q2 S123
G1 X139.912 Y78.872 E2.75743 ; infill
M204 S1000 ; adjust acceleration
;WIPE_START
G1 F8640
G1 X144.199 Y83.159 E-1.4 ; wipe and retract
;WIPE_END
G1 Z.5 F720 ; move to first infill point
G1 X138.911 Y77.871 F10800 ; move to first infill point
G1 Z.3 F720 ; move to first infill point
G1 E1.4 F2100 ;  ; unretract
M204 S800 ; adjust acceleration
G1 F1200
G1 X138.473 Y77.432 E.02758 ; infill
G1 X137.971 Y77.434 E.02233 ; infill
G1 X138.751 Y78.215 E.04909 ; infill
G1 X138.798 Y78.505 E.01307 ; infill
G1 X138.884 Y78.674 E.00843 ; infill
G1 X138.989 Y78.801 E.00733 ; infill
G1 X139.109 Y78.899 E.00689 ; infill
G1 X139.343 Y79.005 E.01143 ; infill
G1 X139.568 Y79.032 E.01008 ; infill
G1 X183.751 Y123.215 E2.77907 ; infill
G1 X183.751 Y123.719 E.02242 ; infill
G1 X137.469 Y77.437 E2.9111 ; infill
G1 X136.967 Y77.439 E.02233 ; infill
G1 X183.751 Y124.223 E2.94267 ; infill
G1 X183.751 Y124.728 E.02246 ; infill
G1 X136.464 Y77.441 E2.97431 ; infill
G1 X135.962 Y77.443 E.02233 ; infill
G1 X183.751 Y125.232 E3.00588 ; infill
G1 X183.751 Y125.736 E.02242 ; infill
G1 X135.46 Y77.446 E3.03743 ; infill
G1 X134.958 Y77.448 E.02233 ; infill
G1 X183.751 Y126.241 E3.06903 ; infill
G1 X183.751 Y126.745 E.02242 ; infill
G1 X134.43 Y77.424 E3.10225 ; infill
G1 X134.185 Y77.368 E.01118 ; infill
G1 X134.171 Y77.345 E.0012 ; infill
G1 X133.839 Y77.337 E.01477 ; infill
G1 X183.751 Y127.249 E3.13942 ; infill
G1 X183.751 Y127.754 E.02246 ; infill
G1 X133.816 Y77.818 E3.1409 ; infill
G1 X133.816 Y78.322 E.02242 ; infill
G1 X183.751 Y128.258 E3.1409 ; infill
G1 X183.751 Y128.762 E.02242 ; infill
G1 X133.816 Y78.827 E3.14087 ; infill
G1 X133.816 Y79.331 E.02242 ; infill
M73 P3 R122
M73 Q3 S123
G1 X183.751 Y129.266 E3.14087 ; infill
G1 X183.751 Y129.771 E.02246 ; infill
G1 X133.816 Y79.835 E3.1409 ; infill
G1 X133.816 Y80.34 E.02246 ; infill
M73 P3 R121
G1 X183.751 Y130.275 E3.14087 ; infill
G1 X183.751 Y130.779 E.02242 ; infill
G1 X133.816 Y80.844 E3.14087 ; infill
G1 X133.816 Y81.348 E.02242 ; infill
M73 Q3 S122
G1 X183.751 Y131.284 E3.1409 ; infill
G1 X183.751 Y131.788 E.02242 ; infill
G1 X133.816 Y81.853 E3.14087 ; infill
G1 X133.816 Y82.357 E.02242 ; infill
G1 X183.751 Y132.292 E3.14087 ; infill
G1 X183.751 Y132.571 E.01241 ; infill
G1 X183.526 Y132.571 E.01001 ; infill
G1 X133.816 Y82.861 E3.12671 ; infill
G1 X133.816 Y83.365 E.02242 ; infill
G1 X183.022 Y132.571 E3.09501 ; infill
G1 X182.517 Y132.571 E.02246 ; infill
G1 X133.816 Y83.87 E3.06325 ; infill
G1 X133.816 Y84.374 E.02242 ; infill
G1 X182.013 Y132.571 E3.03155 ; infill
G1 X181.509 Y132.571 E.02242 ; infill
G1 X133.816 Y84.878 E2.99985 ; infill
G1 X133.816 Y85.383 E.02246 ; infill
G1 X181.004 Y132.571 E2.96808 ; infill
G1 X180.5 Y132.571 E.02242 ; infill
G1 X133.816 Y85.887 E2.93638 ; infill
G1 X133.816 Y86.391 E.02242 ; infill
G1 X179.996 Y132.571 E2.90468 ; infill
