; generated by PrusaSlicer 2.7.1 on 2023-12-23 at 16:01:35 UTC


;
;
; 

; external perimeters extrusion width = 0.60mm
; perimeters extrusion width = 0.50mm
; infill extrusion width = 0.50mm
; solid infill extrusion width = 0.50mm
; top infill extrusion width = 0.45mm
; first layer extrusion width = 0.42mm

; external perimeters extrusion width = 0.60mm
; perimeters extrusion width = 0.50mm
; infill extrusion width = 0.50mm
; solid infill extrusion width = 0.50mm
; top infill extrusion width = 0.45mm
; first layer extrusion width = 0.42mm

M73 P0 R120
M73 Q0 S122
M201 X1000 Y1000 Z200 E5000 ; sets maximum accelerations, mm/sec^2
M203 X200 Y200 Z12 E120 ; sets maximum feedrates, mm / sec
M204 S1250 T1250 ; sets acceleration (S) and retract acceleration (R), mm/sec^2
M205 X8.00 Y8.00 Z0.40 E4.50 ; sets the jerk limits, mm/sec
M205 S0 T0 ; sets the minimum extruding and travel feed rate, mm/sec

; printing object 4L_knee-Body.stl id:0 copy 0
; stop printing object 4L_knee-Body.stl id:0 copy 0
; printing object 4R_knee-Body.stl id:1 copy 0
; stop printing object 4R_knee-Body.stl id:1 copy 0

;TYPE:Custom
M862.3 P "MK3S" ; printer model check
M862.1 P0.4 ; nozzle diameter check
M115 U3.12.2 ; tell printer latest fw version
G90 ; use absolute coordinates
M83 ; extruder relative mode
M104 S240 ; set extruder temp
M140 S95 ; set bed temp
M190 S95 ; wait for bed temp
M109 S240 ; wait for extruder temp
G28 W ; home all without mesh bed level
G80 ; mesh bed leveling

G1 Z0.2 F720
G1 Y-3 F1000 ; go outside print area
G92 E0
G1 X60 E9 F1000 ; intro line
G1 X100 E12.5 F1000 ; intro line

G92 E0
M221 S95

; Don't change E values below. Excessive value can damage the printer.

M907 E538 ; set extruder motor current
G21 ; set units to millimeters
G90 ; use absolute coordinates
M83 ; use relative distances for extrusion
M900 K0.08 ; Filament gcode LA 1.5
M900 K45 ; Filament gcode LA 1.0
M107 ; disable fan
;LAYER_CHANGE
;Z:0.3
;HEIGHT:0.3
;BEFORE_LAYER_CHANGE
G92 E0.0
;0.3


G1 E-1.4 F2100 ; retract
G1 Z.3 F720 ; move to next layer (0)
;AFTER_LAYER_CHANGE
;0.3
G1 X90.672 Y73.985 F10800 ; move to print after unknown position
G1 Z.3 F720 ; move to print after unknown position
G1 E1.4 F2100 ;  ; unretract
M204 S800 ; adjust acceleration
;TYPE:Skirt/Brim
;WIDTH:0.42
G1 F1200
G1 X91.716 Y73.116 E.06025 ; skirt
G1 X92.636 Y72.929 E.04164 ; skirt
G1 X198.45 Y72.916 E4.69336 ; skirt
G1 X199.751 Y73.307 E.06026 ; skirt
M73 Q0 S121
G1 X200.619 Y74.352 E.06025 ; skirt
G1 X200.806 Y75.271 E.0416 ; skirt
G1 X200.806 Y135.551 E2.67371 ; skirt
G1 X200.414 Y136.852 E.06027 ; skirt
G1 X199.37 Y137.72 E.06022 ; skirt
G1 X198.451 Y137.907 E.0416 ; skirt
G1 X92.665 Y137.915 E4.69212 ; skirt
G1 X91.364 Y137.523 E.06027 ; skirt
G1 X90.497 Y136.479 E.06019 ; skirt
G1 X90.31 Y135.561 E.04155 ; skirt
G1 X90.281 Y75.285 E2.67353 ; skirt
G1 X90.655 Y74.042 E.05757 ; skirt
M73 P0 R119
M204 S1000 ; adjust acceleration
; printing object 4L_knee-Body.stl id:0 copy 0
;WIPE_START
G1 F8640
G1 X90.672 Y73.985 E-.01373 ; wipe and retract
G1 X91.716 Y73.116 E-.31365 ; wipe and retract
G1 X92.636 Y72.929 E-.21677 ; wipe and retract
G1 X96.343 Y72.929 E-.85585 ; wipe and retract
;WIPE_END
G1 Z.5 F720 ; move to first perimeter point
G1 X152.696 Y78.707 F10800 ; move to first perimeter point
G1 Z.3 F720 ; move to first perimeter point
G1 E1.4 F2100 ;  ; unretract
M204 S800 ; adjust acceleration
;TYPE:Perimeter
;WIDTH:0.42
G1 F1200
G1 X152.717 Y78.826 E.00536 ; perimeter
G1 X152.842 Y79.022 E.01031 ; perimeter
G1 X153.001 Y79.131 E.00855 ; perimeter
G1 X153.218 Y79.177 E.00984 ; perimeter
G1 X191.683 Y79.177 E1.70611 ; perimeter
G1 X191.897 Y79.132 E.0097 ; perimeter
G1 X192.124 Y78.943 E.0131 ; perimeter
G1 X192.216 Y78.644 E.01388 ; perimeter
G1 X192.216 Y77.581 E.04715 ; perimeter
G1 X196.677 Y77.631 E.19788 ; perimeter
G1 X196.957 Y77.555 E.01287 ; perimeter
G1 X196.993 Y77.492 E.00322 ; perimeter
G1 X197.685 Y77.475 E.0307 ; perimeter
G1 X197.685 Y77.967 E.02182 ; perimeter
G1 X197.685 Y133.362 E2.45703 ; perimeter
G1 X192.216 Y133.362 E.24258 ; perimeter
G1 X192.216 Y132.179 E.05247 ; perimeter
G1 X192.189 Y132.013 E.00746 ; perimeter
G1 X192.071 Y131.814 E.01026 ; perimeter
G1 X191.908 Y131.696 E.00893 ; perimeter
G1 X191.683 Y131.646 E.01022 ; perimeter
G1 X153.218 Y131.646 E1.70611 ; perimeter
G1 X153.152 Y131.65 E.00293 ; perimeter
G1 X152.921 Y131.736 E.01093 ; perimeter
G1 X152.772 Y131.886 E.00938 ; perimeter
G1 X152.685 Y132.179 E.01356 ; perimeter
G1 X152.685 Y133.25 E.0475 ; perimeter
G1 X147.216 Y133.25 E.24258 ; perimeter
G1 X147.216 Y77.573 E2.46954 ; perimeter
G1 X152.685 Y77.573 E.24258 ; perimeter
G1 X152.685 Y78.644 E.0475 ; perimeter
G1 X152.686 Y78.648 E.00018 ; perimeter
M204 S1000 ; adjust acceleration
G1 X153.04 Y78.644 F10800 ; move to first perimeter point
M204 S800 ; adjust acceleration
;TYPE:External perimeter
G1 F1200
G1 X153.093 Y78.77 E.00606 ; perimeter
G1 X153.218 Y78.821 E.00599 ; perimeter
G1 X191.683 Y78.821 E1.70611 ; perimeter
G1 X191.806 Y78.771 E.00589 ; perimeter
G1 X191.86 Y78.644 E.00612 ; perimeter
G1 X191.86 Y77.222 E.06307 ; perimeter
G1 X196.681 Y77.276 E.21385 ; perimeter
G1 X196.774 Y77.25 E.00428 ; perimeter
G1 X196.837 Y77.14 E.00562 ; perimeter
G1 X198.04 Y77.111 E.05337 ; perimeter
G1 X198.04 Y77.967 E.03797 ; perimeter
G1 X198.04 Y133.718 E2.47282 ; perimeter
G1 X191.86 Y133.718 E.27411 ; perimeter
G1 X191.86 Y132.179 E.06826 ; perimeter
G1 X191.812 Y132.057 E.00582 ; perimeter
G1 X191.683 Y132.001 E.00624 ; perimeter
G1 X153.218 Y132.001 E1.70611 ; perimeter
G1 X153.093 Y132.053 E.006 ; perimeter
G1 X153.04 Y132.179 E.00606 ; perimeter
G1 X153.04 Y133.606 E.06329 ; perimeter
G1 X146.86 Y133.606 E.27411 ; perimeter
G1 X146.86 Y77.217 E2.50112 ; perimeter
G1 X153.04 Y77.217 E.27411 ; perimeter
G1 X153.04 Y78.584 E.06063 ; perimeter
M204 S1000 ; adjust acceleration
;WIPE_START
G1 F8640
G1 X153.04 Y78.644 E-.01385 ; wipe and retract
G1 X153.093 Y78.77 E-.03156 ; wipe and retract
G1 X153.218 Y78.821 E-.03117 ; wipe and retract
G1 X158.949 Y78.821 E-1.32342 ; wipe and retract
;WIPE_END
G1 Z.5 F720 ; move to first infill point
G1 X196.937 Y77.664 F10800 ; move to first infill point
G1 Z.3 F720 ; move to first infill point
G1 E1.4 F2100 ;  ; unretract
M204 S800 ; adjust acceleration
;TYPE:Solid infill
;WIDTH:0.420917
G1 F1200
G1 X197.418 Y78.145 E.03025 ; infill
G1 X197.418 Y78.649 E.02241 ; infill
G1 X196.667 Y77.898 E.04723 ; infill
G1 X196.157 Y77.892 E.02268 ; infill
G1 X197.418 Y79.153 E.0793 ; infill
G1 X197.418 Y79.657 E.02241 ; infill
G1 X195.647 Y77.886 E.11138 ; infill
G1 X195.137 Y77.881 E.02268 ; infill
G1 X197.418 Y80.162 E.14345 ; infill
G1 X197.418 Y80.666 E.02241 ; infill
G1 X194.627 Y77.875 E.17552 ; infill
G1 X194.117 Y77.869 E.02268 ; infill
G1 X197.418 Y81.17 E.2076 ; infill
G1 X197.418 Y81.674 E.02241 ; infill
G1 X193.607 Y77.864 E.23964 ; infill
G1 X193.097 Y77.858 E.02268 ; infill
G1 X197.418 Y82.179 E.27174 ; infill
G1 X197.418 Y82.683 E.02241 ; infill
G1 X192.587 Y77.852 E.30382 ; infill
G1 X192.483 Y77.851 E.00463 ; infill
G1 X192.483 Y78.252 E.01783 ; infill
G1 X197.418 Y83.187 E.31036 ; infill
G1 X197.418 Y83.691 E.02241 ; infill
G1 X192.467 Y78.74 E.31136 ; infill
G1 X192.434 Y78.922 E.00823 ; infill
G1 X192.332 Y79.109 E.00947 ; infill
G1 X197.418 Y84.195 E.31985 ; infill
G1 X197.418 Y84.7 E.02246 ; infill
G1 X192.06 Y79.341 E.33699 ; infill
G1 X191.89 Y79.417 E.00828 ; infill
G1 X191.658 Y79.444 E.01039 ; infill
G1 X197.418 Y85.204 E.36224 ; infill
G1 X197.418 Y85.708 E.02241 ; infill
G1 X191.154 Y79.444 E.39394 ; infill
G1 X190.649 Y79.444 E.02246 ; infill
G1 X197.418 Y86.212 E.42566 ; infill
G1 X197.418 Y86.717 E.02246 ; infill
G1 X190.145 Y79.444 E.45739 ; infill
G1 X189.641 Y79.444 E.02241 ; infill
G1 X197.418 Y87.221 E.48909 ; infill
G1 X197.418 Y87.725 E.02241 ; infill
G1 X189.137 Y79.444 E.52078 ; infill
G1 X188.633 Y79.444 E.02241 ; infill
G1 X197.418 Y88.229 E.55248 ; infill
G1 X197.418 Y88.733 E.02241 ; infill
G1 X188.128 Y79.444 E.58421 ; infill
G1 X187.624 Y79.444 E.02241 ; infill
G1 X197.418 Y89.238 E.61593 ; infill
G1 X197.418 Y89.742 E.02241 ; infill
G1 X187.12 Y79.444 E.64763 ; infill
G1 X186.616 Y79.444 E.02241 ; infill
G1 X197.418 Y90.246 E.67933 ; infill
G1 X197.418 Y90.75 E.02241 ; infill
G1 X186.111 Y79.444 E.71105 ; infill
G1 X185.607 Y79.444 E.02241 ; infill
G1 X197.418 Y91.254 E.74275 ; infill
G1 X197.418 Y91.759 E.02246 ; infill
G1 X185.103 Y79.444 E.77448 ; infill
G1 X184.599 Y79.444 E.02241 ; infill
G1 X197.418 Y92.263 E.80617 ; infill
G1 X197.418 Y92.767 E.02241 ; infill
G1 X184.095 Y79.444 E.83787 ; infill
G1 X183.59 Y79.444 E.02246 ; infill
G1 X197.418 Y93.271 E.8696 ; infill
G1 X197.418 Y93.776 E.02246 ; infill
G1 X183.086 Y79.444 E.90132 ; infill
G1 X182.582 Y79.444 E.02241 ; infill
G1 X197.418 Y94.28 E.93302 ; infill
G1 X197.418 Y94.784 E.02241 ; infill
G1 X182.078 Y79.444 E.96472 ; infill
G1 X181.574 Y79.444 E.02241 ; infill
G1 X197.418 Y95.288 E.99641 ; infill
G1 X197.418 Y95.792 E.02241 ; infill
G1 X181.069 Y79.444 E1.02814 ; infill
G1 X180.565 Y79.444 E.02241 ; infill
G1 X197.418 Y96.297 E1.05987 ; infill
G1 X197.418 Y96.801 E.02241 ; infill
G1 X180.061 Y79.444 E1.09156 ; infill
G1 X179.557 Y79.444 E.02241 ; infill
M73 P1 R119
M73 Q0 S120
G1 X197.418 Y97.305 E1.12326 ; infill
G1 X197.418 Y97.809 E.02241 ; infill
M73 Q1 S120
G1 X179.052 Y79.444 E1.15499 ; infill
G1 X178.548 Y79.444 E.02241 ; infill
G1 X197.418 Y98.314 E1.18671 ; infill
G1 X197.418 Y98.818 E.02241 ; infill
G1 X178.044 Y79.444 E1.21841 ; infill
G1 X177.54 Y79.444 E.02241 ; infill
G1 X197.418 Y99.322 E1.2501 ; infill
G1 X197.418 Y99.826 E.02241 ; infill
G1 X177.036 Y79.444 E1.2818 ; infill
G1 X176.531 Y79.444 E.02246 ; infill
G1 X197.418 Y100.33 E1.31353 ; infill
G1 X197.418 Y100.835 E.02246 ; infill
M73 P1 R118
G1 X176.027 Y79.444 E1.34526 ; infill
G1 X175.523 Y79.444 E.02241 ; infill
G1 X197.418 Y101.339 E1.37695 ; infill
G1 X197.418 Y101.843 E.02241 ; infill
G1 X175.019 Y79.444 E1.40865 ; infill
G1 X174.514 Y79.444 E.02246 ; infill
G1 X197.418 Y102.347 E1.44037 ; infill
G1 X197.418 Y102.851 E.02241 ; infill
G1 X174.01 Y79.444 E1.47207 ; infill
G1 X173.506 Y79.444 E.02241 ; infill
G1 X197.418 Y103.356 E1.5038 ; infill
G1 X197.418 Y103.86 E.02241 ; infill
G1 X173.002 Y79.444 E1.53549 ; infill
G1 X172.498 Y79.444 E.02241 ; infill
G1 X197.418 Y104.364 E1.56719 ; infill
G1 X197.418 Y104.868 E.02241 ; infill
G1 X171.993 Y79.444 E1.59892 ; infill
G1 X171.489 Y79.444 E.02241 ; infill
G1 X197.418 Y105.373 E1.63065 ; infill
G1 X197.418 Y105.877 E.02241 ; infill
G1 X170.985 Y79.444 E1.66234 ; infill
G1 X170.481 Y79.444 E.02241 ; infill
G1 X197.418 Y106.381 E1.69404 ; infill
G1 X197.418 Y106.885 E.02241 ; infill
G1 X169.976 Y79.444 E1.72576 ; infill
G1 X169.472 Y79.444 E.02241 ; infill
G1 X197.418 Y107.389 E1.75746 ; infill
G1 X197.418 Y107.894 E.02246 ; infill
G1 X168.968 Y79.444 E1.78919 ; infill
G1 X168.464 Y79.444 E.02241 ; infill
G1 X197.418 Y108.398 E1.82088 ; infill
G1 X197.418 Y108.902 E.02241 ; infill
G1 X167.96 Y79.444 E1.85258 ; infill
G1 X167.455 Y79.444 E.02246 ; infill
G1 X197.418 Y109.406 E1.88431 ; infill
G1 X197.418 Y109.911 E.02246 ; infill
G1 X166.951 Y79.444 E1.91603 ; infill
G1 X166.447 Y79.444 E.02241 ; infill
G1 X197.418 Y110.415 E1.94773 ; infill
G1 X197.418 Y110.919 E.02241 ; infill
G1 X165.943 Y79.444 E1.97943 ; infill
G1 X165.439 Y79.444 E.02241 ; infill
G1 X197.418 Y111.423 E2.01112 ; infill
G1 X197.418 Y111.927 E.02241 ; infill
G1 X164.934 Y79.444 E2.04285 ; infill
G1 X164.43 Y79.444 E.02241 ; infill
G1 X197.418 Y112.432 E2.07458 ; infill
G1 X197.418 Y112.936 E.02241 ; infill
G1 X163.926 Y79.444 E2.10627 ; infill
G1 X163.422 Y79.444 E.02241 ; infill
M73 Q1 S119
G1 X197.418 Y113.44 E2.13797 ; infill
G1 X197.418 Y113.944 E.02241 ; infill
G1 X162.917 Y79.444 E2.1697 ; infill
G1 X162.413 Y79.444 E.02241 ; infill
G1 X197.418 Y114.449 E2.20142 ; infill
G1 X197.418 Y114.953 E.02241 ; infill
G1 X161.909 Y79.444 E2.23312 ; infill
G1 X161.405 Y79.444 E.02241 ; infill
M73 P1 R117
G1 X197.418 Y115.457 E2.26482 ; infill
G1 X197.418 Y115.961 E.02241 ; infill
G1 X160.901 Y79.444 E2.29651 ; infill
G1 X160.396 Y79.444 E.02246 ; infill
M73 P2 R117
M73 Q2 S119
G1 X197.418 Y116.465 E2.32824 ; infill
G1 X197.418 Y116.97 E.02246 ; infill
G1 X159.892 Y79.444 E2.35997 ; infill
G1 X159.388 Y79.444 E.02241 ; infill
G1 X197.418 Y117.474 E2.39166 ; infill
G1 X197.418 Y117.978 E.02241 ; infill
G1 X158.884 Y79.444 E2.42336 ; infill
G1 X158.379 Y79.444 E.02246 ; infill
G1 X197.418 Y118.482 E2.45509 ; infill
G1 X197.418 Y118.986 E.02241 ; infill
G1 X157.875 Y79.444 E2.48678 ; infill
G1 X157.371 Y79.444 E.02241 ; infill
G1 X197.418 Y119.491 E2.51851 ; infill
G1 X197.418 Y119.995 E.02241 ; infill
G1 X156.867 Y79.444 E2.55021 ; infill
G1 X156.363 Y79.444 E.02241 ; infill
G1 X197.418 Y120.499 E2.5819 ; infill
G1 X197.418 Y121.003 E.02241 ; infill
G1 X155.858 Y79.444 E2.61363 ; infill
G1 X155.354 Y79.444 E.02241 ; infill
G1 X197.418 Y121.508 E2.64536 ; infill
G1 X197.418 Y122.012 E.02241 ; infill
G1 X154.85 Y79.444 E2.67705 ; infill
G1 X154.346 Y79.444 E.02241 ; infill
G1 X197.418 Y122.516 E2.70875 ; infill
G1 X197.418 Y123.02 E.02241 ; infill
G1 X153.681 Y79.284 E2.75054 ; infill
M204 S1000 ; adjust acceleration
;WIPE_START
G1 F8640
G1 X157.968 Y83.571 E-1.4 ; wipe and retract
;WIPE_END
G1 Z.5 F720 ; move to first infill point
G1 X152.578 Y78.18 F10800 ; move to first infill point
G1 Z.3 F720 ; move to first infill point
G1 E1.4 F2100 ;  ; unretract
M204 S800 ; adjust acceleration
G1 F1200
G1 X152.237 Y77.839 E.02145 ; infill
G1 X151.733 Y77.839 E.02241 ; infill
G1 X152.418 Y78.524 E.04308 ; infill
G1 X152.418 Y78.651 E.00565 ; infill
G1 X152.464 Y78.915 E.01192 ; infill
G1 X152.549 Y79.083 E.00837 ; infill
G1 X152.654 Y79.211 E.00736 ; infill
G1 X152.774 Y79.31 E.00692 ; infill
G1 X153.008 Y79.417 E.01144 ; infill
G1 X153.337 Y79.444 E.01468 ; infill
G1 X197.418 Y123.524 E2.77217 ; infill
G1 X197.418 Y124.029 E.02246 ; infill
G1 X151.229 Y77.839 E2.9048 ; infill
G1 X150.725 Y77.839 E.02241 ; infill
M73 Q2 S118
G1 X197.418 Y124.533 E2.9365 ; infill
G1 X197.418 Y125.037 E.02241 ; infill
G1 X150.22 Y77.839 E2.96823 ; infill
G1 X149.716 Y77.839 E.02241 ; infill
G1 X197.418 Y125.541 E2.99992 ; infill
G1 X197.418 Y126.046 E.02246 ; infill
M73 P2 R116
G1 X149.212 Y77.839 E3.03165 ; infill
G1 X148.708 Y77.839 E.02241 ; infill
G1 X197.418 Y126.55 E3.06335 ; infill
G1 X197.418 Y127.054 E.02241 ; infill
G1 X148.203 Y77.839 E3.09507 ; infill
G1 X147.699 Y77.839 E.02241 ; infill
G1 X197.418 Y127.558 E3.12677 ; infill
G1 X197.418 Y128.062 E.02241 ; infill
M73 P3 R116
G1 X147.483 Y78.127 E3.14035 ; infill
G1 X147.483 Y78.631 E.02241 ; infill
M73 Q3 S118
G1 X197.418 Y128.567 E3.14039 ; infill
G1 X197.418 Y129.071 E.02241 ; infill
G1 X147.483 Y79.136 E3.14035 ; infill
G1 X147.483 Y79.64 E.02241 ; infill
G1 X197.418 Y129.575 E3.14035 ; infill
G1 X197.418 Y130.079 E.02241 ; infill
G1 X147.483 Y80.144 E3.14035 ; infill
G1 X147.483 Y80.648 E.02241 ; infill
G1 X197.418 Y130.583 E3.14035 ; infill
G1 X197.418 Y131.088 E.02246 ; infill
G1 X147.483 Y81.152 E3.14039 ; infill
G1 X147.483 Y81.657 E.02246 ; infill
G1 X197.418 Y131.592 E3.14035 ; infill
G1 X197.418 Y132.096 E.02241 ; infill
G1 X147.483 Y82.161 E3.14035 ; infill
G1 X147.483 Y82.665 E.02241 ; infill
G1 X197.418 Y132.6 E3.14035 ; infill
G1 X197.418 Y133.095 E.02201 ; infill
M73 Q3 S117
G1 X147.483 Y83.169 E3.14007 ; infill
G1 X147.483 Y83.673 E.02241 ; infill
G1 X196.905 Y133.095 E3.10809 ; infill
G1 X196.4 Y133.095 E.02246 ; infill
M73 P3 R115
G1 X147.483 Y84.178 E3.07633 ; infill
G1 X147.483 Y84.682 E.02241 ; infill
G1 X195.896 Y133.095 E3.04464 ; infill
G1 X195.392 Y133.095 E.02241 ; infill
G1 X147.483 Y85.186 E3.01294 ; infill
G1 X147.483 Y85.69 E.02241 ; infill
G1 X194.888 Y133.095 E2.98125 ; infill
G1 X194.384 Y133.095 E.02241 ; infill
G1 X147.483 Y86.195 E2.94952 ; infill
G1 X147.483 Y86.699 E.02241 ; infill
