; generated by PrusaSlicer 2.5.0 on 2022-11-20 at 14:45:21 UTC

; 

; external perimeters extrusion width = 0.60mm
; perimeters extrusion width = 0.50mm
; infill extrusion width = 0.50mm
; solid infill extrusion width = 0.50mm
; top infill extrusion width = 0.45mm
; first layer extrusion width = 0.42mm

; external perimeters extrusion width = 0.60mm
; perimeters extrusion width = 0.50mm
; infill extrusion width = 0.50mm
; solid infill extrusion width = 0.50mm
; top infill extrusion width = 0.45mm
; first layer extrusion width = 0.42mm

M73 P0 R122
M73 Q0 S124
M201 X1000 Y1000 Z200 E5000 ; sets maximum accelerations, mm/sec^2
M203 X200 Y200 Z12 E120 ; sets maximum feedrates, mm / sec
M204 P1250 R1250 T1250 ; sets acceleration (P, T) and retract acceleration (R), mm/sec^2
M205 X8.00 Y8.00 Z0.40 E4.50 ; sets the jerk limits, mm/sec
M205 S0 T0 ; sets the minimum extruding and travel feed rate, mm/sec
M107
;TYPE:Custom
M862.3 P "MK3S" ; printer model check
M862.1 P0.4 ; nozzle diameter check
M115 U3.10.1 ; tell printer latest fw version
G90 ; use absolute coordinates
M83 ; extruder relative mode
M104 S240 ; set extruder temp
M140 S95 ; set bed temp
M190 S95 ; wait for bed temp
M109 S240 ; wait for extruder temp
G28 W ; home all without mesh bed level
G80 ; mesh bed leveling
G1 Z0.2 F720
G1 Y-3 F1000 ; go outside print area
G92 E0
G1 X60 E9 F1000 ; intro line
G1 X100 E12.5 F1000 ; intro line
G92 E0
M221 S95

; Don't change E values below. Excessive value can damage the printer.

M907 E538 ; set extruder motor current
G21 ; set units to millimeters
G90 ; use absolute coordinates
M83 ; use relative distances for extrusion
M900 K0.08 ; Filament gcode LA 1.5
M900 K45 ; Filament gcode LA 1.0
M107
;LAYER_CHANGE
;Z:0.3
;HEIGHT:0.3
;BEFORE_LAYER_CHANGE
G92 E0.0
;0.3


G1 E-1.4 F2100
G1 Z.2 F720
G1 Z.3
;AFTER_LAYER_CHANGE
;0.3
G1 Z.5
G1 X65.175 Y53.732 F10800
G1 Z.3 F720
G1 E1.4 F2100
M204 S800
;TYPE:Skirt/Brim
;WIDTH:0.42
G1 F1200
G1 X66.22 Y52.865 E.06024
G1 X67.138 Y52.679 E.04153
G1 X193.043 Y52.686 E5.58453
G1 X194.344 Y53.078 E.06024
G1 X195.212 Y54.122 E.06024
G1 X195.399 Y55.039 E.04152
G1 X195.399 Y107.042 E2.30657
G1 X195.007 Y108.342 E.06024
G1 X193.962 Y109.21 E.06024
G1 X193.043 Y109.397 E.04161
G1 X67.137 Y109.39 E5.58453
G1 X65.837 Y108.998 E.06024
G1 X64.969 Y107.954 E.06024
G1 X64.782 Y107.035 E.0416
G1 X64.782 Y55.032 E2.30657
G1 X65.157 Y53.789 E.05758
M204 S1000
; printing object 4R_knee-Body.stl id:0 copy 0
;WIPE_START
G1 F8640
G1 X66.22 Y52.865 E-.32524
G1 X67.138 Y52.679 E-.2162
G1 X70.553 Y52.679 E-.78857
;WIPE_END
M73 P0 R121
G1 E-.07 F2100
G1 Z.5 F720
G1 X69.322 Y55.8 F10800
G1 Z.3 F720
G1 E1.4 F2100
M204 S800
;TYPE:Perimeter
;WIDTH:0.42
G1 F1200
G1 X125.218 Y55.8 E2.47925
G1 X125.22 Y61.885 E.26988
G1 X125.044 Y61.999 E.00929
G1 X124.65 Y62.335 E.02299
G1 X124.227 Y62.844 E.02933
G1 X123.89 Y63.377 E.02795
G1 X123.688 Y63.878 E.02396
G1 X123.566 Y64.365 E.02229
G1 X123.508 Y64.881 E.02304
G1 X123.505 Y97.038 E1.42629
G1 X123.537 Y97.515 E.0212
G1 X123.639 Y98.026 E.02313
G1 X123.807 Y98.511 E.02276
G1 X124.054 Y98.991 E.02394
G1 X124.357 Y99.419 E.02327
G1 X124.724 Y99.807 E.0237
G1 X125.219 Y100.184 E.02758
G1 X125.218 Y106.269 E.2699
G1 X69.323 Y106.269 E2.47925
G1 X69.321 Y100.187 E.26974
M73 Q0 S123
G1 X69.782 Y99.839 E.02562
G1 X70.155 Y99.454 E.02377
G1 X70.462 Y99.032 E.02315
G1 X70.695 Y98.598 E.02187
G1 X70.871 Y98.134 E.022
G1 X70.983 Y97.659 E.02162
G1 X71.034 Y97.14 E.02314
G1 X71.036 Y65.031 E1.42419
G1 X71.004 Y64.554 E.0212
G1 X70.902 Y64.043 E.02314
G1 X70.733 Y63.558 E.02276
G1 X70.487 Y63.078 E.02395
G1 X70.184 Y62.649 E.02327
G1 X69.817 Y62.261 E.02369
G1 X69.321 Y61.885 E.02763
G1 X69.322 Y55.86 E.26721
M204 S1000
G1 X68.967 Y55.444 F10800
M204 S800
;TYPE:External perimeter
G1 F1200
G1 X125.574 Y55.444 E2.51079
G1 X125.575 Y62.083 E.29446
G1 X125.289 Y62.259 E.01489
G1 X124.923 Y62.563 E.02109
G1 X124.501 Y63.071 E.02933
G1 X124.201 Y63.55 E.02504
G1 X124.019 Y64.008 E.02186
G1 X123.923 Y64.385 E.01726
G1 X123.864 Y64.881 E.02218
G1 X123.86 Y97.038 E1.42629
G1 X123.891 Y97.49 E.02011
G1 X123.987 Y97.953 E.02096
G1 X124.142 Y98.391 E.0206
G1 X124.369 Y98.825 E.02174
G1 X124.639 Y99.202 E.02055
G1 X124.934 Y99.518 E.01916
G1 X125.266 Y99.793 E.01916
G1 X125.575 Y99.985 E.01613
G1 X125.574 Y106.624 E.29447
G1 X68.967 Y106.624 E2.51079
G1 X68.966 Y99.987 E.2944
G1 X69.56 Y99.561 E.03244
G1 X69.897 Y99.209 E.0216
G1 X70.172 Y98.826 E.02093
G1 X70.38 Y98.432 E.01975
G1 X70.537 Y98.011 E.01994
G1 X70.636 Y97.581 E.01956
G1 X70.679 Y97.14 E.01964
G1 X70.68 Y65.031 E1.42419
G1 X70.65 Y64.579 E.02011
G1 X70.554 Y64.116 E.02096
G1 X70.399 Y63.678 E.0206
G1 X70.172 Y63.244 E.02174
G1 X69.902 Y62.867 E.02055
G1 X69.607 Y62.551 E.01916
G1 X69.275 Y62.276 E.01916
G1 X68.965 Y62.083 E.01617
G1 X68.967 Y55.504 E.29179
M204 S1000
G1 X69.316 Y55.639 F10800
;WIPE_START
G1 F8640
G1 X74.727 Y55.498 E-1.33
;WIPE_END
G1 E-.07 F2100
G1 Z.5 F720
G1 X125.112 Y56.629 F10800
G1 Z.3 F720
G1 E1.4 F2100
M204 S800
;TYPE:Solid infill
;WIDTH:0.421331
G1 F1200
G1 X124.55 Y56.067 E.03537
G1 X124.045 Y56.067 E.02247
G1 X124.952 Y56.973 E.05709
G1 X124.952 Y57.478 E.02248
G1 X123.54 Y56.067 E.08888
G1 X123.036 Y56.067 E.02247
G1 X124.952 Y57.983 E.12067
G1 X124.952 Y58.488 E.02248
G1 X122.531 Y56.067 E.15246
G1 X122.026 Y56.067 E.02247
G1 X124.952 Y58.993 E.18425
G1 X124.952 Y59.498 E.02248
G1 X121.521 Y56.067 E.21604
G1 X121.016 Y56.067 E.02247
G1 X124.952 Y60.003 E.24782
G1 X124.953 Y60.508 E.02248
G1 X120.512 Y56.067 E.27961
G1 X120.007 Y56.067 E.02247
G1 X124.953 Y61.013 E.3114
G1 X124.953 Y61.518 E.02248
G1 X119.502 Y56.067 E.34319
G1 X118.997 Y56.067 E.02247
G1 X124.8 Y61.87 E.36536
G1 X124.523 Y62.098 E.01596
G1 X118.492 Y56.067 E.37973
G1 X117.987 Y56.067 E.02247
G1 X124.282 Y62.361 E.39629
G1 X124.053 Y62.637 E.01596
G1 X117.483 Y56.067 E.41365
G1 X116.978 Y56.067 E.02247
G1 X123.843 Y62.931 E.43222
G1 X123.656 Y63.249 E.01642
G1 X116.473 Y56.067 E.45223
G1 X115.968 Y56.067 E.02247
G1 X123.513 Y63.611 E.47502
G1 X123.383 Y63.986 E.01766
G1 X115.463 Y56.067 E.49862
G1 X114.959 Y56.067 E.02247
G1 X123.294 Y64.402 E.52478
G1 X123.244 Y64.857 E.02038
G1 X114.454 Y56.067 E.55343
G1 X113.949 Y56.067 E.02247
G1 X123.242 Y65.359 E.58508
G1 X123.242 Y65.864 E.02247
G1 X113.444 Y56.067 E.61686
G1 X112.939 Y56.067 E.02247
G1 X123.242 Y66.369 E.64864
G1 X123.241 Y66.874 E.02247
G1 X112.435 Y56.067 E.68042
G1 X111.93 Y56.067 E.02247
G1 X123.241 Y67.378 E.7122
G1 X123.241 Y67.883 E.02247
G1 X111.425 Y56.067 E.74398
G1 X110.92 Y56.067 E.02247
G1 X123.241 Y68.388 E.77576
G1 X123.241 Y68.893 E.02247
G1 X110.415 Y56.067 E.80754
G1 X109.911 Y56.067 E.02247
G1 X123.241 Y69.397 E.83932
G1 X123.241 Y69.902 E.02247
G1 X109.406 Y56.067 E.8711
G1 X108.901 Y56.067 E.02247
G1 X123.241 Y70.407 E.90288
G1 X123.241 Y70.912 E.02247
G1 X108.396 Y56.067 E.93466
G1 X107.891 Y56.067 E.02247
G1 X123.241 Y71.416 E.96644
G1 X123.241 Y71.921 E.02247
G1 X107.387 Y56.067 E.99822
G1 X106.882 Y56.067 E.02247
G1 X123.241 Y72.426 E1.03
G1 X123.241 Y72.931 E.02247
G1 X106.377 Y56.067 E1.06178
G1 X105.872 Y56.067 E.02247
G1 X123.241 Y73.435 E1.09356
G1 X123.241 Y73.94 E.02247
G1 X105.367 Y56.067 E1.12534
G1 X104.863 Y56.067 E.02247
M73 P1 R121
M73 Q1 S123
G1 X123.241 Y74.445 E1.15712
G1 X123.241 Y74.95 E.02247
G1 X104.358 Y56.067 E1.1889
G1 X103.853 Y56.067 E.02247
G1 X123.241 Y75.454 E1.22068
G1 X123.24 Y75.959 E.02247
G1 X103.348 Y56.067 E1.25246
G1 X102.843 Y56.067 E.02247
G1 X123.24 Y76.464 E1.28424
G1 X123.24 Y76.969 E.02247
G1 X102.339 Y56.067 E1.31602
G1 X101.834 Y56.067 E.02247
G1 X123.24 Y77.473 E1.3478
G1 X123.24 Y77.978 E.02247
G1 X101.329 Y56.067 E1.37958
G1 X100.824 Y56.067 E.02247
M73 P1 R120
G1 X123.24 Y78.483 E1.41136
G1 X123.24 Y78.988 E.02247
G1 X100.319 Y56.067 E1.44314
G1 X99.815 Y56.067 E.02247
G1 X123.24 Y79.492 E1.47492
G1 X123.24 Y79.997 E.02247
G1 X99.31 Y56.067 E1.5067
G1 X98.805 Y56.067 E.02247
M73 Q1 S122
G1 X123.24 Y80.502 E1.53847
G1 X123.24 Y81.007 E.02247
G1 X98.3 Y56.067 E1.57025
G1 X97.795 Y56.067 E.02247
G1 X123.24 Y81.511 E1.60203
G1 X123.24 Y82.016 E.02247
G1 X97.291 Y56.067 E1.63381
G1 X96.786 Y56.067 E.02247
G1 X123.24 Y82.521 E1.66559
G1 X123.24 Y83.025 E.02247
G1 X96.281 Y56.067 E1.69737
G1 X95.776 Y56.067 E.02247
G1 X123.24 Y83.53 E1.72915
G1 X123.24 Y84.035 E.02247
G1 X95.271 Y56.067 E1.76093
G1 X94.767 Y56.067 E.02247
G1 X123.24 Y84.54 E1.79271
G1 X123.239 Y85.044 E.02247
G1 X94.262 Y56.067 E1.82449
G1 X93.757 Y56.067 E.02247
G1 X123.239 Y85.549 E1.85627
G1 X123.239 Y86.054 E.02247
G1 X93.252 Y56.067 E1.88805
G1 X92.747 Y56.067 E.02247
G1 X123.239 Y86.559 E1.91983
G1 X123.239 Y87.063 E.02247
G1 X92.243 Y56.067 E1.95161
G1 X91.738 Y56.067 E.02247
G1 X123.239 Y87.568 E1.98339
G1 X123.239 Y88.073 E.02247
G1 X91.233 Y56.067 E2.01517
G1 X90.728 Y56.067 E.02247
G1 X123.239 Y88.578 E2.04695
G1 X123.239 Y89.082 E.02247
G1 X90.223 Y56.067 E2.07873
G1 X89.718 Y56.067 E.02247
G1 X123.239 Y89.587 E2.11051
G1 X123.239 Y90.092 E.02247
G1 X89.214 Y56.067 E2.14229
G1 X88.709 Y56.067 E.02247
G1 X123.239 Y90.597 E2.17407
G1 X123.239 Y91.101 E.02247
G1 X88.204 Y56.067 E2.20585
G1 X87.699 Y56.067 E.02247
G1 X123.239 Y91.606 E2.23763
G1 X123.239 Y92.111 E.02247
G1 X87.194 Y56.067 E2.26941
G1 X86.69 Y56.067 E.02247
G1 X123.239 Y92.616 E2.30119
G1 X123.239 Y93.12 E.02247
M73 P2 R119
G1 X86.185 Y56.067 E2.33297
G1 X85.68 Y56.067 E.02247
M73 Q2 S122
G1 X123.239 Y93.625 E2.36475
G1 X123.238 Y94.13 E.02247
M73 Q2 S121
G1 X85.175 Y56.067 E2.39653
G1 X84.67 Y56.067 E.02247
G1 X123.238 Y94.635 E2.42831
G1 X123.238 Y95.139 E.02247
G1 X84.166 Y56.067 E2.46009
G1 X83.661 Y56.067 E.02247
G1 X123.238 Y95.644 E2.49187
G1 X123.238 Y96.149 E.02247
G1 X83.156 Y56.067 E2.52365
G1 X82.651 Y56.067 E.02247
G1 X123.238 Y96.654 E2.55543
G1 X123.246 Y97.167 E.02284
G1 X82.146 Y56.067 E2.58773
G1 X81.642 Y56.067 E.02247
G1 X123.31 Y97.735 E2.62349
G1 X123.379 Y98.086 E.01594
G1 X123.496 Y98.426 E.01602
G1 X81.137 Y56.067 E2.66702
G1 X80.632 Y56.067 E.02247
G1 X124.953 Y100.387 E2.7905
G1 X124.953 Y100.892 E.02247
G1 X80.127 Y56.067 E2.82228
G1 X79.622 Y56.067 E.02247
G1 X124.952 Y101.397 E2.85406
G1 X124.952 Y101.901 E.02247
G1 X79.118 Y56.067 E2.88584
G1 X78.613 Y56.067 E.02247
G1 X124.952 Y102.406 E2.91762
G1 X124.952 Y102.911 E.02247
G1 X78.108 Y56.067 E2.9494
G1 X77.603 Y56.067 E.02247
G1 X124.952 Y103.416 E2.98118
G1 X124.952 Y103.92 E.02247
G1 X77.098 Y56.067 E3.01296
G1 X76.594 Y56.067 E.02247
G1 X124.952 Y104.425 E3.04474
G1 X124.952 Y104.93 E.02247
M73 P2 R118
G1 X76.089 Y56.067 E3.07652
G1 X75.584 Y56.067 E.02247
G1 X124.952 Y105.435 E3.1083
G1 X124.952 Y105.939 E.02247
M73 Q2 S120
G1 X75.079 Y56.067 E3.14007
G1 X74.574 Y56.067 E.02247
G1 X124.51 Y106.002 E3.14402
G1 X124.005 Y106.002 E.02247
M73 P3 R118
G1 X74.07 Y56.067 E3.14402
G1 X73.565 Y56.067 E.02247
M73 Q3 S120
G1 X123.5 Y106.002 E3.14402
G1 X122.995 Y106.002 E.02247
G1 X73.06 Y56.067 E3.14402
G1 X72.555 Y56.067 E.02247
G1 X122.491 Y106.002 E3.14402
G1 X121.986 Y106.002 E.02247
G1 X72.05 Y56.067 E3.14402
G1 X71.546 Y56.067 E.02247
G1 X121.481 Y106.002 E3.14402
G1 X120.976 Y106.002 E.02247
G1 X71.041 Y56.067 E3.14402
G1 X70.536 Y56.067 E.02247
G1 X120.471 Y106.002 E3.14402
G1 X119.967 Y106.002 E.02247
G1 X70.031 Y56.067 E3.14402
G1 X69.589 Y56.067 E.01968
G1 X69.589 Y56.129 E.00279
G1 X119.462 Y106.002 E3.14008
G1 X118.957 Y106.002 E.02247
G1 X69.589 Y56.634 E3.1083
G1 X69.589 Y57.139 E.02247
G1 X118.452 Y106.002 E3.07653
G1 X117.947 Y106.002 E.02247
M73 P3 R117
G1 X69.589 Y57.643 E3.04475
G1 X69.589 Y58.148 E.02247
G1 X117.442 Y106.002 E3.01298
G1 X116.938 Y106.002 E.02247
G1 X69.588 Y58.653 E2.9812
G1 X69.588 Y59.157 E.02247
M73 Q3 S119
G1 X116.433 Y106.002 E2.94943
G1 X115.928 Y106.002 E.02247
G1 X69.588 Y59.662 E2.91765
G1 X69.588 Y60.167 E.02247
G1 X115.423 Y106.002 E2.88588
G1 X114.918 Y106.002 E.02247
G1 X69.588 Y60.671 E2.8541
G1 X69.588 Y61.176 E.02247
G1 X114.414 Y106.002 E2.82233
G1 X113.909 Y106.002 E.02247
G1 X69.428 Y61.521 E2.80062
M204 S1000
;WIPE_START
G1 F8640
M73 P4 R117
G1 X73.501 Y65.594 E-1.33
;WIPE_END
G1 E-.07 F2100
G1 Z.5 F720
G1 X70.738 Y63.337 F10800
G1 Z.3 F720
G1 E1.4 F2100
M204 S800
G1 F1200
G1 X113.404 Y106.002 E2.68631
G1 X112.899 Y106.002 E.02247
M73 Q4 S119
G1 X71.231 Y64.334 E2.62349
G1 X71.27 Y64.53 E.0089
G1 X71.295 Y64.902 E.01659
G1 X112.394 Y106.002 E2.58773
G1 X111.89 Y106.002 E.02247
G1 X71.303 Y65.415 E2.55543
G1 X71.303 Y65.92 E.02247
G1 X111.385 Y106.002 E2.52364
G1 X110.88 Y106.002 E.02247
G1 X71.303 Y66.425 E2.49186
G1 X71.303 Y66.93 E.02247
G1 X110.375 Y106.002 E2.46008
G1 X109.87 Y106.002 E.02247
G1 X71.303 Y67.434 E2.4283
G1 X71.303 Y67.939 E.02247
G1 X109.366 Y106.002 E2.39652
G1 X108.861 Y106.002 E.02247
G1 X71.303 Y68.444 E2.36474
G1 X71.303 Y68.949 E.02247
G1 X108.356 Y106.002 E2.33295
G1 X107.851 Y106.002 E.02247
M73 P4 R116
G1 X71.303 Y69.453 E2.30117
G1 X71.303 Y69.958 E.02247
G1 X107.346 Y106.002 E2.26939
G1 X106.842 Y106.002 E.02247
G1 X71.303 Y70.463 E2.23761
G1 X71.302 Y70.968 E.02247
M73 Q4 S118
G1 X106.337 Y106.002 E2.20583
G1 X105.832 Y106.002 E.02247
G1 X71.302 Y71.473 E2.17405
G1 X71.302 Y71.977 E.02247
G1 X105.327 Y106.002 E2.14226
G1 X104.822 Y106.002 E.02247
G1 X71.302 Y72.482 E2.11048
G1 X71.302 Y72.987 E.02247
G1 X104.318 Y106.002 E2.0787
G1 X103.813 Y106.002 E.02247
G1 X71.302 Y73.492 E2.04692
G1 X71.302 Y73.996 E.02247
G1 X103.308 Y106.002 E2.01514
G1 X102.803 Y106.002 E.02247
G1 X71.302 Y74.501 E1.98336
G1 X71.302 Y75.006 E.02247
G1 X102.298 Y106.002 E1.95157
G1 X101.794 Y106.002 E.02247
G1 X71.302 Y75.511 E1.91979
G1 X71.302 Y76.016 E.02247
G1 X101.289 Y106.002 E1.88801
G1 X100.784 Y106.002 E.02247
G1 X71.302 Y76.52 E1.85623
G1 X71.302 Y77.025 E.02247
G1 X100.279 Y106.002 E1.82445
G1 X99.774 Y106.002 E.02247
G1 X71.302 Y77.53 E1.79267
G1 X71.302 Y78.035 E.02247
G1 X99.27 Y106.002 E1.76088
G1 X98.765 Y106.002 E.02247
M73 P5 R116
G1 X71.302 Y78.539 E1.7291
G1 X71.302 Y79.044 E.02247
G1 X98.26 Y106.002 E1.69732
G1 X97.755 Y106.002 E.02247
G1 X71.302 Y79.549 E1.66554
G1 X71.302 Y80.054 E.02247
M73 Q5 S118
G1 X97.25 Y106.002 E1.63376
G1 X96.746 Y106.002 E.02247
G1 X71.302 Y80.559 E1.60198
G1 X71.302 Y81.063 E.02247
G1 X96.241 Y106.002 E1.57019
G1 X95.736 Y106.002 E.02247
G1 X71.302 Y81.568 E1.53841
G1 X71.302 Y82.073 E.02247
G1 X95.231 Y106.002 E1.50663
G1 X94.726 Y106.002 E.02247
G1 X71.302 Y82.578 E1.47485
G1 X71.302 Y83.082 E.02247
M73 P5 R115
G1 X94.222 Y106.002 E1.44307
G1 X93.717 Y106.002 E.02247
G1 X71.302 Y83.587 E1.41129
G1 X71.302 Y84.092 E.02247
G1 X93.212 Y106.002 E1.3795
G1 X92.707 Y106.002 E.02247
G1 X71.302 Y84.597 E1.34772
G1 X71.302 Y85.102 E.02247
G1 X92.202 Y106.002 E1.31594
G1 X91.698 Y106.002 E.02247
M73 Q5 S117
G1 X71.302 Y85.606 E1.28416
G1 X71.302 Y86.111 E.02247
G1 X91.193 Y106.002 E1.25238
G1 X90.688 Y106.002 E.02247
G1 X71.302 Y86.616 E1.22059
G1 X71.302 Y87.121 E.02247
G1 X90.183 Y106.002 E1.18881
G1 X89.678 Y106.002 E.02247
G1 X71.302 Y87.625 E1.15703
G1 X71.302 Y88.13 E.02247
G1 X89.173 Y106.002 E1.12525
G1 X88.669 Y106.002 E.02247
G1 X71.302 Y88.635 E1.09347
G1 X71.302 Y89.14 E.02247
G1 X88.164 Y106.002 E1.06169
G1 X87.659 Y106.002 E.02247
G1 X71.301 Y89.645 E1.0299
G1 X71.301 Y90.149 E.02247
G1 X87.154 Y106.002 E.99812
G1 X86.649 Y106.002 E.02247
G1 X71.301 Y90.654 E.96634
G1 X71.301 Y91.159 E.02247
G1 X86.145 Y106.002 E.93456
G1 X85.64 Y106.002 E.02247
G1 X71.301 Y91.664 E.90278
G1 X71.301 Y92.168 E.02247
G1 X85.135 Y106.002 E.871
G1 X84.63 Y106.002 E.02247
G1 X71.301 Y92.673 E.83921
G1 X71.301 Y93.178 E.02247
G1 X84.125 Y106.002 E.80743
G1 X83.621 Y106.002 E.02247
G1 X71.301 Y93.683 E.77565
G1 X71.301 Y94.187 E.02247
G1 X83.116 Y106.002 E.74387
G1 X82.611 Y106.002 E.02247
G1 X71.301 Y94.692 E.71209
G1 X71.301 Y95.197 E.02247
G1 X82.106 Y106.002 E.68031
G1 X81.601 Y106.002 E.02247
G1 X71.301 Y95.702 E.64852
G1 X71.301 Y96.207 E.02247
G1 X81.097 Y106.002 E.61674
G1 X80.592 Y106.002 E.02247
G1 X71.301 Y96.711 E.58496
G1 X71.295 Y97.21 E.02221
G1 X80.087 Y106.002 E.55355
