; generated by PrusaSlicer 2.4.2 on 2022-09-09 at 15:54:17 UTC

; 

; external perimeters extrusion width = 0.60mm
; perimeters extrusion width = 0.50mm
; infill extrusion width = 0.50mm
; solid infill extrusion width = 0.50mm
; top infill extrusion width = 0.45mm
; first layer extrusion width = 0.42mm

M73 P0 R56
M73 Q0 S56
M201 X1000 Y1000 Z200 E5000 ; sets maximum accelerations, mm/sec^2
M203 X200 Y200 Z12 E120 ; sets maximum feedrates, mm / sec
M204 P1250 R1250 T1250 ; sets acceleration (P, T) and retract acceleration (R), mm/sec^2
M205 X8.00 Y8.00 Z0.40 E4.50 ; sets the jerk limits, mm/sec
M205 S0 T0 ; sets the minimum extruding and travel feed rate, mm/sec
M107
;TYPE:Custom
M862.3 P "MK3S" ; printer model check
M862.1 P0.4 ; nozzle diameter check
M115 U3.10.1 ; tell printer latest fw version
G90 ; use absolute coordinates
M83 ; extruder relative mode
M104 S240 ; set extruder temp
M140 S95 ; set bed temp
M190 S95 ; wait for bed temp
M109 S240 ; wait for extruder temp
G28 W ; home all without mesh bed level
G80 ; mesh bed leveling
G1 Z0.2 F720
G1 Y-3 F1000 ; go outside print area
G92 E0
G1 X60 E9 F1000 ; intro line
G1 X100 E12.5 F1000 ; intro line
G92 E0
M221 S95

; Don't change E values below. Excessive value can damage the printer.

M907 E538 ; set extruder motor current
G21 ; set units to millimeters
G90 ; use absolute coordinates
M83 ; use relative distances for extrusion
M900 K0.08 ; Filament gcode LA 1.5
M900 K45 ; Filament gcode LA 1.0
M107
;LAYER_CHANGE
;Z:0.3
;HEIGHT:0.3
;BEFORE_LAYER_CHANGE
G92 E0.0
;0.3


G1 E-1.4 F2100
M73 P0 R55
G1 Z.2 F720
G1 Z.3
;AFTER_LAYER_CHANGE
;0.3
G1 Z.5
G1 X96.036 Y70.716 F10800
G1 Z.3 F720
G1 E1.4 F2100
M204 S800
;TYPE:Skirt/Brim
;WIDTH:0.42
G1 F1200
G1 X97.08 Y69.848 E.06024
G1 X98 Y69.661 E.04163
G1 X152 Y69.661 E2.39516
G1 X153.3 Y70.052 E.06024
G1 X154.169 Y71.097 E.06024
G1 X154.356 Y72.016 E.04163
G1 X154.356 Y137.984 E2.92596
G1 X153.964 Y139.284 E.06024
G1 X152.92 Y140.152 E.06024
G1 X152 Y140.339 E.04163
G1 X98 Y140.339 E2.39516
G1 X96.7 Y139.948 E.06024
G1 X95.831 Y138.903 E.06024
G1 X95.644 Y137.984 E.04163
G1 X95.644 Y72.016 E2.92596
G1 X96.019 Y70.773 E.05758
M204 S1000
; printing object 4R_knee-BodyFillet001.stl id:0 copy 0
;WIPE_START
G1 F8640
G1 X97.08 Y69.848 E-.32524
G1 X98 Y69.661 E-.21671
G1 X101.413 Y69.661 E-.78805
;WIPE_END
G1 E-.07 F2100
G1 Z.5 F720
G1 X98.766 Y73.832 F10800
G1 Z.3 F720
G1 E1.4 F2100
M204 S800
;TYPE:Perimeter
G1 F1200
G1 X99.234 Y73.832 E.02079
G1 X99.234 Y85.766 E.52933
G1 X150.766 Y85.766 E2.28566
G1 X150.766 Y73.832 E.52933
G1 X151.234 Y73.832 E.02079
G1 X151.234 Y136.168 E2.76493
G1 X150.766 Y136.168 E.02079
G1 X150.766 Y124.234 E.52933
G1 X99.234 Y124.234 E2.28566
G1 X99.234 Y136.168 E.52933
G1 X98.766 Y136.168 E.02079
G1 X98.766 Y73.892 E2.76226
M204 S1000
G1 X98.41 Y73.476 F10800
M204 S800
;TYPE:External perimeter
M73 P1 R55
M73 Q1 S56
G1 F1200
G1 X99.59 Y73.476 E.05234
G1 X99.59 Y85.41 E.52933
G1 X150.41 Y85.41 E2.25411
G1 X150.41 Y73.476 E.52933
G1 X151.59 Y73.476 E.05234
G1 X151.59 Y136.524 E2.79647
G1 X150.41 Y136.524 E.05234
G1 X150.41 Y124.59 E.52933
G1 X99.59 Y124.59 E2.25411
G1 X99.59 Y136.524 E.52933
G1 X98.41 Y136.524 E.05234
G1 X98.41 Y73.536 E2.79381
M204 S1000
G1 X98.758 Y73.674 F10800
G1 X99 Y74.01
M204 S800
;TYPE:Gap fill
;WIDTH:0.177525
G1 F1200
G1 X99 Y85.943 E.16841
M204 S1000
;WIPE_START
G1 F8640
G1 X99 Y80.183 E-1.33
;WIPE_END
G1 E-.07 F2100
G1 Z.5 F720
G1 X99 Y124.057 F10800
G1 Z.3 F720
G1 E1.4 F2100
M204 S800
G1 F1200
G1 X99 Y135.99 E.16841
M204 S1000
;WIPE_START
G1 F8640
G1 X99 Y130.23 E-1.33
;WIPE_END
G1 E-.07 F2100
G1 Z.5 F720
G1 X151 Y135.99 F10800
G1 Z.3 F720
G1 E1.4 F2100
M204 S800
G1 F1200
G1 X151 Y124.057 E.16841
M204 S1000
;WIPE_START
G1 F8640
G1 X151 Y129.817 E-1.33
;WIPE_END
G1 E-.07 F2100
G1 Z.5 F720
G1 X151.128 Y86.771 F10800
G1 Z.3 F720
G1 E1.4 F2100
M204 S800
;TYPE:Solid infill
;WIDTH:0.420803
G1 F1200
G1 X150.389 Y86.032 E.04642
G1 X149.885 Y86.032 E.02241
G1 X150.968 Y87.115 E.06805
G1 X150.968 Y87.619 E.02241
G1 X149.381 Y86.032 E.09974
G1 X148.877 Y86.032 E.02241
G1 X150.968 Y88.123 E.13143
G1 X150.968 Y88.627 E.02241
G1 X148.373 Y86.032 E.16312
G1 X147.869 Y86.032 E.02241
G1 X150.968 Y89.131 E.19481
G1 X150.968 Y89.635 E.02241
G1 X147.365 Y86.032 E.2265
G1 X146.861 Y86.032 E.02241
G1 X150.968 Y90.139 E.25819
G1 X150.968 Y90.643 E.02241
M73 Q1 S55
G1 X146.357 Y86.032 E.28987
G1 X145.853 Y86.032 E.02241
G1 X150.968 Y91.147 E.32156
G1 X150.968 Y91.651 E.02241
G1 X145.349 Y86.032 E.35325
G1 X144.845 Y86.032 E.02241
G1 X150.968 Y92.155 E.38494
G1 X150.968 Y92.659 E.02241
G1 X144.341 Y86.032 E.41663
G1 X143.837 Y86.032 E.02241
G1 X150.968 Y93.163 E.44832
G1 X150.968 Y93.667 E.02241
G1 X143.333 Y86.032 E.48001
G1 X142.828 Y86.032 E.02241
G1 X150.968 Y94.172 E.5117
G1 X150.968 Y94.676 E.02241
G1 X142.324 Y86.032 E.54339
G1 X141.82 Y86.032 E.02241
G1 X150.968 Y95.18 E.57508
G1 X150.968 Y95.684 E.02241
G1 X141.316 Y86.032 E.60677
G1 X140.812 Y86.032 E.02241
G1 X150.968 Y96.188 E.63846
G1 X150.968 Y96.692 E.02241
G1 X140.308 Y86.032 E.67015
G1 X139.804 Y86.032 E.02241
G1 X150.968 Y97.196 E.70184
G1 X150.968 Y97.7 E.02241
G1 X139.3 Y86.032 E.73353
G1 X138.796 Y86.032 E.02241
G1 X150.968 Y98.204 E.76522
G1 X150.968 Y98.708 E.02241
G1 X138.292 Y86.032 E.79691
G1 X137.788 Y86.032 E.02241
G1 X150.968 Y99.212 E.82859
G1 X150.968 Y99.716 E.02241
M73 P1 R54
G1 X137.284 Y86.032 E.86028
G1 X136.78 Y86.032 E.02241
G1 X150.968 Y100.22 E.89197
G1 X150.968 Y100.724 E.02241
M73 P2 R54
M73 Q2 S55
G1 X136.276 Y86.032 E.92366
G1 X135.772 Y86.032 E.02241
G1 X150.968 Y101.228 E.95535
G1 X150.968 Y101.732 E.02241
G1 X135.268 Y86.032 E.98704
G1 X134.764 Y86.032 E.02241
G1 X150.968 Y102.236 E1.01873
G1 X150.968 Y102.74 E.02241
G1 X134.26 Y86.032 E1.05042
G1 X133.755 Y86.032 E.02241
G1 X150.968 Y103.245 E1.08211
G1 X150.968 Y103.749 E.02241
G1 X133.251 Y86.032 E1.1138
G1 X132.747 Y86.032 E.02241
G1 X150.968 Y104.253 E1.14549
G1 X150.968 Y104.757 E.02241
G1 X132.243 Y86.032 E1.17718
G1 X131.739 Y86.032 E.02241
G1 X150.968 Y105.261 E1.20887
G1 X150.968 Y105.765 E.02241
G1 X131.235 Y86.032 E1.24056
G1 X130.731 Y86.032 E.02241
G1 X150.968 Y106.269 E1.27225
G1 X150.968 Y106.773 E.02241
G1 X130.227 Y86.032 E1.30394
G1 X129.723 Y86.032 E.02241
G1 X150.968 Y107.277 E1.33563
G1 X150.968 Y107.781 E.02241
G1 X129.219 Y86.032 E1.36732
G1 X128.715 Y86.032 E.02241
G1 X150.968 Y108.285 E1.399
G1 X150.968 Y108.789 E.02241
G1 X128.211 Y86.032 E1.43069
G1 X127.707 Y86.032 E.02241
G1 X150.968 Y109.293 E1.46238
G1 X150.968 Y109.797 E.02241
G1 X127.203 Y86.032 E1.49407
G1 X126.699 Y86.032 E.02241
G1 X150.968 Y110.301 E1.52576
G1 X150.968 Y110.805 E.02241
G1 X126.195 Y86.032 E1.55745
G1 X125.691 Y86.032 E.02241
G1 X150.968 Y111.309 E1.58914
G1 X150.968 Y111.814 E.02241
G1 X125.187 Y86.032 E1.62083
G1 X124.682 Y86.032 E.02241
M73 P3 R54
M73 Q3 S55
G1 X150.968 Y112.318 E1.65252
G1 X150.968 Y112.822 E.02241
G1 X124.178 Y86.032 E1.68421
G1 X123.674 Y86.032 E.02241
G1 X150.968 Y113.326 E1.7159
G1 X150.968 Y113.83 E.02241
G1 X123.17 Y86.032 E1.74759
G1 X122.666 Y86.032 E.02241
G1 X150.968 Y114.334 E1.77928
G1 X150.968 Y114.838 E.02241
G1 X122.162 Y86.032 E1.81097
G1 X121.658 Y86.032 E.02241
G1 X150.968 Y115.342 E1.84266
G1 X150.968 Y115.846 E.02241
M73 Q3 S54
G1 X121.154 Y86.032 E1.87435
G1 X120.65 Y86.032 E.02241
G1 X150.968 Y116.35 E1.90604
G1 X150.968 Y116.854 E.02241
G1 X120.146 Y86.032 E1.93772
G1 X119.642 Y86.032 E.02241
G1 X150.968 Y117.358 E1.96941
G1 X150.968 Y117.862 E.02241
G1 X119.138 Y86.032 E2.0011
G1 X118.634 Y86.032 E.02241
M73 P3 R53
G1 X150.968 Y118.366 E2.03279
G1 X150.968 Y118.87 E.02241
G1 X118.13 Y86.032 E2.06448
G1 X117.626 Y86.032 E.02241
G1 X150.968 Y119.374 E2.09617
G1 X150.968 Y119.878 E.02241
G1 X117.122 Y86.032 E2.12786
G1 X116.618 Y86.032 E.02241
M73 P4 R53
M73 Q4 S54
G1 X150.968 Y120.382 E2.15955
G1 X150.968 Y120.887 E.02241
G1 X116.113 Y86.032 E2.19124
G1 X115.609 Y86.032 E.02241
G1 X150.968 Y121.391 E2.22293
G1 X150.968 Y121.895 E.02241
G1 X115.105 Y86.032 E2.25462
G1 X114.601 Y86.032 E.02241
G1 X150.968 Y122.399 E2.28631
G1 X150.968 Y122.903 E.02241
G1 X114.097 Y86.032 E2.318
G1 X113.593 Y86.032 E.02241
G1 X150.968 Y123.407 E2.34969
G1 X150.968 Y123.79 E.01703
G1 X150.847 Y123.79 E.00538
G1 X113.089 Y86.032 E2.37377
G1 X112.585 Y86.032 E.02241
G1 X150.52 Y123.968 E2.38495
G1 X150.016 Y123.968 E.02241
G1 X112.081 Y86.032 E2.38495
G1 X111.577 Y86.032 E.02241
G1 X149.512 Y123.968 E2.38495
G1 X149.008 Y123.968 E.02241
G1 X111.073 Y86.032 E2.38495
G1 X110.569 Y86.032 E.02241
G1 X148.504 Y123.968 E2.38495
G1 X148 Y123.968 E.02241
M73 P5 R53
M73 Q5 S54
G1 X110.065 Y86.032 E2.38495
G1 X109.561 Y86.032 E.02241
G1 X147.496 Y123.968 E2.38495
G1 X146.992 Y123.968 E.02241
M73 Q5 S53
G1 X109.057 Y86.032 E2.38495
G1 X108.553 Y86.032 E.02241
G1 X146.488 Y123.968 E2.38495
G1 X145.984 Y123.968 E.02241
G1 X108.049 Y86.032 E2.38495
G1 X107.545 Y86.032 E.02241
G1 X145.48 Y123.968 E2.38495
G1 X144.976 Y123.968 E.02241
M73 P5 R52
G1 X107.04 Y86.032 E2.38495
G1 X106.536 Y86.032 E.02241
G1 X144.472 Y123.968 E2.38495
G1 X143.968 Y123.968 E.02241
G1 X106.032 Y86.032 E2.38495
G1 X105.528 Y86.032 E.02241
G1 X143.464 Y123.968 E2.38495
G1 X142.96 Y123.968 E.02241
G1 X105.024 Y86.032 E2.38495
G1 X104.52 Y86.032 E.02241
G1 X142.456 Y123.968 E2.38495
G1 X141.951 Y123.968 E.02241
M73 P6 R52
G1 X104.016 Y86.032 E2.38495
G1 X103.512 Y86.032 E.02241
M73 Q6 S53
G1 X141.447 Y123.968 E2.38495
G1 X140.943 Y123.968 E.02241
G1 X103.008 Y86.032 E2.38495
G1 X102.504 Y86.032 E.02241
G1 X140.439 Y123.968 E2.38495
G1 X139.935 Y123.968 E.02241
G1 X102 Y86.032 E2.38495
G1 X101.496 Y86.032 E.02241
G1 X139.431 Y123.968 E2.38495
G1 X138.927 Y123.968 E.02241
G1 X100.992 Y86.032 E2.38495
G1 X100.488 Y86.032 E.02241
G1 X138.423 Y123.968 E2.38495
G1 X137.919 Y123.968 E.02241
G1 X99.984 Y86.032 E2.38495
G1 X99.48 Y86.032 E.02241
G1 X137.415 Y123.968 E2.38495
G1 X136.911 Y123.968 E.02241
G1 X99.153 Y86.21 E2.37377
G1 X99.032 Y86.21 E.00538
G1 X99.032 Y86.593 E.01703
G1 X136.407 Y123.968 E2.34969
G1 X135.903 Y123.968 E.02241
M73 P7 R52
M73 Q6 S52
G1 X99.032 Y87.097 E2.318
G1 X99.032 Y87.601 E.02241
M73 Q7 S52
G1 X135.399 Y123.968 E2.28631
G1 X134.895 Y123.968 E.02241
G1 X99.032 Y88.105 E2.25462
G1 X99.032 Y88.609 E.02241
G1 X134.391 Y123.968 E2.22293
G1 X133.887 Y123.968 E.02241
M73 P7 R51
G1 X99.032 Y89.113 E2.19124
G1 X99.032 Y89.617 E.02241
G1 X133.383 Y123.968 E2.15955
G1 X132.878 Y123.968 E.02241
G1 X99.032 Y90.122 E2.12786
G1 X99.032 Y90.626 E.02241
G1 X132.374 Y123.968 E2.09617
G1 X131.87 Y123.968 E.02241
G1 X99.032 Y91.13 E2.06448
G1 X99.032 Y91.634 E.02241
G1 X131.366 Y123.968 E2.0328
G1 X130.862 Y123.968 E.02241
G1 X99.032 Y92.138 E2.00111
G1 X99.032 Y92.642 E.02241
G1 X130.358 Y123.968 E1.96942
G1 X129.854 Y123.968 E.02241
G1 X99.032 Y93.146 E1.93773
G1 X99.032 Y93.65 E.02241
G1 X129.35 Y123.968 E1.90604
G1 X128.846 Y123.968 E.02241
M73 P8 R51
G1 X99.032 Y94.154 E1.87435
G1 X99.032 Y94.658 E.02241
G1 X128.342 Y123.968 E1.84266
G1 X127.838 Y123.968 E.02241
M73 Q8 S52
G1 X99.032 Y95.162 E1.81097
G1 X99.032 Y95.666 E.02241
G1 X127.334 Y123.968 E1.77928
G1 X126.83 Y123.968 E.02241
G1 X99.032 Y96.17 E1.74759
G1 X99.032 Y96.674 E.02241
G1 X126.326 Y123.968 E1.7159
G1 X125.822 Y123.968 E.02241
G1 X99.032 Y97.178 E1.68421
G1 X99.032 Y97.682 E.02241
G1 X125.318 Y123.968 E1.65252
G1 X124.814 Y123.968 E.02241
G1 X99.032 Y98.186 E1.62083
G1 X99.032 Y98.691 E.02241
G1 X124.309 Y123.968 E1.58914
G1 X123.805 Y123.968 E.02241
G1 X99.032 Y99.195 E1.55745
G1 X99.032 Y99.699 E.02241
G1 X123.301 Y123.968 E1.52576
G1 X122.797 Y123.968 E.02241
G1 X99.032 Y100.203 E1.49408
G1 X99.032 Y100.707 E.02241
M73 Q8 S51
G1 X122.293 Y123.968 E1.46239
G1 X121.789 Y123.968 E.02241
G1 X99.032 Y101.211 E1.4307
G1 X99.032 Y101.715 E.02241
G1 X121.285 Y123.968 E1.39901
G1 X120.781 Y123.968 E.02241
G1 X99.032 Y102.219 E1.36732
G1 X99.032 Y102.723 E.02241
G1 X120.277 Y123.968 E1.33563
G1 X119.773 Y123.968 E.02241
M73 P9 R51
G1 X99.032 Y103.227 E1.30394
G1 X99.032 Y103.731 E.02241
G1 X119.269 Y123.968 E1.27225
G1 X118.765 Y123.968 E.02241
M73 P9 R50
G1 X99.032 Y104.235 E1.24056
G1 X99.032 Y104.739 E.02241
M73 Q9 S51
G1 X118.261 Y123.968 E1.20887
G1 X117.757 Y123.968 E.02241
G1 X99.032 Y105.243 E1.17718
G1 X99.032 Y105.747 E.02241
G1 X117.253 Y123.968 E1.14549
G1 X116.749 Y123.968 E.02241
G1 X99.032 Y106.251 E1.1138
G1 X99.032 Y106.755 E.02241
G1 X116.245 Y123.968 E1.08211
G1 X115.741 Y123.968 E.02241
G1 X99.032 Y107.259 E1.05042
G1 X99.032 Y107.764 E.02241
G1 X115.236 Y123.968 E1.01873
G1 X114.732 Y123.968 E.02241
G1 X99.032 Y108.268 E.98704
G1 X99.032 Y108.772 E.02241
G1 X114.228 Y123.968 E.95536
G1 X113.724 Y123.968 E.02241
G1 X99.032 Y109.276 E.92367
G1 X99.032 Y109.78 E.02241
G1 X113.22 Y123.968 E.89198
G1 X112.716 Y123.968 E.02241
G1 X99.032 Y110.284 E.86029
G1 X99.032 Y110.788 E.02241
G1 X112.212 Y123.968 E.8286
G1 X111.708 Y123.968 E.02241
G1 X99.032 Y111.292 E.79691
G1 X99.032 Y111.796 E.02241
G1 X111.204 Y123.968 E.76522
G1 X110.7 Y123.968 E.02241
G1 X99.032 Y112.3 E.73353
G1 X99.032 Y112.804 E.02241
G1 X110.196 Y123.968 E.70184
G1 X109.692 Y123.968 E.02241
G1 X99.032 Y113.308 E.67015
G1 X99.032 Y113.812 E.02241
G1 X109.188 Y123.968 E.63846
G1 X108.684 Y123.968 E.02241
G1 X99.032 Y114.316 E.60677
G1 X99.032 Y114.82 E.02241
G1 X108.18 Y123.968 E.57508
G1 X107.676 Y123.968 E.02241
G1 X99.032 Y115.324 E.54339
G1 X99.032 Y115.828 E.02241
G1 X107.172 Y123.968 E.5117
G1 X106.667 Y123.968 E.02241
G1 X99.032 Y116.333 E.48001
G1 X99.032 Y116.837 E.02241
G1 X106.163 Y123.968 E.44832
G1 X105.659 Y123.968 E.02241
G1 X99.032 Y117.341 E.41663
G1 X99.032 Y117.845 E.02241
G1 X105.155 Y123.968 E.38495
G1 X104.651 Y123.968 E.02241
G1 X99.032 Y118.349 E.35326
G1 X99.032 Y118.853 E.02241
G1 X104.147 Y123.968 E.32157
G1 X103.643 Y123.968 E.02241
G1 X99.032 Y119.357 E.28988
G1 X99.032 Y119.861 E.02241
G1 X103.139 Y123.968 E.25819
G1 X102.635 Y123.968 E.02241
G1 X99.032 Y120.365 E.2265
G1 X99.032 Y120.869 E.02241
G1 X102.131 Y123.968 E.19481
G1 X101.627 Y123.968 E.02241
G1 X99.032 Y121.373 E.16312
G1 X99.032 Y121.877 E.02241
G1 X101.123 Y123.968 E.13143
G1 X100.619 Y123.968 E.02241
G1 X99.032 Y122.381 E.09974
G1 X99.032 Y122.885 E.02241
G1 X100.115 Y123.968 E.06805
G1 X99.611 Y123.968 E.02241
G1 X98.872 Y123.229 E.04642
M204 S1000
;WIPE_START
G1 F8640
G1 X99.611 Y123.968 E-.24112
G1 X100.115 Y123.968 E-.11639
G1 X99.032 Y122.885 E-.35346
G1 X99.032 Y122.381 E-.11639
G1 X100.572 Y123.92 E-.50264
;WIPE_END
G1 E-.07 F2100
G1 Z.5 F720
G1 X151 Y85.943 F10800
G1 Z.3 F720
G1 E1.4 F2100
M204 S800
;TYPE:Gap fill
;WIDTH:0.177525
M73 P10 R50
G1 F1200
G1 X151 Y74.01 E.16841
M204 S1000
; stop printing object 4R_knee-BodyFillet001.stl id:0 copy 0
;LAYER_CHANGE
;Z:0.6
;HEIGHT:0.3
;BEFORE_LAYER_CHANGE
G92 E0.0
;0.6


;WIPE_START
G1 F8640
G1 X151 Y79.77 E-1.33
;WIPE_END
G1 E-.07 F2100
G1 Z.5 F720
G1 Z.6
;AFTER_LAYER_CHANGE
;0.6
M140 S90 ; set bed temperature
G1 Z.8
G1 X154.356 Y79.77 F10800
G1 Z.6 F720
G1 E1.4 F2100
;TYPE:Skirt/Brim
;WIDTH:0.42
G1 F2700
G1 X154.356 Y137.984 E2.58207
G1 X153.964 Y139.284 E.06024
G1 X152.92 Y140.152 E.06024
G1 X152 Y140.339 E.04163
G1 X98 Y140.339 E2.39516
G1 X96.7 Y139.948 E.06024
G1 X95.831 Y138.903 E.06024
G1 X95.644 Y137.984 E.04163
G1 X95.644 Y72.016 E2.92596
G1 X96.036 Y70.716 E.06024
M73 Q10 S51
G1 X97.08 Y69.848 E.06024
G1 X98 Y69.661 E.04163
G1 X152 Y69.661 E2.39516
G1 X153.3 Y70.052 E.06024
G1 X154.169 Y71.097 E.06024
G1 X154.356 Y72.016 E.04163
G1 X154.356 Y79.71 E.34123
; printing object 4R_knee-BodyFillet001.stl id:0 copy 0
;WIPE_START
G1 F8640
G1 X154.356 Y85.47 E-1.33
;WIPE_END
G1 E-.07 F2100
G1 Z.8 F720
G1 X150.786 Y124.214 F10800
G1 Z.6 F720
G1 E1.4 F2100
M204 S800
;TYPE:Perimeter
;WIDTH:0.5
G1 F3000
G1 X99.214 Y124.214 E2.80201
G1 X99.214 Y136.793 E.68344
G1 X98.786 Y136.793 E.0233
G1 X98.786 Y73.207 E3.45482
G1 X99.214 Y73.207 E.0233
G1 X99.214 Y85.786 E.68344
G1 X150.786 Y85.786 E2.80201
G1 X150.786 Y73.207 E.68344
G1 X151.214 Y73.207 E.0233
