; generated by PrusaSlicer 2.7.1 on 2023-12-25 at 17:17:06 UTC


;
;
; 

; external perimeters extrusion width = 0.60mm
; perimeters extrusion width = 0.50mm
; infill extrusion width = 0.50mm
; solid infill extrusion width = 0.50mm
; top infill extrusion width = 0.45mm
; first layer extrusion width = 0.42mm

M73 P0 R146
M73 Q0 S147
M201 X1000 Y1000 Z200 E5000 ; sets maximum accelerations, mm/sec^2
M203 X200 Y200 Z12 E120 ; sets maximum feedrates, mm / sec
M204 S1250 T1250 ; sets acceleration (S) and retract acceleration (R), mm/sec^2
M205 X8.00 Y8.00 Z0.40 E4.50 ; sets the jerk limits, mm/sec
M205 S0 T0 ; sets the minimum extruding and travel feed rate, mm/sec

; printing object 3FU_shin-Body.stl id:0 copy 0
; stop printing object 3FU_shin-Body.stl id:0 copy 0
; printing object 3FU_shin-Body.stl id:0 copy 1
; stop printing object 3FU_shin-Body.stl id:0 copy 1
; printing object 3FU_shin-Body.stl id:0 copy 2
; stop printing object 3FU_shin-Body.stl id:0 copy 2
; printing object 3FU_shin-Body.stl id:0 copy 3
; stop printing object 3FU_shin-Body.stl id:0 copy 3

;TYPE:Custom
M862.3 P "MK3S" ; printer model check
M862.1 P0.4 ; nozzle diameter check
M115 U3.12.2 ; tell printer latest fw version
G90 ; use absolute coordinates
M83 ; extruder relative mode
M104 S240 ; set extruder temp
M140 S95 ; set bed temp
M190 S95 ; wait for bed temp
M109 S240 ; wait for extruder temp
G28 W ; home all without mesh bed level
G80 ; mesh bed leveling

G1 Z0.2 F720
G1 Y-3 F1000 ; go outside print area
G92 E0
G1 X60 E9 F1000 ; intro line
G1 X100 E12.5 F1000 ; intro line

G92 E0
M221 S95

; Don't change E values below. Excessive value can damage the printer.

M907 E538 ; set extruder motor current
G21 ; set units to millimeters
G90 ; use absolute coordinates
M83 ; use relative distances for extrusion
M900 K0.08 ; Filament gcode LA 1.5
M900 K45 ; Filament gcode LA 1.0
M107 ; disable fan
;LAYER_CHANGE
;Z:0.3
;HEIGHT:0.3
;BEFORE_LAYER_CHANGE
G92 E0.0
;0.3


G1 E-1.4 F2100 ; retract
G1 Z.3 F720 ; move to next layer (0)
;AFTER_LAYER_CHANGE
;0.3
G1 X47.405 Y43.7 F10800 ; move to print after unknown position
G1 Z.3 F720 ; move to print after unknown position
G1 E1.4 F2100 ;  ; unretract
M204 S800 ; adjust acceleration
;TYPE:Skirt/Brim
;WIDTH:0.42
G1 F1200
G1 X48.449 Y42.831 E.06025 ; skirt
G1 X49.369 Y42.644 E.04164 ; skirt
G1 X200.631 Y42.644 E6.7092 ; skirt
G1 X201.932 Y43.036 E.06027 ; skirt
G1 X202.8 Y44.08 E.06022 ; skirt
G1 X202.987 Y45 E.04164 ; skirt
G1 X202.987 Y165 E5.32258 ; skirt
G1 X202.595 Y166.3 E.06023 ; skirt
G1 X201.551 Y167.169 E.06025 ; skirt
G1 X200.631 Y167.356 E.04164 ; skirt
G1 X49.369 Y167.356 E6.7092 ; skirt
G1 X48.068 Y166.964 E.06027 ; skirt
G1 X47.2 Y165.92 E.06022 ; skirt
G1 X47.013 Y165 E.04164 ; skirt
G1 X47.013 Y45 E5.32258 ; skirt
G1 X47.387 Y43.757 E.05757 ; skirt
M204 S1000 ; adjust acceleration
; printing object 3FU_shin-Body.stl id:0 copy 3
;WIPE_START
G1 F8640
G1 X47.405 Y43.7 E-.0138 ; wipe and retract
G1 X48.449 Y42.831 E-.31365 ; wipe and retract
G1 X49.369 Y42.644 E-.21677 ; wipe and retract
G1 X53.075 Y42.644 E-.85578 ; wipe and retract
;WIPE_END
G1 Z.5 F720 ; move to first perimeter point
G1 X51.582 Y45.794 F10800 ; move to first perimeter point
G1 Z.3 F720 ; move to first perimeter point
G1 E1.4 F2100 ;  ; unretract
M204 S800 ; adjust acceleration
;TYPE:Perimeter
;WIDTH:0.476572
G1 F1200
G1 X59.734 Y45.794 E.4191 ; perimeter
G1 X60.118 Y45.78 E.01975 ; perimeter
;WIDTH:0.448286
G1 X60.502 Y45.766 E.0184 ; perimeter
;WIDTH:0.42
G1 X108.502 Y45.766 E2.12903 ; perimeter
;WIDTH:0.448286
G1 X108.885 Y45.78 E.01835 ; perimeter
;WIDTH:0.476572
G1 X109.269 Y45.794 E.01975 ; perimeter
G1 X117.421 Y45.794 E.4191 ; perimeter
G1 X117.421 Y46.206 E.02118 ; perimeter
G1 X109.269 Y46.206 E.4191 ; perimeter
;WIDTH:0.48239
G1 X109.172 Y46.212 E.00507 ; perimeter
G1 X109.007 Y46.33 E.01058 ; perimeter
;WIDTH:0.451195
G1 X108.843 Y46.448 E.00975 ; perimeter
;WIDTH:0.42
G1 X108.736 Y46.768 E.01497 ; perimeter
G1 X108.736 Y100.232 E2.37138 ; perimeter
G1 X108.843 Y100.552 E.01497 ; perimeter
;WIDTH:0.448286
G1 X109.056 Y100.673 E.01173 ; perimeter
;WIDTH:0.476572
G1 X109.269 Y100.794 E.01259 ; perimeter
G1 X117.421 Y100.794 E.4191 ; perimeter
G1 X117.421 Y101 E.01059 ; perimeter
G1 X117.421 Y101.206 E.01059 ; perimeter
G1 X109.269 Y101.206 E.4191 ; perimeter
G1 X108.885 Y101.22 E.01975 ; perimeter
;WIDTH:0.448286
G1 X108.502 Y101.234 E.01835 ; perimeter
;WIDTH:0.42
G1 X60.502 Y101.234 E2.12903 ; perimeter
;WIDTH:0.448286
G1 X60.118 Y101.22 E.0184 ; perimeter
M73 P0 R145
;WIDTH:0.476572
G1 X59.734 Y101.206 E.01975 ; perimeter
G1 X51.582 Y101.206 E.4191 ; perimeter
G1 X51.582 Y100.794 E.02118 ; perimeter
G1 X59.734 Y100.794 E.4191 ; perimeter
;WIDTH:0.48239
G1 X59.831 Y100.788 E.00507 ; perimeter
G1 X59.996 Y100.67 E.01058 ; perimeter
;WIDTH:0.451195
G1 X60.16 Y100.552 E.00975 ; perimeter
;WIDTH:0.42
G1 X60.267 Y100.232 E.01497 ; perimeter
G1 X60.267 Y46.768 E2.37138 ; perimeter
G1 X60.16 Y46.448 E.01497 ; perimeter
;WIDTH:0.448286
G1 X59.947 Y46.327 E.01173 ; perimeter
;WIDTH:0.476572
G1 X59.734 Y46.206 E.01259 ; perimeter
G1 X51.582 Y46.206 E.4191 ; perimeter
G1 X51.582 Y45.854 E.0181 ; perimeter
M204 S1000 ; adjust acceleration
;WIPE_START
G1 F8640
G1 X51.582 Y45.794 E-.01385 ; wipe and retract
G1 X57.585 Y45.794 E-1.38615 ; wipe and retract
;WIPE_END
G1 Z.5 F720 ; move to first perimeter point
G1 X59.734 Y46.59 F10800 ; move to first perimeter point
G1 Z.3 F720 ; move to first perimeter point
G1 E1.4 F2100 ;  ; unretract
M204 S800 ; adjust acceleration
;TYPE:External perimeter
;WIDTH:0.42
G1 F1200
G1 X51.198 Y46.59 E.37861 ; perimeter
G1 X51.198 Y45.41 E.05234 ; perimeter
G1 X117.805 Y45.41 E2.95434 ; perimeter
G1 X117.805 Y46.59 E.05234 ; perimeter
G1 X109.269 Y46.59 E.37861 ; perimeter
G1 X109.127 Y46.661 E.00704 ; perimeter
G1 X109.092 Y46.768 E.00499 ; perimeter
G1 X109.092 Y100.232 E2.37138 ; perimeter
G1 X109.127 Y100.339 E.00499 ; perimeter
G1 X109.269 Y100.41 E.00704 ; perimeter
G1 X117.805 Y100.41 E.37861 ; perimeter
G1 X117.805 Y101 E.02617 ; perimeter
G1 X117.805 Y101.59 E.02617 ; perimeter
G1 X51.198 Y101.59 E2.95434 ; perimeter
G1 X51.198 Y100.41 E.05234 ; perimeter
M73 Q0 S146
G1 X59.734 Y100.41 E.37861 ; perimeter
G1 X59.876 Y100.339 E.00704 ; perimeter
G1 X59.912 Y100.232 E.00501 ; perimeter
G1 X59.912 Y46.768 E2.37138 ; perimeter
G1 X59.876 Y46.661 E.00501 ; perimeter
G1 X59.787 Y46.617 E.0044 ; perimeter
M204 S1000 ; adjust acceleration
;WIPE_START
G1 F8640
G1 X59.734 Y46.59 E-.01373 ; wipe and retract
G1 X53.73 Y46.59 E-1.38627 ; wipe and retract
;WIPE_END
G1 Z.5 F720 ; move to first infill point
G1 X108.928 Y46.256 F10800 ; move to first infill point
G1 Z.3 F720 ; move to first infill point
G1 E1.4 F2100 ;  ; unretract
M204 S800 ; adjust acceleration
;TYPE:Solid infill
;WIDTH:0.420836
G1 F1200
G1 X108.727 Y46.055 E.01264 ; infill
G1 X108.497 Y46.032 E.01028 ; infill
G1 X108.2 Y46.032 E.0132 ; infill
G1 X108.582 Y46.414 E.02402 ; infill
G1 X108.469 Y46.753 E.01589 ; infill
G1 X108.469 Y46.805 E.00231 ; infill
G1 X107.696 Y46.032 E.0486 ; infill
G1 X107.192 Y46.032 E.02241 ; infill
G1 X108.469 Y47.309 E.08029 ; infill
G1 X108.469 Y47.813 E.02241 ; infill
G1 X106.688 Y46.032 E.11198 ; infill
G1 X106.184 Y46.032 E.02241 ; infill
G1 X108.469 Y48.318 E.1437 ; infill
G1 X108.469 Y48.822 E.02241 ; infill
G1 X105.68 Y46.032 E.17539 ; infill
G1 X105.176 Y46.032 E.02241 ; infill
G1 X108.469 Y49.326 E.20708 ; infill
G1 X108.469 Y49.83 E.02241 ; infill
G1 X104.672 Y46.032 E.23877 ; infill
G1 X104.168 Y46.032 E.02241 ; infill
G1 X108.469 Y50.334 E.27045 ; infill
G1 X108.469 Y50.838 E.02241 ; infill
G1 X103.664 Y46.032 E.30214 ; infill
G1 X103.159 Y46.032 E.02245 ; infill
G1 X108.469 Y51.342 E.33386 ; infill
G1 X108.469 Y51.846 E.02241 ; infill
G1 X102.655 Y46.032 E.36555 ; infill
G1 X102.151 Y46.032 E.02241 ; infill
G1 X108.469 Y52.35 E.39724 ; infill
G1 X108.469 Y52.854 E.02241 ; infill
G1 X101.647 Y46.032 E.42893 ; infill
G1 X101.143 Y46.032 E.02241 ; infill
G1 X108.469 Y53.359 E.46065 ; infill
G1 X108.469 Y53.863 E.02241 ; infill
G1 X100.639 Y46.032 E.49234 ; infill
G1 X100.135 Y46.032 E.02241 ; infill
G1 X108.469 Y54.367 E.52403 ; infill
G1 X108.469 Y54.871 E.02241 ; infill
G1 X99.631 Y46.032 E.55572 ; infill
G1 X99.127 Y46.032 E.02241 ; infill
G1 X108.469 Y55.375 E.58741 ; infill
G1 X108.469 Y55.879 E.02241 ; infill
G1 X98.622 Y46.032 E.61913 ; infill
G1 X98.118 Y46.032 E.02241 ; infill
G1 X108.469 Y56.383 E.65081 ; infill
G1 X108.469 Y56.887 E.02241 ; infill
G1 X97.614 Y46.032 E.6825 ; infill
G1 X97.11 Y46.032 E.02241 ; infill
G1 X108.469 Y57.391 E.71419 ; infill
G1 X108.469 Y57.895 E.02241 ; infill
G1 X96.606 Y46.032 E.74588 ; infill
G1 X96.102 Y46.032 E.02241 ; infill
G1 X108.469 Y58.4 E.7776 ; infill
G1 X108.469 Y58.904 E.02241 ; infill
G1 X95.598 Y46.032 E.80929 ; infill
G1 X95.094 Y46.032 E.02241 ; infill
G1 X108.469 Y59.408 E.84098 ; infill
G1 X108.469 Y59.912 E.02241 ; infill
G1 X94.59 Y46.032 E.87267 ; infill
G1 X94.086 Y46.032 E.02241 ; infill
G1 X108.469 Y60.416 E.90436 ; infill
G1 X108.469 Y60.92 E.02241 ; infill
G1 X93.581 Y46.032 E.93608 ; infill
G1 X93.077 Y46.032 E.02241 ; infill
G1 X108.469 Y61.424 E.96777 ; infill
G1 X108.469 Y61.928 E.02241 ; infill
G1 X92.573 Y46.032 E.99945 ; infill
G1 X92.069 Y46.032 E.02241 ; infill
G1 X108.469 Y62.432 E1.03114 ; infill
G1 X108.469 Y62.937 E.02245 ; infill
G1 X91.565 Y46.032 E1.06286 ; infill
G1 X91.061 Y46.032 E.02241 ; infill
G1 X108.469 Y63.441 E1.09455 ; infill
G1 X108.469 Y63.945 E.02241 ; infill
G1 X90.557 Y46.032 E1.12624 ; infill
G1 X90.053 Y46.032 E.02241 ; infill
M73 P1 R145
M73 Q1 S146
G1 X108.469 Y64.449 E1.15793 ; infill
G1 X108.469 Y64.953 E.02241 ; infill
G1 X89.549 Y46.032 E1.18962 ; infill
G1 X89.045 Y46.032 E.02241 ; infill
G1 X108.469 Y65.457 E1.22131 ; infill
G1 X108.469 Y65.961 E.02241 ; infill
G1 X88.54 Y46.032 E1.25303 ; infill
G1 X88.036 Y46.032 E.02241 ; infill
G1 X108.469 Y66.465 E1.28472 ; infill
G1 X108.469 Y66.969 E.02241 ; infill
G1 X87.532 Y46.032 E1.3164 ; infill
G1 X87.028 Y46.032 E.02241 ; infill
G1 X108.469 Y67.473 E1.34809 ; infill
G1 X108.469 Y67.978 E.02245 ; infill
G1 X86.524 Y46.032 E1.37981 ; infill
G1 X86.02 Y46.032 E.02241 ; infill
G1 X108.469 Y68.482 E1.4115 ; infill
G1 X108.469 Y68.986 E.02241 ; infill
G1 X85.516 Y46.032 E1.44319 ; infill
G1 X85.012 Y46.032 E.02241 ; infill
M73 P1 R144
G1 X108.469 Y69.49 E1.47488 ; infill
G1 X108.469 Y69.994 E.02241 ; infill
G1 X84.508 Y46.032 E1.50657 ; infill
G1 X84.003 Y46.032 E.02245 ; infill
G1 X108.469 Y70.498 E1.53829 ; infill
G1 X108.469 Y71.002 E.02241 ; infill
G1 X83.499 Y46.032 E1.56998 ; infill
G1 X82.995 Y46.032 E.02241 ; infill
G1 X108.469 Y71.506 E1.60167 ; infill
G1 X108.469 Y72.01 E.02241 ; infill
G1 X82.491 Y46.032 E1.63336 ; infill
G1 X81.987 Y46.032 E.02241 ; infill
G1 X108.469 Y72.514 E1.66504 ; infill
G1 X108.469 Y73.019 E.02245 ; infill
G1 X81.483 Y46.032 E1.69676 ; infill
G1 X80.979 Y46.032 E.02241 ; infill
M73 Q1 S145
G1 X108.469 Y73.523 E1.72845 ; infill
G1 X108.469 Y74.027 E.02241 ; infill
G1 X80.475 Y46.032 E1.76014 ; infill
G1 X79.971 Y46.032 E.02241 ; infill
G1 X108.469 Y74.531 E1.79183 ; infill
G1 X108.469 Y75.035 E.02241 ; infill
G1 X79.467 Y46.032 E1.82352 ; infill
G1 X78.962 Y46.032 E.02245 ; infill
G1 X108.469 Y75.539 E1.85524 ; infill
G1 X108.469 Y76.043 E.02241 ; infill
G1 X78.458 Y46.032 E1.88693 ; infill
G1 X77.954 Y46.032 E.02241 ; infill
G1 X108.469 Y76.547 E1.91862 ; infill
G1 X108.469 Y77.051 E.02241 ; infill
G1 X77.45 Y46.032 E1.95031 ; infill
G1 X76.946 Y46.032 E.02241 ; infill
G1 X108.469 Y77.556 E1.98203 ; infill
G1 X108.469 Y78.06 E.02241 ; infill
G1 X76.442 Y46.032 E2.01372 ; infill
G1 X75.938 Y46.032 E.02241 ; infill
G1 X108.469 Y78.564 E2.0454 ; infill
G1 X108.469 Y79.068 E.02241 ; infill
G1 X75.434 Y46.032 E2.07709 ; infill
G1 X74.93 Y46.032 E.02241 ; infill
G1 X108.469 Y79.572 E2.10878 ; infill
G1 X108.469 Y80.076 E.02241 ; infill
G1 X74.426 Y46.032 E2.14047 ; infill
G1 X73.921 Y46.032 E.02245 ; infill
G1 X108.469 Y80.58 E2.17219 ; infill
G1 X108.469 Y81.084 E.02241 ; infill
G1 X73.417 Y46.032 E2.20388 ; infill
G1 X72.913 Y46.032 E.02241 ; infill
G1 X108.469 Y81.588 E2.23557 ; infill
G1 X108.469 Y82.092 E.02241 ; infill
G1 X72.409 Y46.032 E2.26726 ; infill
G1 X71.905 Y46.032 E.02241 ; infill
G1 X108.469 Y82.597 E2.29898 ; infill
G1 X108.469 Y83.101 E.02241 ; infill
G1 X71.401 Y46.032 E2.33067 ; infill
G1 X70.897 Y46.032 E.02241 ; infill
M73 P1 R143
G1 X108.469 Y83.605 E2.36235 ; infill
G1 X108.469 Y84.109 E.02241 ; infill
G1 X70.393 Y46.032 E2.39404 ; infill
G1 X69.889 Y46.032 E.02241 ; infill
G1 X108.469 Y84.613 E2.42573 ; infill
G1 X108.469 Y85.117 E.02241 ; infill
G1 X69.384 Y46.032 E2.45745 ; infill
G1 X68.88 Y46.032 E.02241 ; infill
G1 X108.469 Y85.621 E2.48914 ; infill
G1 X108.469 Y86.125 E.02241 ; infill
M73 P2 R143
M73 Q2 S144
G1 X68.376 Y46.032 E2.52083 ; infill
G1 X67.872 Y46.032 E.02241 ; infill
G1 X108.469 Y86.629 E2.55252 ; infill
G1 X108.469 Y87.133 E.02241 ; infill
G1 X67.368 Y46.032 E2.58421 ; infill
G1 X66.864 Y46.032 E.02241 ; infill
G1 X108.469 Y87.638 E2.61593 ; infill
G1 X108.469 Y88.142 E.02241 ; infill
G1 X66.36 Y46.032 E2.64762 ; infill
G1 X65.856 Y46.032 E.02241 ; infill
G1 X108.469 Y88.646 E2.67931 ; infill
G1 X108.469 Y89.15 E.02241 ; infill
G1 X65.352 Y46.032 E2.71099 ; infill
G1 X64.848 Y46.032 E.02241 ; infill
G1 X108.469 Y89.654 E2.74268 ; infill
G1 X108.469 Y90.158 E.02241 ; infill
G1 X64.343 Y46.032 E2.7744 ; infill
G1 X63.839 Y46.032 E.02241 ; infill
G1 X108.469 Y90.662 E2.80609 ; infill
G1 X108.469 Y91.166 E.02241 ; infill
G1 X63.335 Y46.032 E2.83778 ; infill
G1 X62.831 Y46.032 E.02241 ; infill
G1 X108.469 Y91.67 E2.86947 ; infill
G1 X108.469 Y92.175 E.02245 ; infill
G1 X62.327 Y46.032 E2.90119 ; infill
G1 X61.823 Y46.032 E.02241 ; infill
G1 X108.469 Y92.679 E2.93288 ; infill
G1 X108.469 Y93.183 E.02241 ; infill
G1 X61.319 Y46.032 E2.96457 ; infill
G1 X60.815 Y46.032 E.02241 ; infill
M73 P2 R142
G1 X108.469 Y93.687 E2.99626 ; infill
G1 X108.469 Y94.191 E.02241 ; infill
G1 X60.324 Y46.046 E3.0271 ; infill
G1 X60.063 Y46.065 E.01163 ; infill
G1 X60.057 Y46.09 E.00114 ; infill
G1 X60.377 Y46.282 E.01659 ; infill
G1 X60.534 Y46.76 E.02237 ; infill
G1 X108.469 Y94.695 E3.01389 ; infill
G1 X108.469 Y95.199 E.02241 ; infill
G1 X60.534 Y47.264 E3.01389 ; infill
G1 X60.534 Y47.768 E.02241 ; infill
M73 Q2 S143
G1 X108.469 Y95.703 E3.01389 ; infill
G1 X108.469 Y96.207 E.02241 ; infill
G1 X60.534 Y48.272 E3.01389 ; infill
G1 X60.534 Y48.776 E.02241 ; infill
G1 X108.469 Y96.711 E3.01389 ; infill
G1 X108.469 Y97.216 E.02245 ; infill
G1 X60.534 Y49.28 E3.01392 ; infill
G1 X60.534 Y49.784 E.02241 ; infill
G1 X108.469 Y97.72 E3.01392 ; infill
G1 X108.469 Y98.224 E.02241 ; infill
G1 X60.534 Y50.288 E3.01392 ; infill
G1 X60.534 Y50.793 E.02245 ; infill
G1 X108.469 Y98.728 E3.01389 ; infill
G1 X108.469 Y99.232 E.02241 ; infill
G1 X60.534 Y51.297 E3.01389 ; infill
G1 X60.534 Y51.801 E.02241 ; infill
M73 P3 R142
M73 Q3 S143
G1 X108.469 Y99.736 E3.01389 ; infill
G1 X108.469 Y100.24 E.02241 ; infill
G1 X60.534 Y52.305 E3.01389 ; infill
G1 X60.534 Y52.809 E.02241 ; infill
G1 X108.679 Y100.954 E3.0271 ; infill
G1 X108.188 Y100.968 E.02184 ; infill
G1 X60.534 Y53.313 E2.99626 ; infill
G1 X60.534 Y53.817 E.02241 ; infill
G1 X107.684 Y100.968 E2.96457 ; infill
G1 X107.18 Y100.968 E.02241 ; infill
M73 P3 R141
G1 X60.534 Y54.321 E2.93288 ; infill
G1 X60.534 Y54.825 E.02241 ; infill
G1 X106.676 Y100.968 E2.90119 ; infill
G1 X106.172 Y100.968 E.02241 ; infill
G1 X60.534 Y55.329 E2.8695 ; infill
G1 X60.534 Y55.834 E.02245 ; infill
G1 X105.668 Y100.968 E2.83778 ; infill
G1 X105.164 Y100.968 E.02241 ; infill
G1 X60.534 Y56.338 E2.80609 ; infill
G1 X60.534 Y56.842 E.02241 ; infill
M73 Q3 S142
G1 X104.66 Y100.968 E2.7744 ; infill
G1 X104.156 Y100.968 E.02241 ; infill
G1 X60.534 Y57.346 E2.74271 ; infill
G1 X60.534 Y57.85 E.02241 ; infill
G1 X103.652 Y100.968 E2.71103 ; infill
