; generated by PrusaSlicer 2.5.0 on 2023-03-11 at 19:29:43 UTC


;
;
; 

; external perimeters extrusion width = 0.60mm
; perimeters extrusion width = 0.50mm
; infill extrusion width = 0.50mm
; solid infill extrusion width = 0.50mm
; top infill extrusion width = 0.45mm
; first layer extrusion width = 0.42mm

M73 P0 R53
M73 Q0 S54
M201 X1000 Y1000 Z200 E5000 ; sets maximum accelerations, mm/sec^2
M203 X200 Y200 Z12 E120 ; sets maximum feedrates, mm / sec
M204 P1250 R1250 T1250 ; sets acceleration (P, T) and retract acceleration (R), mm/sec^2
M205 X8.00 Y8.00 Z0.40 E4.50 ; sets the jerk limits, mm/sec
M205 S0 T0 ; sets the minimum extruding and travel feed rate, mm/sec
M107 ; disable fan
;TYPE:Custom
M862.3 P "MK3S" ; printer model check
M862.1 P0.4 ; nozzle diameter check
M115 U3.11.0 ; tell printer latest fw version
G90 ; use absolute coordinates
M83 ; extruder relative mode
M104 S240 ; set extruder temp
M140 S95 ; set bed temp
M190 S95 ; wait for bed temp
M109 S240 ; wait for extruder temp
G28 W ; home all without mesh bed level
G80 ; mesh bed leveling

G1 Z0.2 F720
G1 Y-3 F1000 ; go outside print area
G92 E0
G1 X60 E9 F1000 ; intro line
G1 X100 E12.5 F1000 ; intro line

G92 E0
M221 S95

; Don't change E values below. Excessive value can damage the printer.

M907 E538 ; set extruder motor current
G21 ; set units to millimeters
G90 ; use absolute coordinates
M83 ; use relative distances for extrusion
M900 K0.08 ; Filament gcode LA 1.5
M900 K45 ; Filament gcode LA 1.0
M107 ; disable fan
;LAYER_CHANGE
;Z:0.3
;HEIGHT:0.3
;BEFORE_LAYER_CHANGE
G92 E0.0
;0.3


G1 E-1.4 F2100 ; retract
G1 Z.2 F720 ; lift Z
G1 Z.3 ; move to next layer (0)
;AFTER_LAYER_CHANGE
;0.3
G1 Z.5 ; lift Z
G1 X98.036 Y76.7 F10800 ; move to first skirt point
G1 Z.3 F720 ; restore layer Z
G1 E1.4 F2100 ;  ; unretract
M204 S800 ; adjust acceleration
;TYPE:Skirt/Brim
;WIDTH:0.42
G1 F1200
G1 X99.08 Y75.831 E.06024 ; skirt
G1 X100 Y75.644 E.04163 ; skirt
G1 X150 Y75.644 E2.21774 ; skirt
G1 X151.3 Y76.036 E.06024 ; skirt
G1 X152.169 Y77.08 E.06024 ; skirt
G1 X152.356 Y78 E.04163 ; skirt
G1 X152.356 Y132 E2.39516 ; skirt
G1 X151.964 Y133.3 E.06024 ; skirt
G1 X150.92 Y134.169 E.06024 ; skirt
G1 X150 Y134.356 E.04163 ; skirt
G1 X100 Y134.356 E2.21774 ; skirt
G1 X98.7 Y133.964 E.06024 ; skirt
G1 X97.831 Y132.92 E.06024 ; skirt
G1 X97.644 Y132 E.04163 ; skirt
G1 X97.644 Y78 E2.39516 ; skirt
G1 X98.019 Y76.757 E.05758 ; skirt
M204 S1000 ; adjust acceleration
; printing object 5L_hipjoint_upper_bearing-Body.stl id:0 copy 0
;WIPE_START
G1 F8640
G1 X99.08 Y75.831 E-.32524 ; wipe and retract
G1 X100 Y75.644 E-.21671 ; wipe and retract
G1 X103.413 Y75.644 E-.78805 ; wipe and retract
;WIPE_END
G1 E-.07 F2100 ; retract
G1 Z.5 F720 ; lift Z
G1 X100.766 Y78.766 F10800 ; move to first perimeter point
G1 Z.3 F720 ; restore layer Z
G1 E1.4 F2100 ;  ; unretract
M204 S800 ; adjust acceleration
;TYPE:Perimeter
;WIDTH:0.42
G1 F1200
G1 X149.234 Y78.766 E2.14982 ; perimeter
G1 X149.234 Y131.234 E2.32724 ; perimeter
G1 X100.766 Y131.234 E2.14982 ; perimeter
G1 X100.766 Y78.826 E2.32458 ; perimeter
M204 S1000 ; adjust acceleration
G1 X100.41 Y78.41 F10800 ; move to first perimeter point
M204 S800 ; adjust acceleration
;TYPE:External perimeter
G1 F1200
G1 X149.59 Y78.41 E2.18137 ; perimeter
G1 X149.59 Y131.59 E2.35879 ; perimeter
G1 X100.41 Y131.59 E2.18137 ; perimeter
M73 P1 R53
M73 Q1 S54
G1 X100.41 Y78.47 E2.35613 ; perimeter
M204 S1000 ; adjust acceleration
G1 X100.795 Y78.519 F10800 ; move inwards before travel
;WIPE_START
M73 Q1 S53
G1 F8640
G1 X106.17 Y78.463 E-1.33 ; wipe and retract
;WIPE_END
G1 E-.07 F2100 ; retract
G1 Z.5 F720 ; lift Z
G1 X103.131 Y83.731 F10800 ; move to first perimeter point
G1 Z.3 F720 ; restore layer Z
G1 E1.4 F2100 ;  ; unretract
M204 S800 ; adjust acceleration
;TYPE:Perimeter
G1 F1200
G1 X103.458 Y83.343 E.02252 ; perimeter
G1 X103.805 Y83.077 E.0194 ; perimeter
G1 X104.118 Y82.915 E.01563 ; perimeter
G1 X104.548 Y82.782 E.01998 ; perimeter
G1 X104.997 Y82.736 E.02 ; perimeter
G1 X105.445 Y82.78 E.02 ; perimeter
G1 X105.876 Y82.913 E.02 ; perimeter
G1 X106.273 Y83.128 E.02 ; perimeter
G1 X106.618 Y83.417 E.01999 ; perimeter
G1 X106.9 Y83.769 E.02 ; perimeter
G1 X107.106 Y84.17 E.02 ; perimeter
G1 X107.229 Y84.604 E.01999 ; perimeter
G1 X107.263 Y85.053 E.02 ; perimeter
G1 X107.208 Y85.501 E.02 ; perimeter
G1 X107.065 Y85.928 E.01999 ; perimeter
G1 X106.84 Y86.319 E.02 ; perimeter
G1 X106.553 Y86.648 E.0194 ; perimeter
G1 X106.278 Y86.869 E.01563 ; perimeter
G1 X105.882 Y87.085 E.01998 ; perimeter
G1 X105.452 Y87.218 E.02 ; perimeter
G1 X105.003 Y87.264 E.02 ; perimeter
G1 X104.555 Y87.22 E.02 ; perimeter
G1 X104.124 Y87.087 E.02 ; perimeter
G1 X103.727 Y86.872 E.02 ; perimeter
G1 X103.382 Y86.583 E.01999 ; perimeter
G1 X103.1 Y86.231 E.02 ; perimeter
G1 X102.894 Y85.83 E.02 ; perimeter
G1 X102.771 Y85.396 E.01999 ; perimeter
G1 X102.737 Y85.053 E.0153 ; perimeter
G1 X102.792 Y84.499 E.02468 ; perimeter
G1 X102.935 Y84.072 E.01999 ; perimeter
G1 X103.101 Y83.783 E.01476 ; perimeter
M204 S1000 ; adjust acceleration
G1 X103.247 Y84.242 F10800 ; move to first perimeter point
M204 S800 ; adjust acceleration
;TYPE:External perimeter
G1 F1200
G1 X103.432 Y83.91 E.01687 ; perimeter
G1 X103.68 Y83.621 E.01687 ; perimeter
G1 X103.975 Y83.389 E.01665 ; perimeter
G1 X104.231 Y83.252 E.01289 ; perimeter
G1 X104.592 Y83.135 E.01685 ; perimeter
G1 X104.97 Y83.091 E.01686 ; perimeter
G1 X105.349 Y83.123 E.01687 ; perimeter
G1 X105.714 Y83.229 E.01687 ; perimeter
G1 X106.051 Y83.406 E.01687 ; perimeter
G1 X106.346 Y83.646 E.01686 ; perimeter
G1 X106.588 Y83.939 E.01687 ; perimeter
G1 X106.766 Y84.275 E.01687 ; perimeter
G1 X106.875 Y84.639 E.01686 ; perimeter
G1 X106.909 Y85.018 E.01686 ; perimeter
G1 X106.868 Y85.396 E.01687 ; perimeter
G1 X106.753 Y85.758 E.01686 ; perimeter
G1 X106.568 Y86.09 E.01686 ; perimeter
G1 X106.324 Y86.376 E.01665 ; perimeter
G1 X106.1 Y86.561 E.01289 ; perimeter
G1 X105.769 Y86.748 E.01685 ; perimeter
G1 X105.408 Y86.865 E.01687 ; perimeter
G1 X105.03 Y86.909 E.01686 ; perimeter
G1 X104.651 Y86.877 E.01687 ; perimeter
G1 X104.286 Y86.771 E.01687 ; perimeter
G1 X103.949 Y86.594 E.01687 ; perimeter
G1 X103.654 Y86.354 E.01686 ; perimeter
G1 X103.412 Y86.061 E.01687 ; perimeter
G1 X103.234 Y85.725 E.01687 ; perimeter
G1 X103.125 Y85.361 E.01686 ; perimeter
G1 X103.091 Y85.018 E.0153 ; perimeter
G1 X103.132 Y84.604 E.01843 ; perimeter
G1 X103.229 Y84.299 E.0142 ; perimeter
M204 S1000 ; adjust acceleration
G1 X103.02 Y83.938 F10800 ; move inwards before travel
;WIPE_START
G1 F8640
G1 X103.432 Y83.91 E-.10141 ; wipe and retract
G1 X103.68 Y83.621 E-.0878 ; wipe and retract
G1 X103.975 Y83.389 E-.0867 ; wipe and retract
G1 X104.231 Y83.252 E-.06711 ; wipe and retract
G1 X104.592 Y83.135 E-.08771 ; wipe and retract
G1 X104.97 Y83.091 E-.08779 ; wipe and retract
G1 X105.349 Y83.123 E-.0878 ; wipe and retract
G1 X105.714 Y83.229 E-.0878 ; wipe and retract
G1 X106.051 Y83.406 E-.0878 ; wipe and retract
G1 X106.346 Y83.646 E-.08779 ; wipe and retract
G1 X106.588 Y83.939 E-.0878 ; wipe and retract
G1 X106.766 Y84.275 E-.0878 ; wipe and retract
G1 X106.875 Y84.639 E-.08779 ; wipe and retract
G1 X106.909 Y85.018 E-.0878 ; wipe and retract
G1 X106.868 Y85.396 E-.0878 ; wipe and retract
G1 X106.84 Y85.484 E-.02131 ; wipe and retract
;WIPE_END
G1 E-.07 F2100 ; retract
G1 Z.5 F720 ; lift Z
G1 X105.388 Y120.775 F10800 ; move to first perimeter point
G1 Z.3 F720 ; restore layer Z
G1 E1.4 F2100 ;  ; unretract
M204 S800 ; adjust acceleration
;TYPE:Perimeter
G1 F1200
G1 X105.876 Y120.913 E.02252 ; perimeter
G1 X106.273 Y121.128 E.02 ; perimeter
G1 X106.618 Y121.417 E.02 ; perimeter
G1 X106.9 Y121.769 E.01999 ; perimeter
G1 X107.106 Y122.17 E.02 ; perimeter
G1 X107.229 Y122.604 E.01999 ; perimeter
G1 X107.263 Y123.053 E.02 ; perimeter
G1 X107.208 Y123.501 E.02 ; perimeter
G1 X107.065 Y123.928 E.01999 ; perimeter
G1 X106.84 Y124.319 E.02 ; perimeter
G1 X106.553 Y124.648 E.0194 ; perimeter
G1 X106.278 Y124.869 E.01563 ; perimeter
G1 X105.882 Y125.085 E.01998 ; perimeter
G1 X105.452 Y125.218 E.02 ; perimeter
G1 X105.003 Y125.264 E.02 ; perimeter
G1 X104.555 Y125.22 E.02 ; perimeter
G1 X104.124 Y125.087 E.02 ; perimeter
G1 X103.727 Y124.872 E.02 ; perimeter
G1 X103.382 Y124.583 E.01999 ; perimeter
G1 X103.1 Y124.231 E.02 ; perimeter
G1 X102.894 Y123.83 E.02 ; perimeter
G1 X102.771 Y123.396 E.01999 ; perimeter
G1 X102.737 Y123.053 E.0153 ; perimeter
G1 X102.792 Y122.499 E.02468 ; perimeter
G1 X102.935 Y122.072 E.01999 ; perimeter
G1 X103.16 Y121.681 E.02 ; perimeter
G1 X103.458 Y121.343 E.02 ; perimeter
G1 X103.817 Y121.07 E.02 ; perimeter
G1 X104.209 Y120.878 E.0194 ; perimeter
G1 X104.549 Y120.782 E.01563 ; perimeter
G1 X104.997 Y120.736 E.01998 ; perimeter
G1 X105.328 Y120.769 E.01476 ; perimeter
M204 S1000 ; adjust acceleration
G1 X105.349 Y121.123 F10800 ; move to first perimeter point
M204 S800 ; adjust acceleration
;TYPE:External perimeter
G1 F1200
G1 X105.714 Y121.229 E.01686 ; perimeter
G1 X106.051 Y121.406 E.01687 ; perimeter
G1 X106.346 Y121.646 E.01687 ; perimeter
G1 X106.588 Y121.939 E.01686 ; perimeter
G1 X106.766 Y122.275 E.01687 ; perimeter
G1 X106.875 Y122.639 E.01686 ; perimeter
G1 X106.909 Y123.018 E.01686 ; perimeter
G1 X106.868 Y123.396 E.01687 ; perimeter
G1 X106.753 Y123.758 E.01686 ; perimeter
G1 X106.568 Y124.09 E.01686 ; perimeter
G1 X106.324 Y124.376 E.01665 ; perimeter
G1 X106.1 Y124.561 E.01289 ; perimeter
G1 X105.769 Y124.748 E.01685 ; perimeter
G1 X105.408 Y124.865 E.01687 ; perimeter
G1 X105.03 Y124.909 E.01686 ; perimeter
G1 X104.651 Y124.877 E.01687 ; perimeter
G1 X104.286 Y124.771 E.01687 ; perimeter
G1 X103.949 Y124.594 E.01687 ; perimeter
G1 X103.654 Y124.354 E.01686 ; perimeter
G1 X103.412 Y124.061 E.01687 ; perimeter
G1 X103.234 Y123.725 E.01687 ; perimeter
G1 X103.125 Y123.361 E.01686 ; perimeter
G1 X103.091 Y123.018 E.0153 ; perimeter
G1 X103.132 Y122.604 E.01843 ; perimeter
G1 X103.247 Y122.242 E.01686 ; perimeter
G1 X103.432 Y121.91 E.01687 ; perimeter
G1 X103.68 Y121.621 E.01687 ; perimeter
G1 X103.979 Y121.387 E.01687 ; perimeter
G1 X104.314 Y121.218 E.01665 ; perimeter
G1 X104.593 Y121.135 E.01289 ; perimeter
G1 X104.97 Y121.091 E.01685 ; perimeter
G1 X105.289 Y121.118 E.0142 ; perimeter
M204 S1000 ; adjust acceleration
G1 X105.596 Y120.834 F10800 ; move inwards before travel
;WIPE_START
G1 F8640
G1 X105.714 Y121.229 E-.10141 ; wipe and retract
G1 X106.051 Y121.406 E-.0878 ; wipe and retract
G1 X106.346 Y121.646 E-.08784 ; wipe and retract
G1 X106.588 Y121.939 E-.08775 ; wipe and retract
G1 X106.766 Y122.275 E-.0878 ; wipe and retract
G1 X106.875 Y122.639 E-.08779 ; wipe and retract
G1 X106.909 Y123.018 E-.0878 ; wipe and retract
G1 X106.868 Y123.396 E-.0878 ; wipe and retract
G1 X106.753 Y123.758 E-.08779 ; wipe and retract
G1 X106.568 Y124.09 E-.0878 ; wipe and retract
G1 X106.324 Y124.376 E-.0867 ; wipe and retract
G1 X106.1 Y124.561 E-.0671 ; wipe and retract
G1 X105.769 Y124.748 E-.0877 ; wipe and retract
G1 X105.408 Y124.865 E-.0878 ; wipe and retract
G1 X105.03 Y124.909 E-.08779 ; wipe and retract
G1 X104.938 Y124.901 E-.02132 ; wipe and retract
;WIPE_END
G1 E-.07 F2100 ; retract
G1 Z.5 F720 ; lift Z
G1 X146.574 Y121.38 F10800 ; move to first perimeter point
G1 Z.3 F720 ; restore layer Z
G1 E1.4 F2100 ;  ; unretract
M204 S800 ; adjust acceleration
;TYPE:Perimeter
G1 F1200
G1 X146.9 Y121.769 E.02252 ; perimeter
G1 X147.106 Y122.17 E.02 ; perimeter
G1 X147.229 Y122.604 E.01999 ; perimeter
G1 X147.263 Y123.053 E.02 ; perimeter
G1 X147.208 Y123.501 E.02 ; perimeter
G1 X147.065 Y123.928 E.01999 ; perimeter
G1 X146.84 Y124.319 E.02 ; perimeter
G1 X146.553 Y124.648 E.0194 ; perimeter
G1 X146.278 Y124.869 E.01563 ; perimeter
G1 X145.882 Y125.085 E.01998 ; perimeter
G1 X145.452 Y125.218 E.02 ; perimeter
G1 X145.003 Y125.264 E.02 ; perimeter
G1 X144.555 Y125.22 E.02 ; perimeter
G1 X144.124 Y125.087 E.02 ; perimeter
G1 X143.727 Y124.872 E.02 ; perimeter
G1 X143.382 Y124.583 E.01999 ; perimeter
G1 X143.1 Y124.231 E.02 ; perimeter
G1 X142.894 Y123.83 E.02 ; perimeter
G1 X142.771 Y123.396 E.01999 ; perimeter
G1 X142.737 Y123.053 E.0153 ; perimeter
G1 X142.784 Y122.531 E.02325 ; perimeter
G1 X142.935 Y122.072 E.02144 ; perimeter
G1 X143.16 Y121.681 E.02 ; perimeter
G1 X143.458 Y121.343 E.01999 ; perimeter
G1 X143.817 Y121.07 E.02 ; perimeter
G1 X144.209 Y120.878 E.0194 ; perimeter
G1 X144.549 Y120.782 E.01563 ; perimeter
G1 X144.997 Y120.736 E.01998 ; perimeter
G1 X145.445 Y120.78 E.02 ; perimeter
G1 X145.876 Y120.913 E.01999 ; perimeter
G1 X146.273 Y121.128 E.02 ; perimeter
G1 X146.528 Y121.341 E.01476 ; perimeter
M204 S1000 ; adjust acceleration
G1 X146.346 Y121.646 F10800 ; move to first perimeter point
M204 S800 ; adjust acceleration
;TYPE:External perimeter
G1 F1200
G1 X146.588 Y121.939 E.01687 ; perimeter
G1 X146.766 Y122.275 E.01687 ; perimeter
G1 X146.875 Y122.639 E.01686 ; perimeter
G1 X146.909 Y123.018 E.01686 ; perimeter
G1 X146.868 Y123.396 E.01687 ; perimeter
G1 X146.753 Y123.758 E.01686 ; perimeter
G1 X146.568 Y124.09 E.01686 ; perimeter
G1 X146.324 Y124.376 E.01665 ; perimeter
G1 X146.1 Y124.561 E.01289 ; perimeter
G1 X145.769 Y124.748 E.01685 ; perimeter
G1 X145.408 Y124.865 E.01687 ; perimeter
G1 X145.03 Y124.909 E.01686 ; perimeter
G1 X144.651 Y124.877 E.01687 ; perimeter
G1 X144.286 Y124.771 E.01687 ; perimeter
G1 X143.949 Y124.594 E.01687 ; perimeter
G1 X143.654 Y124.354 E.01686 ; perimeter
G1 X143.412 Y124.061 E.01687 ; perimeter
G1 X143.234 Y123.725 E.01687 ; perimeter
G1 X143.125 Y123.361 E.01686 ; perimeter
G1 X143.091 Y123.018 E.0153 ; perimeter
G1 X143.132 Y122.604 E.01843 ; perimeter
G1 X143.247 Y122.242 E.01686 ; perimeter
G1 X143.433 Y121.91 E.01687 ; perimeter
G1 X143.68 Y121.621 E.01686 ; perimeter
G1 X143.979 Y121.387 E.01687 ; perimeter
G1 X144.314 Y121.218 E.01665 ; perimeter
G1 X144.593 Y121.135 E.01289 ; perimeter
G1 X144.97 Y121.091 E.01685 ; perimeter
G1 X145.349 Y121.123 E.01687 ; perimeter
G1 X145.714 Y121.229 E.01686 ; perimeter
G1 X146.051 Y121.406 E.01687 ; perimeter
G1 X146.299 Y121.608 E.0142 ; perimeter
M204 S1000 ; adjust acceleration
G1 X146.713 Y121.546 F10800 ; move inwards before travel
;WIPE_START
G1 F8640
G1 X146.588 Y121.939 E-.10141 ; wipe and retract
G1 X146.766 Y122.275 E-.0878 ; wipe and retract
G1 X146.875 Y122.639 E-.08779 ; wipe and retract
G1 X146.909 Y123.018 E-.0878 ; wipe and retract
G1 X146.868 Y123.396 E-.0878 ; wipe and retract
G1 X146.753 Y123.758 E-.08779 ; wipe and retract
G1 X146.568 Y124.09 E-.0878 ; wipe and retract
G1 X146.324 Y124.376 E-.0867 ; wipe and retract
G1 X146.1 Y124.561 E-.0671 ; wipe and retract
G1 X145.769 Y124.748 E-.0877 ; wipe and retract
G1 X145.408 Y124.865 E-.0878 ; wipe and retract
G1 X145.03 Y124.909 E-.08779 ; wipe and retract
G1 X144.651 Y124.877 E-.0878 ; wipe and retract
G1 X144.286 Y124.771 E-.0878 ; wipe and retract
G1 X143.949 Y124.594 E-.0878 ; wipe and retract
G1 X143.878 Y124.536 E-.02131 ; wipe and retract
;WIPE_END
G1 E-.07 F2100 ; retract
G1 Z.5 F720 ; lift Z
G1 X143.426 Y86.62 F10800 ; move to first perimeter point
G1 Z.3 F720 ; restore layer Z
G1 E1.4 F2100 ;  ; unretract
M204 S800 ; adjust acceleration
;TYPE:Perimeter
G1 F1200
G1 X143.1 Y86.231 E.02252 ; perimeter
G1 X142.894 Y85.83 E.02 ; perimeter
G1 X142.771 Y85.396 E.01999 ; perimeter
G1 X142.737 Y85.053 E.0153 ; perimeter
G1 X142.792 Y84.499 E.02468 ; perimeter
G1 X142.935 Y84.072 E.01999 ; perimeter
G1 X143.16 Y83.681 E.02 ; perimeter
G1 X143.458 Y83.343 E.02 ; perimeter
G1 X143.805 Y83.077 E.0194 ; perimeter
G1 X144.118 Y82.915 E.01563 ; perimeter
G1 X144.548 Y82.782 E.01998 ; perimeter
G1 X144.997 Y82.736 E.02 ; perimeter
G1 X145.445 Y82.78 E.02 ; perimeter
G1 X145.993 Y82.972 E.02574 ; perimeter
G1 X146.273 Y83.128 E.01419 ; perimeter
G1 X146.618 Y83.417 E.01999 ; perimeter
G1 X146.9 Y83.769 E.02 ; perimeter
G1 X147.106 Y84.17 E.02 ; perimeter
G1 X147.229 Y84.604 E.01999 ; perimeter
G1 X147.263 Y85.053 E.02 ; perimeter
