; generated by PrusaSlicer 2.5.0 on 2022-09-23 at 11:59:23 UTC

; 

; external perimeters extrusion width = 0.60mm
; perimeters extrusion width = 0.50mm
; infill extrusion width = 0.50mm
; solid infill extrusion width = 0.50mm
; top infill extrusion width = 0.45mm
; support material extrusion width = 0.38mm
; first layer extrusion width = 0.42mm

M73 P0 R48
M73 Q0 S48
M201 X1000 Y1000 Z200 E5000 ; sets maximum accelerations, mm/sec^2
M203 X200 Y200 Z12 E120 ; sets maximum feedrates, mm / sec
M204 P1250 R1250 T1250 ; sets acceleration (P, T) and retract acceleration (R), mm/sec^2
M205 X8.00 Y8.00 Z0.40 E4.50 ; sets the jerk limits, mm/sec
M205 S0 T0 ; sets the minimum extruding and travel feed rate, mm/sec
M107
;TYPE:Custom
M862.3 P "MK3S" ; printer model check
M862.1 P0.4 ; nozzle diameter check
M115 U3.10.1 ; tell printer latest fw version
G90 ; use absolute coordinates
M83 ; extruder relative mode
M104 S240 ; set extruder temp
M140 S95 ; set bed temp
M190 S95 ; wait for bed temp
M109 S240 ; wait for extruder temp
G28 W ; home all without mesh bed level
G80 ; mesh bed leveling
G1 Z0.2 F720
G1 Y-3 F1000 ; go outside print area
G92 E0
G1 X60 E9 F1000 ; intro line
G1 X100 E12.5 F1000 ; intro line
G92 E0
M221 S95

; Don't change E values below. Excessive value can damage the printer.

M907 E538 ; set extruder motor current
G21 ; set units to millimeters
G90 ; use absolute coordinates
M83 ; use relative distances for extrusion
M900 K0.08 ; Filament gcode LA 1.5
M900 K45 ; Filament gcode LA 1.0
M107
;LAYER_CHANGE
;Z:0.3
;HEIGHT:0.3
;BEFORE_LAYER_CHANGE
G92 E0.0
;0.3


M73 P0 R47
G1 E-1.4 F2100
G1 Z.2 F720
G1 Z.3
;AFTER_LAYER_CHANGE
;0.3
G1 Z.5
G1 X98.036 Y76.7 F10800
G1 Z.3 F720
G1 E1.4 F2100
M204 S800
;TYPE:Skirt/Brim
;WIDTH:0.42
G1 F1200
G1 X99.08 Y75.831 E.06024
G1 X100 Y75.644 E.04163
G1 X150 Y75.644 E2.21774
G1 X151.3 Y76.036 E.06024
G1 X152.169 Y77.08 E.06024
G1 X152.356 Y78 E.04163
G1 X152.356 Y132 E2.39516
G1 X151.964 Y133.3 E.06024
G1 X150.92 Y134.169 E.06024
G1 X150 Y134.356 E.04163
G1 X100 Y134.356 E2.21774
G1 X98.7 Y133.964 E.06024
G1 X97.831 Y132.92 E.06024
G1 X97.644 Y132 E.04163
G1 X97.644 Y78 E2.39516
G1 X98.019 Y76.757 E.05758
M204 S1000
; printing object 5L_hipjoint_upper-Body.stl id:0 copy 0
;WIPE_START
G1 F8640
G1 X99.08 Y75.831 E-.32524
G1 X100 Y75.644 E-.21671
G1 X103.413 Y75.644 E-.78805
;WIPE_END
G1 E-.07 F2100
G1 Z.5 F720
G1 X100.766 Y78.766 F10800
G1 Z.3 F720
G1 E1.4 F2100
M204 S800
;TYPE:Perimeter
;WIDTH:0.42
G1 F1200
G1 X149.234 Y78.766 E2.14982
G1 X149.234 Y131.234 E2.32724
G1 X100.766 Y131.234 E2.14982
G1 X100.766 Y78.826 E2.32458
M204 S1000
G1 X100.41 Y78.41 F10800
M204 S800
;TYPE:External perimeter
G1 F1200
G1 X149.59 Y78.41 E2.18137
G1 X149.59 Y131.59 E2.35879
M73 P1 R47
M73 Q1 S48
G1 X100.41 Y131.59 E2.18137
G1 X100.41 Y78.47 E2.35613
M204 S1000
G1 X100.795 Y78.519 F10800
;WIPE_START
G1 F8640
G1 X106.17 Y78.463 E-1.33
;WIPE_END
G1 E-.07 F2100
G1 Z.5 F720
G1 X149.128 Y79.595 F10800
G1 Z.3 F720
G1 E1.4 F2100
M204 S800
;TYPE:Solid infill
;WIDTH:0.421778
G1 F1200
G1 X148.565 Y79.032 E.03547
G1 X148.06 Y79.032 E.02253
G1 X148.968 Y79.94 E.05724
G1 X148.968 Y80.446 E.02253
G1 X147.554 Y79.032 E.08911
G1 X147.049 Y79.032 E.02253
G1 X148.968 Y80.951 E.12097
G1 X148.968 Y81.457 E.02253
G1 X146.543 Y79.032 E.15283
G1 X146.038 Y79.032 E.02253
G1 X148.968 Y81.962 E.1847
G1 X148.968 Y82.468 E.02253
G1 X145.532 Y79.032 E.21656
G1 X145.027 Y79.032 E.02253
G1 X148.968 Y82.973 E.24842
G1 X148.968 Y83.478 E.02253
M73 Q1 S47
G1 X144.522 Y79.032 E.28028
G1 X144.016 Y79.032 E.02253
G1 X148.968 Y83.984 E.31215
G1 X148.968 Y84.489 E.02253
G1 X143.511 Y79.032 E.34401
G1 X143.005 Y79.032 E.02253
G1 X148.968 Y84.995 E.37587
G1 X148.968 Y85.5 E.02253
G1 X142.5 Y79.032 E.40774
G1 X141.994 Y79.032 E.02253
G1 X148.968 Y86.006 E.4396
G1 X148.968 Y86.511 E.02253
G1 X141.489 Y79.032 E.47146
G1 X140.984 Y79.032 E.02253
G1 X148.968 Y87.016 E.50333
G1 X148.968 Y87.522 E.02253
G1 X140.478 Y79.032 E.53519
G1 X139.973 Y79.032 E.02253
G1 X148.968 Y88.027 E.56705
G1 X148.968 Y88.533 E.02253
G1 X139.467 Y79.032 E.59892
G1 X138.962 Y79.032 E.02253
G1 X148.968 Y89.038 E.63078
G1 X148.968 Y89.544 E.02253
G1 X138.456 Y79.032 E.66264
G1 X137.951 Y79.032 E.02253
G1 X148.968 Y90.049 E.6945
G1 X148.968 Y90.555 E.02253
G1 X137.445 Y79.032 E.72637
G1 X136.94 Y79.032 E.02253
G1 X148.968 Y91.06 E.75823
G1 X148.968 Y91.565 E.02253
G1 X136.435 Y79.032 E.79009
G1 X135.929 Y79.032 E.02253
G1 X148.968 Y92.071 E.82196
G1 X148.968 Y92.576 E.02253
G1 X135.424 Y79.032 E.85382
G1 X134.918 Y79.032 E.02253
G1 X148.968 Y93.082 E.88568
G1 X148.968 Y93.587 E.02253
G1 X134.413 Y79.032 E.91755
G1 X133.907 Y79.032 E.02253
G1 X148.968 Y94.093 E.94941
G1 X148.968 Y94.598 E.02253
G1 X133.402 Y79.032 E.98127
G1 X132.897 Y79.032 E.02253
M73 P2 R47
M73 Q2 S47
G1 X148.968 Y95.103 E1.01313
G1 X148.968 Y95.609 E.02253
G1 X132.391 Y79.032 E1.045
G1 X131.886 Y79.032 E.02253
G1 X148.968 Y96.114 E1.07686
G1 X148.968 Y96.62 E.02253
G1 X131.38 Y79.032 E1.10872
G1 X130.875 Y79.032 E.02253
G1 X148.968 Y97.125 E1.14059
G1 X148.968 Y97.631 E.02253
M73 P2 R46
G1 X130.369 Y79.032 E1.17245
G1 X129.864 Y79.032 E.02253
G1 X148.968 Y98.136 E1.20431
G1 X148.968 Y98.641 E.02253
G1 X129.359 Y79.032 E1.23618
G1 X128.853 Y79.032 E.02253
G1 X148.968 Y99.147 E1.26804
G1 X148.968 Y99.652 E.02253
G1 X128.348 Y79.032 E1.2999
G1 X127.842 Y79.032 E.02253
G1 X148.968 Y100.158 E1.33176
G1 X148.968 Y100.663 E.02253
G1 X127.337 Y79.032 E1.36363
G1 X126.831 Y79.032 E.02253
G1 X148.968 Y101.169 E1.39549
G1 X148.968 Y101.674 E.02253
G1 X126.326 Y79.032 E1.42735
G1 X125.82 Y79.032 E.02253
G1 X148.968 Y102.18 E1.45922
G1 X148.968 Y102.685 E.02253
G1 X125.315 Y79.032 E1.49108
G1 X124.81 Y79.032 E.02253
G1 X148.968 Y103.19 E1.52294
G1 X148.968 Y103.696 E.02253
G1 X124.304 Y79.032 E1.55481
G1 X123.799 Y79.032 E.02253
G1 X148.968 Y104.201 E1.58667
G1 X148.968 Y104.707 E.02253
M73 P3 R46
G1 X123.293 Y79.032 E1.61853
G1 X122.788 Y79.032 E.02253
M73 Q3 S47
G1 X148.968 Y105.212 E1.6504
G1 X148.968 Y105.718 E.02253
G1 X122.282 Y79.032 E1.68226
G1 X121.777 Y79.032 E.02253
G1 X148.968 Y106.223 E1.71412
G1 X148.968 Y106.728 E.02253
G1 X121.272 Y79.032 E1.74598
G1 X120.766 Y79.032 E.02253
G1 X148.968 Y107.234 E1.77785
G1 X148.968 Y107.739 E.02253
G1 X120.261 Y79.032 E1.80971
G1 X119.755 Y79.032 E.02253
G1 X148.968 Y108.245 E1.84157
G1 X148.968 Y108.75 E.02253
M73 Q3 S46
G1 X119.25 Y79.032 E1.87344
G1 X118.744 Y79.032 E.02253
G1 X148.968 Y109.256 E1.9053
G1 X148.968 Y109.761 E.02253
G1 X118.239 Y79.032 E1.93716
G1 X117.733 Y79.032 E.02253
G1 X148.968 Y110.267 E1.96903
G1 X148.968 Y110.772 E.02253
G1 X117.228 Y79.032 E2.00089
G1 X116.723 Y79.032 E.02253
G1 X148.968 Y111.277 E2.03275
G1 X148.968 Y111.783 E.02253
M73 P4 R46
G1 X116.217 Y79.032 E2.06461
G1 X115.712 Y79.032 E.02253
M73 Q4 S46
G1 X148.968 Y112.288 E2.09648
G1 X148.968 Y112.794 E.02253
G1 X115.206 Y79.032 E2.12834
G1 X114.701 Y79.032 E.02253
G1 X148.968 Y113.299 E2.1602
G1 X148.968 Y113.805 E.02253
M73 P4 R45
G1 X114.195 Y79.032 E2.19207
G1 X113.69 Y79.032 E.02253
G1 X148.968 Y114.31 E2.22393
G1 X148.968 Y114.815 E.02253
G1 X113.185 Y79.032 E2.25579
G1 X112.679 Y79.032 E.02253
G1 X148.968 Y115.321 E2.28766
G1 X148.968 Y115.826 E.02253
G1 X112.174 Y79.032 E2.31952
G1 X111.668 Y79.032 E.02253
G1 X148.968 Y116.332 E2.35138
G1 X148.968 Y116.837 E.02253
G1 X111.163 Y79.032 E2.38324
G1 X110.657 Y79.032 E.02253
G1 X148.968 Y117.343 E2.41511
G1 X148.968 Y117.848 E.02253
M73 P5 R45
M73 Q5 S46
G1 X110.152 Y79.032 E2.44697
G1 X109.647 Y79.032 E.02253
G1 X148.968 Y118.353 E2.47883
G1 X148.968 Y118.859 E.02253
G1 X109.141 Y79.032 E2.5107
G1 X108.636 Y79.032 E.02253
G1 X148.968 Y119.364 E2.54256
G1 X148.968 Y119.87 E.02253
G1 X108.13 Y79.032 E2.57442
G1 X107.625 Y79.032 E.02253
G1 X148.968 Y120.375 E2.60629
G1 X148.968 Y120.881 E.02253
M73 Q5 S45
G1 X107.119 Y79.032 E2.63815
G1 X106.614 Y79.032 E.02253
G1 X148.968 Y121.386 E2.67001
G1 X148.968 Y121.892 E.02253
G1 X106.108 Y79.032 E2.70188
G1 X105.603 Y79.032 E.02253
M73 P6 R45
G1 X148.968 Y122.397 E2.73374
G1 X148.968 Y122.902 E.02253
M73 Q6 S45
G1 X105.098 Y79.032 E2.7656
G1 X104.592 Y79.032 E.02253
G1 X148.968 Y123.408 E2.79746
G1 X148.968 Y123.913 E.02253
G1 X104.087 Y79.032 E2.82933
G1 X103.581 Y79.032 E.02253
M73 P6 R44
G1 X148.968 Y124.419 E2.86119
G1 X148.968 Y124.924 E.02253
G1 X103.076 Y79.032 E2.89305
G1 X102.57 Y79.032 E.02253
G1 X148.968 Y125.43 E2.92492
G1 X148.968 Y125.935 E.02253
G1 X102.065 Y79.032 E2.95678
G1 X101.56 Y79.032 E.02253
G1 X148.968 Y126.44 E2.98864
G1 X148.968 Y126.946 E.02253
M73 P7 R44
G1 X101.054 Y79.032 E3.02051
G1 X101.032 Y79.032 E.00097
M73 Q7 S45
G1 X101.032 Y79.516 E.02156
G1 X148.968 Y127.451 E3.02188
G1 X148.968 Y127.957 E.02253
G1 X101.032 Y80.021 E3.02188
G1 X101.032 Y80.527 E.02253
G1 X148.968 Y128.462 E3.02188
G1 X148.968 Y128.968 E.02253
G1 X101.032 Y81.032 E3.02188
G1 X101.032 Y81.538 E.02253
G1 X148.968 Y129.473 E3.02188
G1 X148.968 Y129.978 E.02253
M73 Q7 S44
G1 X101.032 Y82.043 E3.02188
G1 X101.032 Y82.549 E.02253
G1 X148.968 Y130.484 E3.02188
G1 X148.968 Y130.968 E.02156
G1 X148.946 Y130.968 E.00097
G1 X101.032 Y83.054 E3.02051
G1 X101.032 Y83.559 E.02253
M73 P8 R44
G1 X148.441 Y130.968 E2.98865
G1 X147.935 Y130.968 E.02253
M73 Q8 S44
G1 X101.032 Y84.065 E2.95679
G1 X101.032 Y84.57 E.02253
G1 X147.43 Y130.968 E2.92492
G1 X146.924 Y130.968 E.02253
G1 X101.032 Y85.076 E2.89306
G1 X101.032 Y85.581 E.02253
M73 P8 R43
G1 X146.419 Y130.968 E2.8612
G1 X145.913 Y130.968 E.02253
G1 X101.032 Y86.087 E2.82933
G1 X101.032 Y86.592 E.02253
G1 X145.408 Y130.968 E2.79747
G1 X144.903 Y130.968 E.02253
G1 X101.032 Y87.097 E2.76561
G1 X101.032 Y87.603 E.02253
G1 X144.397 Y130.968 E2.73375
G1 X143.892 Y130.968 E.02253
M73 P9 R43
G1 X101.032 Y88.108 E2.70188
G1 X101.032 Y88.614 E.02253
M73 Q9 S44
G1 X143.386 Y130.968 E2.67002
G1 X142.881 Y130.968 E.02253
G1 X101.032 Y89.119 E2.63816
G1 X101.032 Y89.625 E.02253
G1 X142.375 Y130.968 E2.60629
G1 X141.87 Y130.968 E.02253
G1 X101.032 Y90.13 E2.57443
G1 X101.032 Y90.636 E.02253
G1 X141.364 Y130.968 E2.54257
G1 X140.859 Y130.968 E.02253
G1 X101.032 Y91.141 E2.5107
G1 X101.032 Y91.646 E.02253
M73 Q9 S43
G1 X140.354 Y130.968 E2.47884
G1 X139.848 Y130.968 E.02253
G1 X101.032 Y92.152 E2.44698
G1 X101.032 Y92.657 E.02253
M73 P10 R43
G1 X139.343 Y130.968 E2.41511
G1 X138.837 Y130.968 E.02253
G1 X101.032 Y93.163 E2.38325
G1 X101.032 Y93.668 E.02253
M73 Q10 S43
G1 X138.332 Y130.968 E2.35139
G1 X137.826 Y130.968 E.02253
G1 X101.032 Y94.174 E2.31953
G1 X101.032 Y94.679 E.02253
G1 X137.321 Y130.968 E2.28766
G1 X136.816 Y130.968 E.02253
G1 X101.032 Y95.184 E2.2558
G1 X101.032 Y95.69 E.02253
M73 P10 R42
G1 X136.31 Y130.968 E2.22394
G1 X135.805 Y130.968 E.02253
G1 X101.032 Y96.195 E2.19207
G1 X101.032 Y96.701 E.02253
G1 X135.299 Y130.968 E2.16021
G1 X134.794 Y130.968 E.02253
G1 X101.032 Y97.206 E2.12835
G1 X101.032 Y97.712 E.02253
G1 X134.288 Y130.968 E2.09648
G1 X133.783 Y130.968 E.02253
G1 X101.032 Y98.217 E2.06462
G1 X101.032 Y98.723 E.02253
M73 P11 R42
G1 X133.277 Y130.968 E2.03276
G1 X132.772 Y130.968 E.02253
M73 Q11 S43
G1 X101.032 Y99.228 E2.0009
G1 X101.032 Y99.733 E.02253
G1 X132.267 Y130.968 E1.96903
G1 X131.761 Y130.968 E.02253
G1 X101.032 Y100.239 E1.93717
G1 X101.032 Y100.744 E.02253
G1 X131.256 Y130.968 E1.90531
G1 X130.75 Y130.968 E.02253
G1 X101.032 Y101.25 E1.87344
G1 X101.032 Y101.755 E.02253
G1 X130.245 Y130.968 E1.84158
G1 X129.739 Y130.968 E.02253
G1 X101.032 Y102.261 E1.80972
G1 X101.032 Y102.766 E.02253
G1 X129.234 Y130.968 E1.77785
G1 X128.729 Y130.968 E.02253
G1 X101.032 Y103.271 E1.74599
G1 X101.032 Y103.777 E.02253
G1 X128.223 Y130.968 E1.71413
G1 X127.718 Y130.968 E.02253
M73 Q11 S42
G1 X101.032 Y104.282 E1.68227
G1 X101.032 Y104.788 E.02253
G1 X127.212 Y130.968 E1.6504
G1 X126.707 Y130.968 E.02253
M73 P12 R42
G1 X101.032 Y105.293 E1.61854
G1 X101.032 Y105.799 E.02253
G1 X126.201 Y130.968 E1.58668
G1 X125.696 Y130.968 E.02253
M73 Q12 S42
G1 X101.032 Y106.304 E1.55481
G1 X101.032 Y106.809 E.02253
G1 X125.191 Y130.968 E1.52295
G1 X124.685 Y130.968 E.02253
G1 X101.032 Y107.315 E1.49109
G1 X101.032 Y107.82 E.02253
G1 X124.18 Y130.968 E1.45922
G1 X123.674 Y130.968 E.02253
G1 X101.032 Y108.326 E1.42736
G1 X101.032 Y108.831 E.02253
G1 X123.169 Y130.968 E1.3955
G1 X122.663 Y130.968 E.02253
G1 X101.032 Y109.337 E1.36363
G1 X101.032 Y109.842 E.02253
G1 X122.158 Y130.968 E1.33177
G1 X121.652 Y130.968 E.02253
M73 P12 R41
G1 X101.032 Y110.348 E1.29991
G1 X101.032 Y110.853 E.02253
G1 X121.147 Y130.968 E1.26805
G1 X120.642 Y130.968 E.02253
G1 X101.032 Y111.358 E1.23618
G1 X101.032 Y111.864 E.02253
G1 X120.136 Y130.968 E1.20432
G1 X119.631 Y130.968 E.02253
G1 X101.032 Y112.369 E1.17246
G1 X101.032 Y112.875 E.02253
G1 X119.125 Y130.968 E1.14059
G1 X118.62 Y130.968 E.02253
G1 X101.032 Y113.38 E1.10873
G1 X101.032 Y113.886 E.02253
G1 X118.114 Y130.968 E1.07687
G1 X117.609 Y130.968 E.02253
G1 X101.032 Y114.391 E1.045
G1 X101.032 Y114.896 E.02253
M73 P13 R41
G1 X117.104 Y130.968 E1.01314
G1 X116.598 Y130.968 E.02253
G1 X101.032 Y115.402 E.98128
G1 X101.032 Y115.907 E.02253
G1 X116.093 Y130.968 E.94942
G1 X115.587 Y130.968 E.02253
G1 X101.032 Y116.413 E.91755
M73 Q13 S42
G1 X101.032 Y116.918 E.02253
G1 X115.082 Y130.968 E.88569
G1 X114.576 Y130.968 E.02253
G1 X101.032 Y117.424 E.85383
G1 X101.032 Y117.929 E.02253
G1 X114.071 Y130.968 E.82196
G1 X113.565 Y130.968 E.02253
G1 X101.032 Y118.435 E.7901
G1 X101.032 Y118.94 E.02253
G1 X113.06 Y130.968 E.75824
G1 X112.555 Y130.968 E.02253
G1 X101.032 Y119.445 E.72637
G1 X101.032 Y119.951 E.02253
G1 X112.049 Y130.968 E.69451
G1 X111.544 Y130.968 E.02253
G1 X101.032 Y120.456 E.66265
G1 X101.032 Y120.962 E.02253
G1 X111.038 Y130.968 E.63079
G1 X110.533 Y130.968 E.02253
G1 X101.032 Y121.467 E.59892
G1 X101.032 Y121.973 E.02253
G1 X110.027 Y130.968 E.56706
G1 X109.522 Y130.968 E.02253
G1 X101.032 Y122.478 E.5352
G1 X101.032 Y122.983 E.02253
G1 X109.017 Y130.968 E.50333
G1 X108.511 Y130.968 E.02253
G1 X101.032 Y123.489 E.47147
G1 X101.032 Y123.994 E.02253
G1 X108.006 Y130.968 E.43961
G1 X107.5 Y130.968 E.02253
G1 X101.032 Y124.5 E.40774
G1 X101.032 Y125.005 E.02253
G1 X106.995 Y130.968 E.37588
G1 X106.489 Y130.968 E.02253
G1 X101.032 Y125.511 E.34402
G1 X101.032 Y126.016 E.02253
G1 X105.984 Y130.968 E.31215
G1 X105.479 Y130.968 E.02253
G1 X101.032 Y126.521 E.28029
G1 X101.032 Y127.027 E.02253
G1 X104.973 Y130.968 E.24843
G1 X104.468 Y130.968 E.02253
G1 X101.032 Y127.532 E.21657
G1 X101.032 Y128.038 E.02253
G1 X103.962 Y130.968 E.1847
G1 X103.457 Y130.968 E.02253
G1 X101.032 Y128.543 E.15284
G1 X101.032 Y129.049 E.02253
G1 X102.951 Y130.968 E.12098
G1 X102.446 Y130.968 E.02253
G1 X101.032 Y129.554 E.08911
G1 X101.032 Y130.06 E.02253
G1 X101.94 Y130.968 E.05725
G1 X101.435 Y130.968 E.02253
G1 X100.872 Y130.405 E.03548
M204 S1000
; stop printing object 5L_hipjoint_upper-Body.stl id:0 copy 0
;LAYER_CHANGE
;Z:0.6
;HEIGHT:0.3
;BEFORE_LAYER_CHANGE
G92 E0.0
;0.6


;WIPE_START
G1 F8640
G1 X101.435 Y130.968 E-.18376
G1 X101.94 Y130.968 E-.11671
G1 X101.032 Y130.06 E-.29655
G1 X101.032 Y129.554 E-.11671
G1 X102.446 Y130.968 E-.4616
G1 X102.951 Y130.968 E-.11671
G1 X102.835 Y130.851 E-.03796
;WIPE_END
G1 E-.07 F2100
G1 Z.5 F720
G1 Z.6
;AFTER_LAYER_CHANGE
;0.6
M140 S90 ; set bed temperature
G1 Z.8
G1 X102.835 Y134.356 F10800
G1 Z.6 F720
G1 E1.4 F2100
;TYPE:Skirt/Brim
;WIDTH:0.42
G1 F2700
G1 X100 Y134.356 E.12575
G1 X98.7 Y133.964 E.06024
G1 X97.831 Y132.92 E.06024
G1 X97.644 Y132 E.04163
G1 X97.644 Y78 E2.39516
G1 X98.036 Y76.7 E.06024
G1 X99.08 Y75.831 E.06024
G1 X100 Y75.644 E.04163
G1 X150 Y75.644 E2.21774
G1 X151.3 Y76.036 E.06024
G1 X152.169 Y77.08 E.06024
G1 X152.356 Y78 E.04163
G1 X152.356 Y132 E2.39516
G1 X151.964 Y133.3 E.06024
G1 X150.92 Y134.169 E.06024
G1 X150 Y134.356 E.04163
G1 X102.895 Y134.356 E2.08933
; printing object 5L_hipjoint_upper-Body.stl id:0 copy 0
;WIPE_START
G1 F8640
M73 Q13 S41
G1 X100 Y134.356 E-.66848
G1 X98.7 Y133.964 E-.31359
G1 X97.831 Y132.92 E-.31359
