; generated by PrusaSlicer 2.5.0 on 2022-12-03 at 14:43:53 UTC


;
;
; 

; external perimeters extrusion width = 0.60mm
; perimeters extrusion width = 0.50mm
; infill extrusion width = 0.50mm
; solid infill extrusion width = 0.50mm
; top infill extrusion width = 0.45mm
; first layer extrusion width = 0.42mm

; external perimeters extrusion width = 0.60mm
; perimeters extrusion width = 0.50mm
; infill extrusion width = 0.50mm
; solid infill extrusion width = 0.50mm
; top infill extrusion width = 0.45mm
; first layer extrusion width = 0.42mm

M73 P0 R83
M73 Q0 S84
M201 X1000 Y1000 Z200 E5000 ; sets maximum accelerations, mm/sec^2
M203 X200 Y200 Z12 E120 ; sets maximum feedrates, mm / sec
M204 P1250 R1250 T1250 ; sets acceleration (P, T) and retract acceleration (R), mm/sec^2
M205 X8.00 Y8.00 Z0.40 E4.50 ; sets the jerk limits, mm/sec
M205 S0 T0 ; sets the minimum extruding and travel feed rate, mm/sec
M107
;TYPE:Custom
M862.3 P "MK3S" ; printer model check
M862.1 P0.4 ; nozzle diameter check
M115 U3.11.0 ; tell printer latest fw version
G90 ; use absolute coordinates
M83 ; extruder relative mode
M104 S240 ; set extruder temp
M140 S95 ; set bed temp
M190 S95 ; wait for bed temp
M109 S240 ; wait for extruder temp
G28 W ; home all without mesh bed level
G80 ; mesh bed leveling

G1 Z0.2 F720
G1 Y-3 F1000 ; go outside print area
G92 E0
G1 X60 E9 F1000 ; intro line
G1 X100 E12.5 F1000 ; intro line

G92 E0
M221 S95

; Don't change E values below. Excessive value can damage the printer.

M907 E538 ; set extruder motor current
G21 ; set units to millimeters
G90 ; use absolute coordinates
M83 ; use relative distances for extrusion
M900 K0.08 ; Filament gcode LA 1.5
M900 K45 ; Filament gcode LA 1.0
M107
;LAYER_CHANGE
;Z:0.3
;HEIGHT:0.3
;BEFORE_LAYER_CHANGE
G92 E0.0
;0.3


G1 E-1.4 F2100
G1 Z.2 F720
G1 Z.3
;AFTER_LAYER_CHANGE
;0.3
G1 Z.5
G1 X74.036 Y58.7 F10800
G1 Z.3 F720
G1 E1.4 F2100
M204 S800
;TYPE:Skirt/Brim
;WIDTH:0.42
G1 F1200
G1 X75.08 Y57.831 E.06024
G1 X76 Y57.644 E.04163
G1 X181 Y57.644 E4.65726
G1 X182.3 Y58.036 E.06024
G1 X183.169 Y59.08 E.06024
G1 X183.356 Y60 E.04163
G1 X183.356 Y110 E2.21774
G1 X182.964 Y111.3 E.06024
G1 X181.92 Y112.169 E.06024
G1 X181 Y112.356 E.04163
G1 X76 Y112.356 E4.65726
G1 X74.7 Y111.964 E.06024
G1 X73.831 Y110.92 E.06024
G1 X73.644 Y110 E.04163
G1 X73.644 Y60 E2.21774
G1 X74.019 Y58.757 E.05758
M204 S1000
; printing object 5R_hipjoint_lower-Body.stl id:0 copy 0
;WIPE_START
G1 F8640
G1 X75.08 Y57.831 E-.32524
G1 X76 Y57.644 E-.21671
G1 X79.413 Y57.644 E-.78805
;WIPE_END
G1 E-.07 F2100
G1 Z.5 F720
G1 X129.766 Y60.766 F10800
G1 Z.3 F720
G1 E1.4 F2100
M204 S800
;TYPE:Perimeter
;WIDTH:0.42
G1 F1200
M73 P0 R82
G1 X180.234 Y60.766 E2.23853
G1 X180.234 Y109.234 E2.14982
G1 X129.766 Y109.234 E2.23853
G1 X129.766 Y60.826 E2.14716
M204 S1000
G1 X129.41 Y60.41 F10800
M204 S800
;TYPE:External perimeter
G1 F1200
G1 X180.59 Y60.41 E2.27008
G1 X180.59 Y109.59 E2.18137
G1 X129.41 Y109.59 E2.27008
G1 X129.41 Y60.47 E2.17871
M204 S1000
G1 X129.797 Y60.511 F10800
;WIPE_START
G1 F8640
G1 X135.17 Y60.463 E-1.33
;WIPE_END
G1 E-.07 F2100
G1 Z.5 F720
G1 X133.417 Y64.388 F10800
G1 Z.3 F720
G1 E1.4 F2100
M204 S800
;TYPE:Perimeter
G1 F1200
G1 X133.815 Y64.071 E.02257
G1 X134.22 Y63.875 E.01997
G1 X134.644 Y63.764 E.01944
G1 X135.005 Y63.736 E.01605
G1 X135.452 Y63.782 E.01993
G1 X135.882 Y63.915 E.01993
G1 X136.275 Y64.129 E.01987
G1 X136.62 Y64.419 E.01997
G1 X136.901 Y64.77 E.01997
G1 X137.107 Y65.171 E.01997
G1 X137.229 Y65.604 E.01997
G1 X137.263 Y66.053 E.01997
G1 X137.208 Y66.5 E.01997
G1 X137.065 Y66.927 E.01997
G1 X136.841 Y67.317 E.01997
G1 X136.544 Y67.655 E.01997
G1 X136.186 Y67.928 E.01996
G1 X135.795 Y68.12 E.01934
G1 X135.445 Y68.22 E.01614
G1 X134.998 Y68.264 E.01992
G1 X134.552 Y68.219 E.01988
G1 X134.122 Y68.087 E.01997
G1 X133.726 Y67.872 E.01997
G1 X133.381 Y67.583 E.01996
G1 X133.1 Y67.23 E.02001
G1 X132.895 Y66.832 E.01987
G1 X132.772 Y66.399 E.01997
G1 X132.737 Y66.06 E.01512
G1 X132.792 Y65.5 E.02497
G1 X132.935 Y65.072 E.02
G1 X133.161 Y64.68 E.02006
G1 X133.378 Y64.433 E.01456
M204 S1000
G1 X133.678 Y64.623 F10800
M204 S800
;TYPE:External perimeter
G1 F1200
G1 X133.978 Y64.387 E.01693
G1 X134.317 Y64.217 E.01684
G1 X134.679 Y64.117 E.01665
G1 X134.977 Y64.091 E.01328
G1 X135.355 Y64.124 E.01681
G1 X135.719 Y64.231 E.01682
G1 X136.053 Y64.407 E.01675
G1 X136.347 Y64.647 E.01684
G1 X136.588 Y64.94 E.01684
G1 X136.767 Y65.276 E.01684
G1 X136.875 Y65.64 E.01684
G1 X136.909 Y66.018 E.01684
G1 X136.868 Y66.395 E.01684
G1 X136.753 Y66.757 E.01684
G1 X136.568 Y67.089 E.01684
G1 X136.322 Y67.378 E.01684
G1 X136.023 Y67.612 E.01684
G1 X135.69 Y67.781 E.01656
G1 X135.402 Y67.867 E.01335
G1 X135.025 Y67.909 E.0168
G1 X134.649 Y67.877 E.01676
G1 X134.284 Y67.77 E.01684
G1 X133.948 Y67.594 E.01684
G1 X133.654 Y67.354 E.01683
G1 X133.412 Y67.06 E.01689
G1 X133.234 Y66.727 E.01675
G1 X133.125 Y66.363 E.01685
G1 X133.091 Y66.024 E.01512
G1 X133.132 Y65.604 E.01869
G1 X133.247 Y65.242 E.01686
G1 X133.433 Y64.908 E.01694
G1 X133.639 Y64.668 E.01401
M204 S1000
G1 X133.586 Y64.252 F10800
;WIPE_START
G1 F8640
G1 X133.978 Y64.387 E-.10173
G1 X134.317 Y64.217 E-.08768
G1 X134.679 Y64.117 E-.0867
G1 X134.977 Y64.091 E-.06914
G1 X135.355 Y64.124 E-.08751
G1 X135.719 Y64.231 E-.08756
G1 X136.053 Y64.407 E-.08721
G1 X136.347 Y64.647 E-.08767
G1 X136.588 Y64.94 E-.08768
G1 X136.767 Y65.276 E-.08768
G1 X136.875 Y65.64 E-.08768
G1 X136.909 Y66.018 E-.08767
G1 X136.868 Y66.395 E-.08767
G1 X136.753 Y66.757 E-.08768
G1 X136.568 Y67.089 E-.08768
G1 X136.509 Y67.158 E-.02106
;WIPE_END
G1 E-.07 F2100
G1 Z.5 F720
G1 X137.259 Y103.995 F10800
G1 Z.3 F720
G1 E1.4 F2100
M204 S800
;TYPE:Perimeter
G1 F1200
G1 X137.208 Y104.5 E.02249
G1 X137.065 Y104.927 E.01997
G1 X136.841 Y105.317 E.01997
G1 X136.544 Y105.655 E.01997
G1 X136.186 Y105.928 E.01996
G1 X135.795 Y106.12 E.01934
G1 X135.445 Y106.22 E.01613
G1 X134.998 Y106.264 E.01992
G1 X134.552 Y106.219 E.01988
G1 X134.122 Y106.087 E.01997
G1 X133.726 Y105.872 E.01997
G1 X133.381 Y105.583 E.01996
G1 X133.1 Y105.23 E.02001
G1 X132.895 Y104.832 E.01987
G1 X132.772 Y104.399 E.01997
G1 X132.737 Y104.06 E.01512
G1 X132.792 Y103.5 E.02497
G1 X132.935 Y103.072 E.02
G1 X133.161 Y102.68 E.02006
G1 X133.455 Y102.345 E.01978
G1 X133.815 Y102.071 E.02006
G1 X134.22 Y101.875 E.01997
G1 X134.644 Y101.764 E.01944
G1 X135.005 Y101.736 E.01605
G1 X135.452 Y101.782 E.01993
G1 X135.882 Y101.915 E.01993
G1 X136.275 Y102.129 E.01987
G1 X136.62 Y102.419 E.01997
G1 X136.901 Y102.77 E.01997
G1 X137.107 Y103.171 E.01997
G1 X137.229 Y103.604 E.01997
G1 X137.254 Y103.935 E.01474
M204 S1000
G1 X136.909 Y104.018 F10800
M204 S800
;TYPE:External perimeter
G1 F1200
G1 X136.868 Y104.395 E.01684
G1 X136.753 Y104.757 E.01684
G1 X136.569 Y105.089 E.01684
G1 X136.322 Y105.378 E.01684
G1 X136.023 Y105.612 E.01684
G1 X135.69 Y105.781 E.01657
G1 X135.402 Y105.867 E.01335
G1 X135.025 Y105.909 E.0168
G1 X134.649 Y105.877 E.01676
G1 X134.284 Y105.77 E.01684
G1 X133.948 Y105.594 E.01684
G1 X133.654 Y105.354 E.01683
G1 X133.412 Y105.06 E.01689
G1 X133.234 Y104.727 E.01675
G1 X133.125 Y104.363 E.01685
G1 X133.091 Y104.024 E.01512
G1 X133.132 Y103.604 E.01869
G1 X133.247 Y103.242 E.01686
G1 X133.433 Y102.908 E.01694
G1 X133.678 Y102.623 E.01667
G1 X133.978 Y102.387 E.01693
G1 X134.317 Y102.217 E.01684
G1 X134.679 Y102.117 E.01666
G1 X134.977 Y102.091 E.01328
G1 X135.355 Y102.124 E.01681
G1 X135.719 Y102.231 E.01682
G1 X136.053 Y102.407 E.01675
G1 X136.347 Y102.647 E.01684
G1 X136.588 Y102.94 E.01684
G1 X136.767 Y103.276 E.01684
G1 X136.875 Y103.64 E.01684
G1 X136.904 Y103.958 E.01418
M204 S1000
G1 X137.236 Y104.211 F10800
;WIPE_START
G1 F8640
G1 X136.868 Y104.395 E-.10129
G1 X136.753 Y104.757 E-.08768
G1 X136.569 Y105.089 E-.08768
G1 X136.322 Y105.378 E-.08768
G1 X136.023 Y105.612 E-.08766
G1 X135.69 Y105.781 E-.08624
G1 X135.402 Y105.867 E-.0695
G1 X135.025 Y105.909 E-.08747
G1 X134.649 Y105.877 E-.08725
G1 X134.284 Y105.77 E-.08767
G1 X133.948 Y105.594 E-.08767
G1 X133.654 Y105.354 E-.0876
G1 X133.412 Y105.06 E-.08792
G1 X133.234 Y104.727 E-.08721
G1 X133.125 Y104.363 E-.08772
G1 X133.116 Y104.269 E-.02175
;WIPE_END
G1 E-.07 F2100
G1 Z.5 F720
G1 X173.017 Y102.919 F10800
G1 Z.3 F720
G1 E1.4 F2100
M204 S800
;TYPE:Perimeter
G1 F1200
G1 X173.303 Y102.502 E.02241
G1 X173.633 Y102.196 E.01998
G1 X174.017 Y101.961 E.01998
G1 X174.441 Y101.806 E.01998
G1 X174.886 Y101.739 E.01998
G1 X175.336 Y101.761 E.01998
G1 X175.773 Y101.872 E.01998
G1 X176.179 Y102.067 E.01998
G1 X176.538 Y102.339 E.01999
G1 X176.838 Y102.678 E.02004
G1 X177.062 Y103.066 E.01989
G1 X177.206 Y103.493 E.01999
G1 X177.263 Y103.938 E.01991
G1 X177.23 Y104.387 E.01997
G1 X177.107 Y104.829 E.02035
G1 X176.904 Y105.225 E.01974
G1 X176.636 Y105.566 E.01921
G1 X176.37 Y105.802 E.01578
G1 X175.987 Y106.038 E.01997
G1 X175.564 Y106.193 E.01998
G1 X175.118 Y106.261 E.01998
G1 X174.668 Y106.239 E.01998
G1 X174.231 Y106.129 E.01998
G1 X173.825 Y105.935 E.01998
G1 X173.465 Y105.664 E.01997
G1 X173.167 Y105.329 E.01989
G1 X172.94 Y104.94 E.01998
G1 X172.795 Y104.513 E.01998
G1 X172.743 Y104.173 E.01527
G1 X172.754 Y103.715 E.02033
G1 X172.855 Y103.276 E.01996
G1 X172.992 Y102.974 E.01473
M204 S1000
G1 X173.334 Y103.067 F10800
M204 S800
;TYPE:External perimeter
G1 F1200
M73 Q0 S83
G1 X173.551 Y102.757 E.01677
G1 X173.825 Y102.495 E.01686
G1 X174.147 Y102.292 E.01685
G1 X174.502 Y102.157 E.01686
G1 X174.877 Y102.095 E.01685
G1 X175.257 Y102.108 E.01685
G1 X175.626 Y102.196 E.01686
G1 X175.971 Y102.356 E.01686
G1 X176.277 Y102.581 E.01686
G1 X176.534 Y102.863 E.01691
G1 X176.728 Y103.187 E.01677
G1 X176.855 Y103.546 E.01686
G1 X176.908 Y103.921 E.0168
G1 X176.886 Y104.299 E.01681
G1 X176.786 Y104.674 E.01721
G1 X176.62 Y105.011 E.01664
G1 X176.394 Y105.305 E.01648
G1 X176.177 Y105.503 E.01302
G1 X175.856 Y105.707 E.01684
G1 X175.501 Y105.842 E.01686
G1 X175.127 Y105.905 E.01686
G1 X174.747 Y105.893 E.01685
G1 X174.377 Y105.805 E.01685
G1 X174.032 Y105.646 E.01685
G1 X173.725 Y105.422 E.01685
G1 X173.47 Y105.143 E.01677
G1 X173.274 Y104.817 E.01685
G1 X173.147 Y104.459 E.01685
G1 X173.094 Y104.119 E.01527
G1 X173.103 Y103.786 E.01476
G1 X173.182 Y103.415 E.01683
G1 X173.31 Y103.122 E.01418
M204 S1000
G1 X173.141 Y102.742 F10800
;WIPE_START
G1 F8640
G1 X173.551 Y102.757 E-.10094
G1 X173.825 Y102.495 E-.08775
M73 P1 R82
G1 X174.147 Y102.292 E-.08774
G1 X174.502 Y102.157 E-.08775
G1 X174.877 Y102.095 E-.08774
G1 X175.257 Y102.108 E-.08774
G1 X175.626 Y102.196 E-.08775
G1 X175.971 Y102.356 E-.08774
G1 X176.277 Y102.581 E-.08776
G1 X176.534 Y102.863 E-.08805
G1 X176.728 Y103.187 E-.08728
G1 X176.855 Y103.546 E-.08778
G1 X176.908 Y103.921 E-.08744
G1 X176.886 Y104.299 E-.08751
G1 X176.787 Y104.672 E-.08902
;WIPE_END
G1 E-.07 F2100
G1 Z.5 F720
G1 X175.717 Y63.858 F10800
G1 Z.3 F720
M73 Q1 S83
G1 E1.4 F2100
M204 S800
;TYPE:Perimeter
G1 F1200
G1 X176.179 Y64.067 E.02251
G1 X176.542 Y64.343 E.02022
G1 X176.838 Y64.678 E.01981
G1 X177.062 Y65.066 E.01989
G1 X177.206 Y65.493 E.01999
G1 X177.263 Y65.938 E.01991
G1 X177.23 Y66.387 E.01997
G1 X177.107 Y66.829 E.02035
G1 X176.904 Y67.225 E.01974
G1 X176.636 Y67.566 E.01921
G1 X176.37 Y67.802 E.01578
G1 X175.987 Y68.038 E.01997
G1 X175.564 Y68.193 E.01998
G1 X175.118 Y68.261 E.01998
G1 X174.668 Y68.239 E.01998
G1 X174.231 Y68.129 E.01998
G1 X173.825 Y67.935 E.01998
G1 X173.465 Y67.664 E.01997
G1 X173.167 Y67.329 E.01989
G1 X172.94 Y66.94 E.01998
G1 X172.795 Y66.513 E.01998
G1 X172.743 Y66.173 E.01527
G1 X172.754 Y65.715 E.02033
G1 X172.855 Y65.276 E.01996
G1 X173.041 Y64.866 E.01996
G1 X173.303 Y64.502 E.01989
G1 X173.633 Y64.196 E.01998
G1 X174.017 Y63.961 E.01998
G1 X174.441 Y63.806 E.01998
G1 X174.886 Y63.739 E.01998
G1 X175.336 Y63.761 E.01998
G1 X175.658 Y63.843 E.01475
M204 S1000
G1 X175.626 Y64.196 F10800
M204 S800
;TYPE:External perimeter
G1 F1200
G1 X175.971 Y64.356 E.01685
G1 X176.281 Y64.585 E.01708
G1 X176.534 Y64.863 E.01669
G1 X176.728 Y65.187 E.01677
G1 X176.855 Y65.546 E.01686
G1 X176.908 Y65.921 E.0168
G1 X176.886 Y66.299 E.01681
G1 X176.786 Y66.674 E.01721
G1 X176.62 Y67.011 E.01664
G1 X176.394 Y67.305 E.01648
G1 X176.177 Y67.503 E.01302
G1 X175.856 Y67.707 E.01684
G1 X175.501 Y67.842 E.01686
G1 X175.127 Y67.905 E.01686
G1 X174.747 Y67.893 E.01685
G1 X174.377 Y67.805 E.01685
G1 X174.032 Y67.646 E.01685
G1 X173.725 Y67.422 E.01685
G1 X173.47 Y67.143 E.01677
G1 X173.274 Y66.817 E.01685
G1 X173.147 Y66.459 E.01685
G1 X173.094 Y66.119 E.01527
G1 X173.103 Y65.786 E.01476
G1 X173.182 Y65.415 E.01684
G1 X173.334 Y65.067 E.01684
G1 X173.551 Y64.757 E.01677
G1 X173.825 Y64.495 E.01686
G1 X174.147 Y64.292 E.01686
G1 X174.502 Y64.157 E.01686
G1 X174.877 Y64.095 E.01686
G1 X175.257 Y64.108 E.01686
G1 X175.568 Y64.182 E.01419
M204 S1000
G1 X175.914 Y63.948 F10800
;WIPE_START
G1 F8640
G1 X175.971 Y64.356 E-.10136
G1 X176.281 Y64.585 E-.08893
G1 X176.534 Y64.863 E-.08687
G1 X176.728 Y65.187 E-.08728
G1 X176.855 Y65.546 E-.08778
G1 X176.908 Y65.921 E-.08744
G1 X176.886 Y66.299 E-.08751
G1 X176.786 Y66.674 E-.08961
G1 X176.62 Y67.011 E-.08664
G1 X176.394 Y67.305 E-.0858
G1 X176.177 Y67.503 E-.06779
G1 X175.856 Y67.707 E-.08766
G1 X175.501 Y67.842 E-.08775
G1 X175.127 Y67.905 E-.08774
G1 X174.747 Y67.893 E-.08774
G1 X174.654 Y67.871 E-.0221
;WIPE_END
G1 E-.07 F2100
G1 Z.5 F720
G1 X180.128 Y61.591 F10800
G1 Z.3 F720
G1 E1.4 F2100
M204 S800
;TYPE:Solid infill
;WIDTH:0.420033
G1 F1200
G1 X179.569 Y61.032 E.03506
G1 X179.066 Y61.032 E.02231
G1 X179.968 Y61.934 E.05658
G1 X179.968 Y62.437 E.02231
G1 X178.563 Y61.032 E.08813
G1 X178.06 Y61.032 E.02231
G1 X179.968 Y62.94 E.11968
G1 X179.968 Y63.443 E.02231
G1 X177.557 Y61.032 E.15124
G1 X177.054 Y61.032 E.02231
G1 X179.968 Y63.946 E.18279
G1 X179.968 Y64.449 E.02231
G1 X176.551 Y61.032 E.21434
G1 X176.048 Y61.032 E.02231
G1 X179.968 Y64.952 E.24589
G1 X179.968 Y65.455 E.02231
G1 X175.545 Y61.032 E.27745
G1 X175.042 Y61.032 E.02231
G1 X179.968 Y65.958 E.309
G1 X179.968 Y66.461 E.02231
G1 X174.539 Y61.032 E.34055
G1 X174.036 Y61.032 E.02231
G1 X179.968 Y66.964 E.3721
G1 X179.968 Y67.467 E.02231
G1 X173.533 Y61.032 E.40366
G1 X173.03 Y61.032 E.02231
G1 X175.538 Y63.54 E.15729
G1 X175.244 Y63.481 E.01328
G1 X174.977 Y63.482 E.01184
G1 X172.527 Y61.032 E.15368
G1 X172.024 Y61.032 E.02231
G1 X174.52 Y63.528 E.15657
G1 X174.247 Y63.584 E.01237
G1 X174.125 Y63.636 E.00588
G1 X171.521 Y61.032 E.16334
G1 X171.018 Y61.032 E.02231
G1 X173.774 Y63.788 E.17286
G1 X173.475 Y63.992 E.01605
G1 X170.515 Y61.032 E.1857
G1 X170.012 Y61.032 E.02231
G1 X173.21 Y64.229 E.20057
G1 X173.018 Y64.427 E.01222
G1 X172.973 Y64.496 E.00364
G1 X169.509 Y61.032 E.2173
G1 X169.006 Y61.032 E.02231
G1 X172.776 Y64.802 E.23651
G1 X172.627 Y65.156 E.01702
G1 X168.503 Y61.032 E.25866
G1 X168.001 Y61.032 E.02231
G1 X172.521 Y65.553 E.28358
G1 X172.477 Y65.797 E.01099
G1 X172.478 Y66.012 E.00958
G1 X167.498 Y61.032 E.31242
G1 X166.995 Y61.032 E.02231
G1 X172.792 Y66.83 E.36367
M204 S1000
;WIPE_START
G1 F8640
G1 X168.719 Y62.757 E-1.33
;WIPE_END
G1 E-.07 F2100
G1 Z.5 F720
G1 X177.233 Y65.236 F10800
G1 Z.3 F720
G1 E1.4 F2100
M204 S800
G1 F1200
G1 X179.968 Y67.97 E.17152
G1 X179.968 Y68.473 E.02231
G1 X177.515 Y66.02 E.15386
G1 X177.503 Y66.39 E.01643
G1 X177.479 Y66.487 E.0044
G1 X179.968 Y68.976 E.15615
G1 X179.968 Y69.479 E.02231
G1 X177.366 Y66.877 E.1632
G1 X177.211 Y67.225 E.01689
G1 X179.968 Y69.982 E.17295
G1 X179.968 Y70.485 E.02231
G1 X177.007 Y67.524 E.18576
G1 X176.908 Y67.662 E.00754
G1 X176.774 Y67.794 E.00834
G1 X179.968 Y70.988 E.20035
G1 X179.968 Y71.491 E.02231
G1 X176.502 Y68.025 E.2174
G1 X176.2 Y68.226 E.0161
G1 X179.968 Y71.994 E.23638
G1 X179.968 Y72.497 E.02231
G1 X175.847 Y68.376 E.25849
G1 X175.758 Y68.414 E.00433
G1 X175.447 Y68.479 E.01407
G1 X179.968 Y72.999 E.2836
G1 X179.968 Y73.502 E.02231
G1 X174.98 Y68.515 E.31287
G1 X174.684 Y68.513 E.01313
G1 X174.414 Y68.451 E.01232
G1 X179.968 Y74.005 E.34843
G1 X179.968 Y74.508 E.02231
G1 X166.492 Y61.032 E.84539
G1 X165.989 Y61.032 E.02231
