; generated by PrusaSlicer 2.5.0 on 2022-11-20 at 00:11:47 UTC

; 

; external perimeters extrusion width = 0.60mm
; perimeters extrusion width = 0.50mm
; infill extrusion width = 0.50mm
; solid infill extrusion width = 0.50mm
; top infill extrusion width = 0.45mm
; first layer extrusion width = 0.42mm

; external perimeters extrusion width = 0.60mm
; perimeters extrusion width = 0.50mm
; infill extrusion width = 0.50mm
; solid infill extrusion width = 0.50mm
; top infill extrusion width = 0.45mm
; first layer extrusion width = 0.42mm

M73 P0 R84
M73 Q0 S86
M201 X1000 Y1000 Z200 E5000 ; sets maximum accelerations, mm/sec^2
M203 X200 Y200 Z12 E120 ; sets maximum feedrates, mm / sec
M204 P1250 R1250 T1250 ; sets acceleration (P, T) and retract acceleration (R), mm/sec^2
M205 X8.00 Y8.00 Z0.40 E4.50 ; sets the jerk limits, mm/sec
M205 S0 T0 ; sets the minimum extruding and travel feed rate, mm/sec
M107
;TYPE:Custom
M862.3 P "MK3S" ; printer model check
M862.1 P0.4 ; nozzle diameter check
M115 U3.10.1 ; tell printer latest fw version
G90 ; use absolute coordinates
M83 ; extruder relative mode
M104 S240 ; set extruder temp
M140 S95 ; set bed temp
M190 S95 ; wait for bed temp
M109 S240 ; wait for extruder temp
G28 W ; home all without mesh bed level
G80 ; mesh bed leveling
G1 Z0.2 F720
G1 Y-3 F1000 ; go outside print area
G92 E0
G1 X60 E9 F1000 ; intro line
G1 X100 E12.5 F1000 ; intro line
G92 E0
M221 S95

; Don't change E values below. Excessive value can damage the printer.

M907 E538 ; set extruder motor current
G21 ; set units to millimeters
G90 ; use absolute coordinates
M83 ; use relative distances for extrusion
M900 K0.08 ; Filament gcode LA 1.5
M900 K45 ; Filament gcode LA 1.0
M107
;LAYER_CHANGE
;Z:0.3
;HEIGHT:0.3
;BEFORE_LAYER_CHANGE
G92 E0.0
;0.3


G1 E-1.4 F2100
G1 Z.2 F720
G1 Z.3
;AFTER_LAYER_CHANGE
;0.3
G1 Z.5
G1 X68.024 Y54.052 F10800
G1 Z.3 F720
G1 E1.4 F2100
M204 S800
;TYPE:Skirt/Brim
;WIDTH:0.42
G1 F1200
G1 X69.069 Y53.184 E.06024
G1 X69.988 Y52.997 E.0416
G1 X170.636 Y52.985 E4.46421
G1 X171.936 Y53.376 E.06024
M73 Q0 S85
G1 X172.804 Y54.42 E.06024
G1 X172.991 Y55.34 E.04163
G1 X172.991 Y107.34 E2.30645
G1 X172.6 Y108.641 E.06024
G1 X171.555 Y109.509 E.06024
G1 X170.636 Y109.696 E.0416
G1 X69.988 Y109.709 E4.46421
G1 X68.688 Y109.317 E.06024
G1 X67.82 Y108.273 E.06024
G1 X67.633 Y107.353 E.04163
G1 X67.633 Y55.353 E2.30645
G1 X68.007 Y54.11 E.05758
M204 S1000
; printing object 5L_hipjoint_lower-Body.stl id:0 copy 0
;WIPE_START
G1 F8640
G1 X69.069 Y53.184 E-.32524
G1 X69.988 Y52.997 E-.21658
G1 X73.401 Y52.997 E-.78819
;WIPE_END
G1 E-.07 F2100
G1 Z.5 F720
G1 X121.401 Y56.106 F10800
G1 Z.3 F720
G1 E1.4 F2100
M204 S800
;TYPE:Perimeter
;WIDTH:0.42
G1 F1200
G1 X169.87 Y56.106 E2.14982
G1 X169.87 Y106.575 E2.23853
G1 X121.401 Y106.575 E2.14982
G1 X121.401 Y56.166 E2.23587
M204 S1000
G1 X121.046 Y55.75 F10800
M204 S800
;TYPE:External perimeter
G1 F1200
G1 X170.226 Y55.75 E2.18137
G1 X170.226 Y106.93 E2.27008
G1 X121.046 Y106.93 E2.18137
G1 X121.046 Y55.81 E2.26742
M204 S1000
G1 X121.431 Y55.856 F10800
;WIPE_START
M73 P0 R83
G1 F8640
G1 X126.806 Y55.803 E-1.33
;WIPE_END
G1 E-.07 F2100
G1 Z.5 F720
G1 X124.736 Y60.119 F10800
G1 Z.3 F720
G1 E1.4 F2100
M204 S800
;TYPE:Perimeter
G1 F1200
G1 X125.052 Y59.722 E.02252
G1 X125.404 Y59.44 E.01999
G1 X125.805 Y59.234 E.02
G1 X126.228 Y59.113 E.01949
G1 X126.588 Y59.077 E.01606
G1 X127.025 Y59.11 E.01945
G1 X127.46 Y59.232 E.01999
G1 X127.861 Y59.437 E.01999
G1 X128.214 Y59.717 E.02
G1 X128.504 Y60.062 E.02
G1 X128.72 Y60.458 E.02
G1 X128.854 Y60.888 E.01999
G1 X128.899 Y61.337 E.02
G1 X128.855 Y61.785 E.02
G1 X128.723 Y62.216 E.02
G1 X128.508 Y62.613 E.02
G1 X128.219 Y62.958 E.01999
G1 X127.867 Y63.24 E.01999
G1 X127.479 Y63.442 E.0194
G1 X127.142 Y63.547 E.01563
G1 X126.695 Y63.603 E.01998
G1 X126.246 Y63.57 E.02
G1 X125.812 Y63.449 E.02
G1 X125.41 Y63.244 E.01999
G1 X125.057 Y62.963 E.02
G1 X124.767 Y62.618 E.02
G1 X124.551 Y62.223 E.02
G1 X124.417 Y61.792 E.01999
G1 X124.372 Y61.343 E.02
G1 X124.416 Y60.895 E.02
G1 X124.548 Y60.464 E.02
G1 X124.707 Y60.171 E.01476
M204 S1000
G1 X125.041 Y60.289 F10800
M204 S800
;TYPE:External perimeter
G1 F1200
G1 X125.281 Y59.994 E.01687
G1 X125.575 Y59.753 E.01686
G1 X125.91 Y59.574 E.01687
G1 X126.271 Y59.466 E.01669
G1 X126.57 Y59.432 E.01335
G1 X126.938 Y59.455 E.01636
G1 X127.305 Y59.552 E.01686
G1 X127.646 Y59.72 E.01686
G1 X127.947 Y59.953 E.01686
G1 X128.196 Y60.24 E.01687
G1 X128.383 Y60.571 E.01687
G1 X128.501 Y60.933 E.01686
G1 X128.545 Y61.31 E.01687
G1 X128.513 Y61.689 E.01687
G1 X128.406 Y62.054 E.01687
G1 X128.23 Y62.391 E.01687
G1 X127.99 Y62.686 E.01686
G1 X127.696 Y62.928 E.01686
G1 X127.365 Y63.105 E.01665
G1 X127.089 Y63.195 E.01289
G1 X126.713 Y63.248 E.01685
G1 X126.333 Y63.226 E.01687
G1 X125.966 Y63.128 E.01687
G1 X125.625 Y62.96 E.01686
G1 X125.324 Y62.728 E.01687
G1 X125.075 Y62.44 E.01687
G1 X124.888 Y62.109 E.01687
G1 X124.77 Y61.748 E.01686
G1 X124.726 Y61.37 E.01687
G1 X124.758 Y60.991 E.01687
G1 X124.865 Y60.626 E.01687
G1 X125.013 Y60.342 E.0142
M204 S1000
G1 X124.871 Y59.949 F10800
;WIPE_START
G1 F8640
G1 X125.281 Y59.994 E-.10141
G1 X125.575 Y59.753 E-.08779
G1 X125.91 Y59.574 E-.0878
G1 X126.271 Y59.466 E-.08687
G1 X126.57 Y59.432 E-.06948
G1 X126.938 Y59.455 E-.08516
G1 X127.305 Y59.552 E-.08779
G1 X127.646 Y59.72 E-.08779
G1 X127.947 Y59.953 E-.0878
G1 X128.196 Y60.24 E-.0878
G1 X128.383 Y60.571 E-.0878
G1 X128.501 Y60.933 E-.08779
G1 X128.545 Y61.31 E-.0878
G1 X128.513 Y61.689 E-.0878
G1 X128.406 Y62.054 E-.0878
G1 X128.364 Y62.136 E-.02132
;WIPE_END
G1 E-.07 F2100
G1 Z.5 F720
G1 X166.168 Y59.681 F10800
G1 Z.3 F720
G1 E1.4 F2100
M204 S800
;TYPE:Perimeter
G1 F1200
G1 X166.504 Y60.062 E.02252
G1 X166.72 Y60.458 E.02
G1 X166.854 Y60.888 E.01999
G1 X166.899 Y61.337 E.02
G1 X166.855 Y61.785 E.01999
G1 X166.723 Y62.216 E.02
G1 X166.508 Y62.613 E.02
G1 X166.219 Y62.958 E.02
G1 X165.867 Y63.24 E.01999
G1 X165.479 Y63.442 E.0194
G1 X165.142 Y63.547 E.01563
G1 X164.695 Y63.603 E.01998
G1 X164.246 Y63.57 E.02
G1 X163.812 Y63.449 E.02
G1 X163.41 Y63.244 E.01999
G1 X163.057 Y62.963 E.02
G1 X162.767 Y62.618 E.01999
G1 X162.551 Y62.223 E.02
G1 X162.417 Y61.792 E.01999
G1 X162.374 Y61.45 E.0153
G1 X162.416 Y60.895 E.02468
G1 X162.548 Y60.464 E.02
G1 X162.763 Y60.068 E.02
G1 X163.052 Y59.722 E.02
G1 X163.404 Y59.44 E.01999
G1 X163.805 Y59.234 E.02
G1 X164.228 Y59.113 E.01949
G1 X164.588 Y59.077 E.01606
G1 X165.025 Y59.11 E.01945
G1 X165.46 Y59.232 E.01999
G1 X165.861 Y59.437 E.01999
G1 X166.121 Y59.644 E.01476
M204 S1000
G1 X165.947 Y59.953 F10800
M204 S800
;TYPE:External perimeter
G1 F1200
G1 X166.196 Y60.24 E.01686
G1 X166.383 Y60.571 E.01687
G1 X166.501 Y60.933 E.01686
G1 X166.545 Y61.31 E.01687
G1 X166.513 Y61.689 E.01686
G1 X166.406 Y62.054 E.01687
G1 X166.23 Y62.391 E.01687
G1 X165.99 Y62.686 E.01686
G1 X165.696 Y62.928 E.01686
G1 X165.365 Y63.105 E.01665
G1 X165.089 Y63.195 E.01289
G1 X164.713 Y63.248 E.01685
G1 X164.333 Y63.226 E.01687
G1 X163.966 Y63.128 E.01687
G1 X163.625 Y62.96 E.01686
G1 X163.324 Y62.728 E.01687
G1 X163.075 Y62.44 E.01686
G1 X162.888 Y62.109 E.01687
G1 X162.77 Y61.748 E.01686
G1 X162.727 Y61.405 E.0153
G1 X162.758 Y60.991 E.01843
G1 X162.865 Y60.626 E.01687
G1 X163.041 Y60.289 E.01687
G1 X163.281 Y59.994 E.01687
G1 X163.575 Y59.753 E.01686
G1 X163.91 Y59.574 E.01687
G1 X164.271 Y59.466 E.01669
G1 X164.57 Y59.432 E.01335
G1 X164.938 Y59.455 E.01636
G1 X165.305 Y59.552 E.01686
G1 X165.646 Y59.72 E.01686
G1 X165.9 Y59.916 E.0142
M204 S1000
G1 X166.312 Y59.844 F10800
;WIPE_START
G1 F8640
G1 X166.196 Y60.24 E-.10141
G1 X166.383 Y60.571 E-.0878
G1 X166.501 Y60.933 E-.08779
G1 X166.545 Y61.31 E-.0878
G1 X166.513 Y61.689 E-.08779
G1 X166.406 Y62.054 E-.0878
G1 X166.23 Y62.391 E-.0878
G1 X165.99 Y62.686 E-.0878
G1 X165.696 Y62.928 E-.08779
G1 X165.365 Y63.105 E-.0867
G1 X165.089 Y63.195 E-.06711
G1 X164.713 Y63.248 E-.0877
G1 X164.333 Y63.226 E-.0878
G1 X163.966 Y63.128 E-.0878
G1 X163.625 Y62.96 E-.08779
G1 X163.552 Y62.904 E-.02132
;WIPE_END
G1 E-.07 F2100
G1 Z.5 F720
G1 X166.74 Y102.161 F10800
G1 Z.3 F720
G1 E1.4 F2100
M204 S800
;TYPE:Perimeter
G1 F1200
G1 X166.508 Y102.613 E.02252
G1 X166.219 Y102.958 E.01999
G1 X165.878 Y103.233 E.0194
G1 X165.569 Y103.402 E.01563
G1 X165.143 Y103.546 E.01998
G1 X164.695 Y103.603 E.01999
G1 X164.246 Y103.57 E.02
G1 X163.812 Y103.449 E.02
G1 X163.41 Y103.244 E.01999
G1 X163.057 Y102.963 E.02
G1 X162.767 Y102.618 E.02
G1 X162.551 Y102.223 E.02
G1 X162.417 Y101.792 E.01999
G1 X162.374 Y101.45 E.0153
G1 X162.405 Y100.944 E.02249
G1 X162.548 Y100.464 E.02221
G1 X162.763 Y100.068 E.02
G1 X163.052 Y99.722 E.02
G1 X163.404 Y99.44 E.01999
G1 X163.805 Y99.234 E.02
G1 X164.228 Y99.113 E.01949
G1 X164.588 Y99.077 E.01607
G1 X165.025 Y99.11 E.01945
G1 X165.46 Y99.232 E.01999
G1 X165.861 Y99.437 E.01999
G1 X166.214 Y99.717 E.02
G1 X166.504 Y100.062 E.02
G1 X166.72 Y100.458 E.02
G1 X166.854 Y100.888 E.01999
G1 X166.899 Y101.337 E.02
G1 X166.855 Y101.785 E.01999
G1 X166.757 Y102.104 E.01476
M204 S1000
G1 X166.406 Y102.054 F10800
M204 S800
;TYPE:External perimeter
G1 F1200
G1 X166.23 Y102.391 E.01687
G1 X165.99 Y102.686 E.01686
G1 X165.701 Y102.925 E.01665
G1 X165.448 Y103.068 E.01289
G1 X165.09 Y103.195 E.01685
G1 X164.713 Y103.248 E.01686
G1 X164.333 Y103.226 E.01687
G1 X163.966 Y103.128 E.01687
G1 X163.625 Y102.96 E.01686
G1 X163.324 Y102.728 E.01687
G1 X163.075 Y102.44 E.01687
G1 X162.888 Y102.109 E.01687
G1 X162.77 Y101.748 E.01686
G1 X162.727 Y101.405 E.0153
G1 X162.758 Y100.991 E.01843
G1 X162.865 Y100.626 E.01687
G1 X163.041 Y100.289 E.01687
G1 X163.281 Y99.994 E.01687
G1 X163.575 Y99.753 E.01686
G1 X163.91 Y99.574 E.01687
G1 X164.271 Y99.466 E.01669
G1 X164.57 Y99.432 E.01335
G1 X164.938 Y99.455 E.01636
G1 X165.305 Y99.552 E.01686
G1 X165.646 Y99.72 E.01686
G1 X165.947 Y99.953 E.01687
G1 X166.196 Y100.24 E.01687
G1 X166.383 Y100.571 E.01687
G1 X166.501 Y100.933 E.01686
G1 X166.545 Y101.31 E.01687
G1 X166.513 Y101.689 E.01686
G1 X166.423 Y101.997 E.0142
M204 S1000
G1 X166.641 Y102.354 F10800
;WIPE_START
G1 F8640
G1 X166.23 Y102.391 E-.10142
G1 X165.99 Y102.686 E-.0878
G1 X165.701 Y102.925 E-.08669
G1 X165.448 Y103.068 E-.06711
G1 X165.09 Y103.195 E-.08771
G1 X164.713 Y103.248 E-.08779
G1 X164.333 Y103.226 E-.0878
G1 X163.966 Y103.128 E-.0878
G1 X163.625 Y102.96 E-.08779
G1 X163.324 Y102.728 E-.0878
G1 X163.075 Y102.44 E-.0878
G1 X162.888 Y102.109 E-.0878
G1 X162.77 Y101.748 E-.08779
G1 X162.727 Y101.405 E-.07966
G1 X162.758 Y100.991 E-.09592
G1 X162.784 Y100.902 E-.02133
;WIPE_END
G1 E-.07 F2100
G1 Z.5 F720
G1 X128.692 Y100.407 F10800
G1 Z.3 F720
G1 E1.4 F2100
M204 S800
;TYPE:Perimeter
G1 F1200
G1 X128.854 Y100.888 E.02252
G1 X128.899 Y101.337 E.02
G1 X128.855 Y101.785 E.02
G1 X128.723 Y102.216 E.02
G1 X128.508 Y102.613 E.02
G1 X128.219 Y102.958 E.01999
G1 X127.867 Y103.24 E.01999
G1 X127.479 Y103.442 E.0194
G1 X127.142 Y103.547 E.01563
G1 X126.695 Y103.603 E.01998
G1 X126.246 Y103.57 E.02
G1 X125.812 Y103.449 E.02
G1 X125.41 Y103.244 E.01999
G1 X125.057 Y102.963 E.02
G1 X124.767 Y102.618 E.02
G1 X124.551 Y102.223 E.02
M73 P1 R83
G1 X124.417 Y101.792 E.01999
G1 X124.374 Y101.45 E.0153
G1 X124.416 Y100.895 E.02468
G1 X124.548 Y100.464 E.02
G1 X124.763 Y100.068 E.02
G1 X125.052 Y99.722 E.02
G1 X125.404 Y99.44 E.01999
G1 X125.805 Y99.234 E.02
M73 Q1 S85
G1 X126.228 Y99.113 E.01949
G1 X126.588 Y99.077 E.01607
G1 X127.025 Y99.11 E.01945
G1 X127.459 Y99.232 E.01999
G1 X127.861 Y99.437 E.02
G1 X128.214 Y99.717 E.02
G1 X128.504 Y100.062 E.02
G1 X128.664 Y100.354 E.01476
M204 S1000
G1 X128.383 Y100.571 F10800
M204 S800
;TYPE:External perimeter
G1 F1200
G1 X128.501 Y100.933 E.01686
G1 X128.545 Y101.31 E.01687
G1 X128.513 Y101.689 E.01687
G1 X128.406 Y102.054 E.01687
G1 X128.23 Y102.391 E.01687
G1 X127.99 Y102.686 E.01686
G1 X127.696 Y102.928 E.01686
G1 X127.365 Y103.105 E.01665
G1 X127.089 Y103.195 E.01289
G1 X126.713 Y103.248 E.01685
G1 X126.333 Y103.226 E.01687
G1 X125.966 Y103.128 E.01687
G1 X125.625 Y102.96 E.01686
G1 X125.324 Y102.728 E.01687
G1 X125.075 Y102.44 E.01687
G1 X124.888 Y102.109 E.01687
G1 X124.77 Y101.748 E.01686
G1 X124.727 Y101.405 E.0153
G1 X124.758 Y100.991 E.01843
G1 X124.865 Y100.626 E.01687
G1 X125.041 Y100.289 E.01686
G1 X125.281 Y99.994 E.01687
G1 X125.575 Y99.753 E.01686
G1 X125.91 Y99.574 E.01687
G1 X126.271 Y99.466 E.01669
G1 X126.57 Y99.432 E.01335
G1 X126.938 Y99.455 E.01636
G1 X127.305 Y99.552 E.01686
G1 X127.646 Y99.72 E.01686
G1 X127.947 Y99.953 E.01687
G1 X128.196 Y100.24 E.01687
G1 X128.354 Y100.519 E.0142
M204 S1000
G1 X128.761 Y100.612 F10800
;WIPE_START
G1 F8640
G1 X128.501 Y100.933 E-.10141
G1 X128.545 Y101.31 E-.0878
G1 X128.513 Y101.689 E-.0878
G1 X128.406 Y102.054 E-.0878
G1 X128.23 Y102.391 E-.0878
G1 X127.99 Y102.686 E-.08779
G1 X127.696 Y102.928 E-.08779
G1 X127.365 Y103.105 E-.0867
G1 X127.089 Y103.195 E-.0671
G1 X126.713 Y103.248 E-.0877
G1 X126.333 Y103.226 E-.0878
G1 X125.966 Y103.128 E-.0878
G1 X125.625 Y102.96 E-.08779
G1 X125.324 Y102.728 E-.0878
G1 X125.075 Y102.44 E-.0878
G1 X125.03 Y102.36 E-.02132
;WIPE_END
G1 E-.07 F2100
G1 Z.5 F720
G1 X169.044 Y56.212 F10800
G1 Z.3 F720
G1 E1.4 F2100
M204 S800
;TYPE:Solid infill
;WIDTH:0.420033
G1 F1200
G1 X169.603 Y56.771 E.03506
G1 X169.603 Y57.274 E.02231
G1 X168.701 Y56.372 E.05658
G1 X168.198 Y56.372 E.02231
G1 X169.603 Y57.777 E.08813
G1 X169.603 Y58.28 E.02231
G1 X167.695 Y56.372 E.11968
G1 X167.192 Y56.372 E.02231
G1 X169.603 Y58.783 E.15124
G1 X169.603 Y59.286 E.02231
G1 X166.689 Y56.372 E.18279
G1 X166.186 Y56.372 E.02231
G1 X169.603 Y59.789 E.21434
G1 X169.603 Y60.292 E.02231
G1 X165.684 Y56.372 E.24589
G1 X165.181 Y56.372 E.02231
G1 X169.603 Y60.795 E.27745
G1 X169.603 Y61.298 E.02231
G1 X164.678 Y56.372 E.309
G1 X164.175 Y56.372 E.02231
G1 X169.603 Y61.801 E.34055
G1 X169.603 Y62.304 E.02231
G1 X163.672 Y56.372 E.3721
G1 X163.169 Y56.372 E.02231
G1 X169.603 Y62.807 E.40366
G1 X169.603 Y63.31 E.02231
G1 X167.101 Y60.808 E.15697
G1 X167.162 Y61.204 E.01779
G1 X167.154 Y61.363 E.00707
G1 X169.603 Y63.813 E.15368
G1 X169.603 Y64.316 E.02231
G1 X167.117 Y61.829 E.156
G1 X167.005 Y62.221 E.01806
G1 X169.603 Y64.819 E.16299
G1 X169.603 Y65.322 E.02231
G1 X166.843 Y62.561 E.17317
G1 X166.8 Y62.651 E.0044
G1 X166.641 Y62.863 E.01175
G1 X169.603 Y65.825 E.18583
G1 X169.603 Y66.328 E.02231
G1 X166.408 Y63.133 E.20042
G1 X166.142 Y63.37 E.0158
G1 X169.603 Y66.831 E.21711
G1 X169.603 Y67.334 E.02231
G1 X165.829 Y63.559 E.23679
G1 X165.687 Y63.642 E.00727
G1 X165.483 Y63.717 E.00963
G1 X169.603 Y67.837 E.25846
G1 X169.603 Y68.34 E.02231
G1 X165.083 Y63.819 E.28357
G1 X164.834 Y63.863 E.0112
G1 X164.617 Y63.856 E.00966
G1 X169.603 Y68.843 E.31283
G1 X169.603 Y69.346 E.02231
G1 X163.827 Y63.569 E.36235
M204 S1000
;WIPE_START
G1 F8640
G1 X167.9 Y67.642 E-1.33
;WIPE_END
G1 E-.07 F2100
G1 Z.5 F720
G1 X165.387 Y59.093 F10800
G1 Z.3 F720
G1 E1.4 F2100
M204 S800
G1 F1200
G1 X162.666 Y56.372 E.17068
G1 X162.163 Y56.372 E.02231
G1 X164.609 Y58.819 E.15345
G1 X164.469 Y58.814 E.00619
G1 X164.15 Y58.862 E.01433
G1 X161.66 Y56.372 E.15621
G1 X161.157 Y56.372 E.02231
G1 X163.762 Y58.978 E.16343
G1 X163.585 Y59.038 E.00828
G1 X163.417 Y59.136 E.00863
G1 X160.654 Y56.372 E.17336
G1 X160.151 Y56.372 E.02231
G1 X163.108 Y59.329 E.18549
G1 X162.842 Y59.566 E.0158
G1 X159.648 Y56.372 E.20034
G1 X159.145 Y56.372 E.02231
G1 X162.613 Y59.84 E.21756
G1 X162.471 Y60.029 E.01049
G1 X162.415 Y60.146 E.00572
G1 X158.642 Y56.372 E.23672
G1 X158.139 Y56.372 E.02231
G1 X162.253 Y60.487 E.25811
G1 X162.153 Y60.889 E.0184
G1 X157.636 Y56.372 E.28335
G1 X157.133 Y56.372 E.02231
G1 X162.114 Y61.354 E.31249
G1 X162.109 Y61.476 E.00542
G1 X162.168 Y61.91 E.01944
G1 X156.63 Y56.372 E.34738
G1 X156.127 Y56.372 E.02231
G1 X169.603 Y69.849 E.84539
G1 X169.603 Y70.351 E.02231
G1 X155.624 Y56.372 E.87695
G1 X155.121 Y56.372 E.02231
G1 X169.603 Y70.854 E.9085
G1 X169.603 Y71.357 E.02231
M73 Q1 S84
G1 X154.618 Y56.372 E.94005
G1 X154.115 Y56.372 E.02231
G1 X169.603 Y71.86 E.9716
