; generated by PrusaSlicer 2.7.1 on 2023-12-29 at 17:09:35 UTC


;
;
; 

; external perimeters extrusion width = 0.60mm
; perimeters extrusion width = 0.50mm
; infill extrusion width = 0.50mm
; solid infill extrusion width = 0.50mm
; top infill extrusion width = 0.45mm
; first layer extrusion width = 0.42mm

; external perimeters extrusion width = 0.60mm
; perimeters extrusion width = 0.50mm
; infill extrusion width = 0.50mm
; solid infill extrusion width = 0.50mm
; top infill extrusion width = 0.45mm
; first layer extrusion width = 0.42mm

M73 P0 R87
M73 Q0 S88
M201 X1000 Y1000 Z200 E5000 ; sets maximum accelerations, mm/sec^2
M203 X200 Y200 Z12 E120 ; sets maximum feedrates, mm / sec
M204 S1250 T1250 ; sets acceleration (S) and retract acceleration (R), mm/sec^2
M205 X8.00 Y8.00 Z0.40 E4.50 ; sets the jerk limits, mm/sec
M205 S0 T0 ; sets the minimum extruding and travel feed rate, mm/sec

; printing object 5L_hipjoint_upper_bearing-Body.stl id:1 copy 0
; stop printing object 5L_hipjoint_upper_bearing-Body.stl id:1 copy 0
; printing object 5R_hipjoint_upper_bearing-Body.stl id:0 copy 0
; stop printing object 5R_hipjoint_upper_bearing-Body.stl id:0 copy 0

;TYPE:Custom
M862.3 P "MK3S" ; printer model check
M862.1 P0.4 ; nozzle diameter check
M115 U3.12.2 ; tell printer latest fw version
G90 ; use absolute coordinates
M83 ; extruder relative mode
M104 S240 ; set extruder temp
M140 S95 ; set bed temp
M190 S95 ; wait for bed temp
M109 S240 ; wait for extruder temp
G28 W ; home all without mesh bed level
G80 ; mesh bed leveling

G1 Z0.2 F720
G1 Y-3 F1000 ; go outside print area
G92 E0
G1 X60 E9 F1000 ; intro line
G1 X100 E12.5 F1000 ; intro line

G92 E0
M221 S95

; Don't change E values below. Excessive value can damage the printer.

M907 E538 ; set extruder motor current
G21 ; set units to millimeters
G90 ; use absolute coordinates
M83 ; use relative distances for extrusion
M900 K0.08 ; Filament gcode LA 1.5
M900 K45 ; Filament gcode LA 1.0
M107 ; disable fan
;LAYER_CHANGE
;Z:0.3
;HEIGHT:0.3
;BEFORE_LAYER_CHANGE
G92 E0.0
;0.3


G1 E-1.4 F2100 ; retract
G1 Z.3 F720 ; move to next layer (0)
;AFTER_LAYER_CHANGE
;0.3
G1 X98.036 Y76.7 F10800 ; move to print after unknown position
G1 Z.3 F720 ; move to print after unknown position
G1 E1.4 F2100 ;  ; unretract
M204 S800 ; adjust acceleration
;TYPE:Skirt/Brim
;WIDTH:0.42
G1 F1200
G1 X99.08 Y75.831 E.06025 ; skirt
G1 X100 Y75.644 E.04164 ; skirt
G1 X200.762 Y75.644 E4.46928 ; skirt
G1 X202.062 Y76.036 E.06023 ; skirt
G1 X202.93 Y77.08 E.06022 ; skirt
G1 X203.117 Y78 E.04164 ; skirt
G1 X203.117 Y132 E2.39516 ; skirt
G1 X202.726 Y133.3 E.06021 ; skirt
G1 X201.681 Y134.169 E.06028 ; skirt
G1 X200.762 Y134.356 E.0416 ; skirt
G1 X100 Y134.356 E4.46928 ; skirt
G1 X98.7 Y133.964 E.06023 ; skirt
M73 P0 R86
G1 X97.831 Y132.92 E.06025 ; skirt
G1 X97.644 Y132 E.04164 ; skirt
G1 X97.644 Y78 E2.39516 ; skirt
G1 X98.019 Y76.757 E.05759 ; skirt
M204 S1000 ; adjust acceleration
; printing object 5L_hipjoint_upper_bearing-Body.stl id:1 copy 0
;WIPE_START
G1 F8640
G1 X98.036 Y76.7 E-.01373 ; wipe and retract
G1 X99.08 Y75.831 E-.31365 ; wipe and retract
G1 X100 Y75.644 E-.21677 ; wipe and retract
G1 X103.707 Y75.644 E-.85585 ; wipe and retract
;WIPE_END
G1 Z.5 F720 ; move to first perimeter point
G1 X151.527 Y78.766 F10800 ; move to first perimeter point
G1 Z.3 F720 ; move to first perimeter point
G1 E1.4 F2100 ;  ; unretract
M204 S800 ; adjust acceleration
;TYPE:Perimeter
;WIDTH:0.42
G1 F1200
G1 X199.996 Y78.766 E2.14983 ; perimeter
G1 X199.996 Y81.818 E.13537 ; perimeter
G1 X199.996 Y131.234 E2.19183 ; perimeter
G1 X151.527 Y131.234 E2.14983 ; perimeter
G1 X151.527 Y78.826 E2.32454 ; perimeter
M204 S1000 ; adjust acceleration
G1 X151.172 Y78.41 F10800 ; move to first perimeter point
M204 S800 ; adjust acceleration
;TYPE:External perimeter
G1 F1200
G1 X200.352 Y78.41 E2.18137 ; perimeter
G1 X200.352 Y81.818 E.15116 ; perimeter
G1 X200.352 Y131.59 E2.20763 ; perimeter
G1 X151.172 Y131.59 E2.18137 ; perimeter
G1 X151.172 Y78.47 E2.35612 ; perimeter
M73 Q0 S87
M204 S1000 ; adjust acceleration
;WIPE_START
G1 F8640
G1 X151.172 Y78.41 E-.01385 ; wipe and retract
G1 X157.175 Y78.41 E-1.38615 ; wipe and retract
;WIPE_END
G1 Z.5 F720 ; move to first perimeter point
G1 X194.941 Y89.104 F10800 ; move to first perimeter point
G1 Z.3 F720 ; move to first perimeter point
G1 E1.4 F2100 ;  ; unretract
M204 S800 ; adjust acceleration
;TYPE:Perimeter
G1 F1200
G1 X194.885 Y89.087 E.0026 ; perimeter
G1 X194.489 Y88.872 E.01999 ; perimeter
G1 X194.094 Y88.524 E.02335 ; perimeter
G1 X193.862 Y88.231 E.01658 ; perimeter
G1 X193.656 Y87.83 E.02 ; perimeter
G1 X193.533 Y87.396 E.02001 ; perimeter
G1 X193.498 Y87.053 E.01529 ; perimeter
G1 X193.54 Y86.553 E.02226 ; perimeter
G1 X193.697 Y86.072 E.02244 ; perimeter
G1 X193.922 Y85.681 E.02001 ; perimeter
G1 X194.219 Y85.343 E.01996 ; perimeter
G1 X194.568 Y85.075 E.01952 ; perimeter
G1 X194.891 Y84.911 E.01607 ; perimeter
G1 X195.31 Y84.782 E.01945 ; perimeter
G1 X195.758 Y84.736 E.01998 ; perimeter
G1 X196.207 Y84.78 E.02001 ; perimeter
G1 X196.638 Y84.913 E.02001 ; perimeter
G1 X197.034 Y85.128 E.01999 ; perimeter
G1 X197.38 Y85.417 E.02 ; perimeter
G1 X197.661 Y85.769 E.01998 ; perimeter
G1 X197.868 Y86.17 E.02002 ; perimeter
G1 X197.99 Y86.604 E.02 ; perimeter
G1 X198.025 Y87.053 E.01998 ; perimeter
G1 X197.969 Y87.501 E.02003 ; perimeter
G1 X197.826 Y87.928 E.01997 ; perimeter
G1 X197.602 Y88.319 E.01999 ; perimeter
G1 X197.304 Y88.657 E.01999 ; perimeter
G1 X196.945 Y88.93 E.02 ; perimeter
G1 X196.55 Y89.123 E.0195 ; perimeter
G1 X196.201 Y89.221 E.01608 ; perimeter
G1 X195.765 Y89.264 E.01943 ; perimeter
G1 X195.316 Y89.22 E.02001 ; perimeter
G1 X194.998 Y89.122 E.01476 ; perimeter
M204 S1000 ; adjust acceleration
G1 X195.048 Y88.771 F10800 ; move to first perimeter point
M204 S800 ; adjust acceleration
;TYPE:External perimeter
G1 F1200
G1 X194.711 Y88.594 E.01688 ; perimeter
G1 X194.366 Y88.296 E.02022 ; perimeter
G1 X194.174 Y88.061 E.01346 ; perimeter
G1 X193.995 Y87.725 E.01689 ; perimeter
G1 X193.887 Y87.361 E.01684 ; perimeter
G1 X193.852 Y87.018 E.01529 ; perimeter
G1 X193.894 Y86.604 E.01846 ; perimeter
G1 X194.009 Y86.242 E.01685 ; perimeter
G1 X194.194 Y85.91 E.01686 ; perimeter
G1 X194.441 Y85.621 E.01686 ; perimeter
G1 X194.737 Y85.388 E.01671 ; perimeter
G1 X195.003 Y85.248 E.01333 ; perimeter
G1 X195.354 Y85.135 E.01636 ; perimeter
G1 X195.732 Y85.091 E.01688 ; perimeter
G1 X196.111 Y85.123 E.01687 ; perimeter
G1 X196.476 Y85.229 E.01686 ; perimeter
G1 X196.812 Y85.406 E.01684 ; perimeter
G1 X197.107 Y85.646 E.01687 ; perimeter
G1 X197.349 Y85.939 E.01686 ; perimeter
G1 X197.528 Y86.275 E.01689 ; perimeter
G1 X197.637 Y86.639 E.01685 ; perimeter
G1 X197.671 Y87.018 E.01688 ; perimeter
G1 X197.63 Y87.396 E.01686 ; perimeter
G1 X197.514 Y87.758 E.01686 ; perimeter
G1 X197.329 Y88.09 E.01686 ; perimeter
G1 X197.082 Y88.379 E.01686 ; perimeter
G1 X196.783 Y88.613 E.01684 ; perimeter
G1 X196.447 Y88.783 E.0167 ; perimeter
G1 X196.158 Y88.868 E.01336 ; perimeter
G1 X195.791 Y88.909 E.01638 ; perimeter
G1 X195.413 Y88.877 E.01683 ; perimeter
G1 X195.105 Y88.788 E.01422 ; perimeter
M204 S1000 ; adjust acceleration
;WIPE_START
G1 F8640
G1 X195.048 Y88.771 E-.01373 ; wipe and retract
G1 X194.711 Y88.594 E-.08789 ; wipe and retract
G1 X194.366 Y88.296 E-.10526 ; wipe and retract
G1 X194.174 Y88.061 E-.07007 ; wipe and retract
G1 X193.995 Y87.725 E-.08791 ; wipe and retract
G1 X193.887 Y87.361 E-.08767 ; wipe and retract
G1 X193.852 Y87.018 E-.07961 ; wipe and retract
G1 X193.894 Y86.604 E-.09608 ; wipe and retract
G1 X194.009 Y86.242 E-.0877 ; wipe and retract
G1 X194.194 Y85.91 E-.08776 ; wipe and retract
G1 X194.441 Y85.621 E-.08778 ; wipe and retract
G1 X194.737 Y85.388 E-.08698 ; wipe and retract
G1 X195.003 Y85.248 E-.06941 ; wipe and retract
G1 X195.354 Y85.135 E-.08514 ; wipe and retract
G1 X195.732 Y85.091 E-.08787 ; wipe and retract
G1 X196.111 Y85.123 E-.08782 ; wipe and retract
G1 X196.476 Y85.229 E-.08776 ; wipe and retract
G1 X196.49 Y85.236 E-.00356 ; wipe and retract
;WIPE_END
G1 Z.5 F720 ; move to first perimeter point
G1 X184.949 Y100.39 F10800 ; move to first perimeter point
G1 Z.3 F720 ; move to first perimeter point
G1 E1.4 F2100 ;  ; unretract
M204 S800 ; adjust acceleration
;TYPE:Perimeter
G1 F1200
G1 X185.21 Y100.84 E.02307 ; perimeter
G1 X185.455 Y101.317 E.02378 ; perimeter
G1 X185.677 Y101.806 E.02382 ; perimeter
G1 X185.873 Y102.305 E.02378 ; perimeter
G1 X186.045 Y102.814 E.02383 ; perimeter
G1 X186.191 Y103.331 E.02383 ; perimeter
G1 X186.311 Y103.854 E.0238 ; perimeter
G1 X186.405 Y104.382 E.02379 ; perimeter
G1 X186.472 Y104.915 E.02383 ; perimeter
G1 X186.513 Y105.45 E.0238 ; perimeter
G1 X186.527 Y105.987 E.02383 ; perimeter
G1 X186.514 Y106.523 E.02378 ; perimeter
G1 X186.475 Y107.059 E.02384 ; perimeter
G1 X186.409 Y107.591 E.02378 ; perimeter
G1 X186.316 Y108.12 E.02382 ; perimeter
G1 X186.198 Y108.644 E.02382 ; perimeter
G1 X186.053 Y109.16 E.02377 ; perimeter
G1 X185.882 Y109.67 E.02386 ; perimeter
G1 X185.687 Y110.169 E.02376 ; perimeter
G1 X185.467 Y110.659 E.02382 ; perimeter
G1 X185.222 Y111.137 E.02382 ; perimeter
G1 X184.955 Y111.602 E.02378 ; perimeter
G1 X184.664 Y112.053 E.02381 ; perimeter
G1 X184.351 Y112.49 E.02384 ; perimeter
G1 X184.017 Y112.91 E.0238 ; perimeter
G1 X183.662 Y113.313 E.02382 ; perimeter
G1 X183.288 Y113.697 E.02378 ; perimeter
G1 X182.895 Y114.063 E.02382 ; perimeter
G1 X182.484 Y114.409 E.02383 ; perimeter
G1 X182.057 Y114.733 E.02377 ; perimeter
G1 X181.614 Y115.036 E.02381 ; perimeter
G1 X181.156 Y115.317 E.02383 ; perimeter
G1 X180.685 Y115.574 E.0238 ; perimeter
G1 X180.201 Y115.807 E.02383 ; perimeter
G1 X179.707 Y116.016 E.02379 ; perimeter
G1 X179.203 Y116.201 E.02381 ; perimeter
G1 X178.69 Y116.36 E.02382 ; perimeter
G1 X178.17 Y116.493 E.02381 ; perimeter
G1 X177.644 Y116.6 E.02381 ; perimeter
G1 X177.113 Y116.68 E.02382 ; perimeter
G1 X176.579 Y116.734 E.02381 ; perimeter
G1 X176.043 Y116.762 E.02381 ; perimeter
G1 X175.507 Y116.763 E.02377 ; perimeter
G1 X174.97 Y116.736 E.02385 ; perimeter
G1 X174.436 Y116.684 E.0238 ; perimeter
G1 X173.905 Y116.604 E.02382 ; perimeter
G1 X173.379 Y116.499 E.02379 ; perimeter
G1 X172.859 Y116.367 E.0238 ; perimeter
G1 X172.346 Y116.209 E.02381 ; perimeter
G1 X171.841 Y116.026 E.02382 ; perimeter
G1 X171.346 Y115.818 E.02382 ; perimeter
G1 X170.862 Y115.586 E.02381 ; perimeter
G1 X170.39 Y115.33 E.02382 ; perimeter
G1 X169.932 Y115.051 E.02379 ; perimeter
G1 X169.488 Y114.749 E.02382 ; perimeter
G1 X169.06 Y114.425 E.02381 ; perimeter
G1 X168.648 Y114.081 E.02381 ; perimeter
G1 X168.254 Y113.716 E.02382 ; perimeter
G1 X167.879 Y113.332 E.02381 ; perimeter
G1 X167.523 Y112.93 E.02382 ; perimeter
G1 X167.188 Y112.511 E.02379 ; perimeter
G1 X166.874 Y112.075 E.02383 ; perimeter
G1 X166.582 Y111.625 E.02379 ; perimeter
G1 X166.313 Y111.16 E.02383 ; perimeter
G1 X166.068 Y110.683 E.02378 ; perimeter
G1 X165.847 Y110.194 E.0238 ; perimeter
G1 X165.65 Y109.695 E.0238 ; perimeter
G1 X165.47 Y109.16 E.02504 ; perimeter
G1 X165.332 Y108.669 E.02262 ; perimeter
G1 X165.212 Y108.146 E.0238 ; perimeter
G1 X165.118 Y107.618 E.02379 ; perimeter
G1 X165.051 Y107.085 E.02383 ; perimeter
G1 X165.009 Y106.505 E.02579 ; perimeter
G1 X165.009 Y105.49 E.04502 ; perimeter
G1 X165.048 Y104.941 E.02441 ; perimeter
G1 X165.114 Y104.409 E.02378 ; perimeter
G1 X165.207 Y103.88 E.02382 ; perimeter
G1 X165.326 Y103.356 E.02383 ; perimeter
G1 X165.47 Y102.839 E.0238 ; perimeter
G1 X165.641 Y102.33 E.02382 ; perimeter
G1 X165.836 Y101.831 E.02376 ; perimeter
G1 X166.056 Y101.341 E.02382 ; perimeter
G1 X166.301 Y100.863 E.02382 ; perimeter
G1 X166.569 Y100.398 E.02381 ; perimeter
G1 X166.859 Y99.947 E.02378 ; perimeter
G1 X167.172 Y99.51 E.02384 ; perimeter
G1 X167.506 Y99.09 E.0238 ; perimeter
G1 X167.861 Y98.687 E.02382 ; perimeter
G1 X168.235 Y98.303 E.02378 ; perimeter
G1 X168.628 Y97.937 E.02382 ; perimeter
G1 X169.039 Y97.591 E.02383 ; perimeter
G1 X169.467 Y97.267 E.02381 ; perimeter
G1 X169.91 Y96.964 E.02381 ; perimeter
G1 X170.367 Y96.683 E.0238 ; perimeter
G1 X170.838 Y96.426 E.0238 ; perimeter
G1 X171.322 Y96.193 E.02383 ; perimeter
G1 X171.816 Y95.984 E.02379 ; perimeter
G1 X172.32 Y95.799 E.02381 ; perimeter
G1 X172.833 Y95.64 E.02382 ; perimeter
G1 X173.353 Y95.507 E.02381 ; perimeter
G1 X173.879 Y95.4 E.02381 ; perimeter
G1 X174.41 Y95.32 E.02382 ; perimeter
G1 X174.944 Y95.266 E.02381 ; perimeter
G1 X175.48 Y95.238 E.02381 ; perimeter
G1 X176.017 Y95.237 E.02382 ; perimeter
G1 X176.553 Y95.264 E.0238 ; perimeter
G1 X177.087 Y95.316 E.0238 ; perimeter
G1 X177.618 Y95.396 E.02382 ; perimeter
G1 X178.144 Y95.501 E.02379 ; perimeter
G1 X178.665 Y95.633 E.02384 ; perimeter
G1 X179.178 Y95.791 E.02381 ; perimeter
G1 X179.682 Y95.974 E.02378 ; perimeter
G1 X180.177 Y96.182 E.02382 ; perimeter
G1 X180.657 Y96.412 E.02361 ; perimeter
G1 X181.133 Y96.67 E.02401 ; perimeter
G1 X181.591 Y96.949 E.02379 ; perimeter
G1 X182.035 Y97.251 E.02382 ; perimeter
G1 X182.463 Y97.575 E.02381 ; perimeter
G1 X182.875 Y97.919 E.02381 ; perimeter
G1 X183.269 Y98.284 E.02382 ; perimeter
G1 X183.644 Y98.668 E.02381 ; perimeter
G1 X184 Y99.07 E.02382 ; perimeter
G1 X184.335 Y99.489 E.02379 ; perimeter
G1 X184.649 Y99.925 E.02383 ; perimeter
G1 X184.917 Y100.339 E.02187 ; perimeter
M204 S1000 ; adjust acceleration
G1 X184.642 Y100.568 F10800 ; move to first perimeter point
M204 S800 ; adjust acceleration
;TYPE:External perimeter
G1 F1200
G1 X184.902 Y101.017 E.02301 ; perimeter
G1 X185.139 Y101.479 E.02303 ; perimeter
G1 X185.352 Y101.952 E.02301 ; perimeter
G1 X185.542 Y102.435 E.02302 ; perimeter
G1 X185.708 Y102.927 E.02303 ; perimeter
G1 X185.849 Y103.427 E.02304 ; perimeter
G1 X185.964 Y103.933 E.02302 ; perimeter
G1 X186.055 Y104.444 E.02302 ; perimeter
G1 X186.119 Y104.959 E.02302 ; perimeter
G1 X186.158 Y105.477 E.02304 ; perimeter
G1 X186.172 Y105.996 E.02303 ; perimeter
G1 X186.159 Y106.514 E.02298 ; perimeter
G1 X186.12 Y107.032 E.02304 ; perimeter
G1 X186.056 Y107.547 E.02302 ; perimeter
G1 X185.966 Y108.058 E.02301 ; perimeter
G1 X185.851 Y108.564 E.02302 ; perimeter
G1 X185.71 Y109.064 E.02304 ; perimeter
G1 X185.545 Y109.556 E.02302 ; perimeter
G1 X185.356 Y110.04 E.02305 ; perimeter
G1 X185.143 Y110.513 E.02301 ; perimeter
G1 X184.906 Y110.975 E.02303 ; perimeter
G1 X184.647 Y111.424 E.02299 ; perimeter
G1 X184.365 Y111.861 E.02307 ; perimeter
G1 X184.062 Y112.282 E.02301 ; perimeter
G1 X183.739 Y112.688 E.02301 ; perimeter
G1 X183.396 Y113.077 E.023 ; perimeter
G1 X183.033 Y113.449 E.02305 ; perimeter
G1 X182.653 Y113.802 E.02301 ; perimeter
G1 X182.256 Y114.136 E.02301 ; perimeter
G1 X181.842 Y114.45 E.02305 ; perimeter
G1 X181.413 Y114.742 E.02302 ; perimeter
G1 X180.97 Y115.013 E.02303 ; perimeter
G1 X180.515 Y115.262 E.02301 ; perimeter
G1 X180.047 Y115.487 E.02303 ; perimeter
G1 X179.569 Y115.689 E.02302 ; perimeter
G1 X179.081 Y115.867 E.02304 ; perimeter
G1 X178.585 Y116.02 E.02302 ; perimeter
G1 X178.082 Y116.148 E.02302 ; perimeter
G1 X177.574 Y116.251 E.02299 ; perimeter
G1 X177.06 Y116.329 E.02306 ; perimeter
G1 X176.544 Y116.381 E.023 ; perimeter
G1 X176.026 Y116.407 E.023 ; perimeter
G1 X175.507 Y116.407 E.02302 ; perimeter
G1 X174.988 Y116.381 E.02305 ; perimeter
G1 X174.472 Y116.33 E.023 ; perimeter
G1 X173.958 Y116.253 E.02305 ; perimeter
G1 X173.45 Y116.15 E.02299 ; perimeter
G1 X172.946 Y116.022 E.02306 ; perimeter
G1 X172.45 Y115.869 E.02302 ; perimeter
G1 X171.963 Y115.692 E.02298 ; perimeter
G1 X171.484 Y115.491 E.02304 ; perimeter
G1 X171.016 Y115.266 E.02303 ; perimeter
G1 X170.56 Y115.018 E.02302 ; perimeter
G1 X170.117 Y114.747 E.02303 ; perimeter
G1 X169.688 Y114.455 E.02302 ; perimeter
G1 X169.275 Y114.142 E.02298 ; perimeter
G1 X168.877 Y113.808 E.02305 ; perimeter
G1 X168.496 Y113.455 E.02304 ; perimeter
G1 X168.134 Y113.084 E.02299 ; perimeter
G1 X167.79 Y112.695 E.02303 ; perimeter
