; generated by PrusaSlicer 2.7.1 on 2023-12-27 at 17:06:13 UTC


;
;
; 

; external perimeters extrusion width = 0.60mm
; perimeters extrusion width = 0.50mm
; infill extrusion width = 0.50mm
; solid infill extrusion width = 0.50mm
; top infill extrusion width = 0.45mm
; first layer extrusion width = 0.42mm

; external perimeters extrusion width = 0.60mm
; perimeters extrusion width = 0.50mm
; infill extrusion width = 0.50mm
; solid infill extrusion width = 0.50mm
; top infill extrusion width = 0.45mm
; first layer extrusion width = 0.42mm

M73 P0 R91
M73 Q0 S93
M201 X1000 Y1000 Z200 E5000 ; sets maximum accelerations, mm/sec^2
M203 X200 Y200 Z12 E120 ; sets maximum feedrates, mm / sec
M204 S1250 T1250 ; sets acceleration (S) and retract acceleration (R), mm/sec^2
M205 X8.00 Y8.00 Z0.40 E4.50 ; sets the jerk limits, mm/sec
M205 S0 T0 ; sets the minimum extruding and travel feed rate, mm/sec

; printing object 5L_hipjoint_lower2-Body.stl id:0 copy 0
; stop printing object 5L_hipjoint_lower2-Body.stl id:0 copy 0
; printing object 5R_hipjoint_lower2-Body.stl id:1 copy 0
; stop printing object 5R_hipjoint_lower2-Body.stl id:1 copy 0

;TYPE:Custom
M862.3 P "MK3S" ; printer model check
M862.1 P0.4 ; nozzle diameter check
M115 U3.12.2 ; tell printer latest fw version
G90 ; use absolute coordinates
M83 ; extruder relative mode
M104 S240 ; set extruder temp
M140 S95 ; set bed temp
M190 S95 ; wait for bed temp
M109 S240 ; wait for extruder temp
G28 W ; home all without mesh bed level
G80 ; mesh bed leveling

G1 Z0.2 F720
G1 Y-3 F1000 ; go outside print area
G92 E0
G1 X60 E9 F1000 ; intro line
G1 X100 E12.5 F1000 ; intro line

G92 E0
M221 S95

; Don't change E values below. Excessive value can damage the printer.

M907 E538 ; set extruder motor current
G21 ; set units to millimeters
G90 ; use absolute coordinates
M83 ; use relative distances for extrusion
M900 K0.08 ; Filament gcode LA 1.5
M900 K45 ; Filament gcode LA 1.0
M107 ; disable fan
;LAYER_CHANGE
;Z:0.3
;HEIGHT:0.3
;BEFORE_LAYER_CHANGE
G92 E0.0
;0.3


G1 E-1.4 F2100 ; retract
G1 Z.3 F720 ; move to next layer (0)
;AFTER_LAYER_CHANGE
;0.3
G1 X79.896 Y36.164 F10800 ; move to print after unknown position
G1 Z.3 F720 ; move to print after unknown position
M73 Q0 S92
G1 E1.4 F2100 ;  ; unretract
M204 S800 ; adjust acceleration
;TYPE:Skirt/Brim
;WIDTH:0.42
G1 F1200
G1 X80.94 Y35.296 E.06022 ; skirt
G1 X81.86 Y35.109 E.04164 ; skirt
G1 X184.779 Y35.109 E4.56495 ; skirt
G1 X186.08 Y35.5 E.06026 ; skirt
G1 X186.948 Y36.545 E.06025 ; skirt
G1 X187.135 Y37.464 E.0416 ; skirt
G1 X187.135 Y87.464 E2.21774 ; skirt
G1 X186.743 Y88.765 E.06027 ; skirt
G1 X185.699 Y89.633 E.06022 ; skirt
G1 X184.779 Y89.82 E.04164 ; skirt
G1 X81.86 Y89.82 E4.56495 ; skirt
G1 X80.56 Y89.428 E.06023 ; skirt
G1 X79.691 Y88.384 E.06025 ; skirt
G1 X79.504 Y87.464 E.04164 ; skirt
G1 X79.504 Y37.464 E2.21774 ; skirt
G1 X79.879 Y36.221 E.05759 ; skirt
M204 S1000 ; adjust acceleration
; printing object 5R_hipjoint_lower2-Body.stl id:1 copy 0
;WIPE_START
G1 F8640
G1 X79.896 Y36.164 E-.01373 ; wipe and retract
G1 X80.94 Y35.296 E-.3135 ; wipe and retract
G1 X81.86 Y35.109 E-.21677 ; wipe and retract
G1 X85.567 Y35.109 E-.856 ; wipe and retract
M73 P0 R90
;WIPE_END
G1 Z.5 F720 ; move to first perimeter point
G1 X134.545 Y38.23 F10800 ; move to first perimeter point
G1 Z.3 F720 ; move to first perimeter point
G1 E1.4 F2100 ;  ; unretract
M204 S800 ; adjust acceleration
;TYPE:Perimeter
;WIDTH:0.42
G1 F1200
G1 X184.014 Y38.23 E2.19419 ; perimeter
G1 X184.014 Y40.22 E.08827 ; perimeter
G1 X184.014 Y86.699 E2.06156 ; perimeter
G1 X134.545 Y86.699 E2.19419 ; perimeter
G1 X134.545 Y38.29 E2.14717 ; perimeter
M204 S1000 ; adjust acceleration
G1 X134.189 Y37.874 F10800 ; move to first perimeter point
M204 S800 ; adjust acceleration
;TYPE:External perimeter
G1 F1200
G1 X184.369 Y37.874 E2.22572 ; perimeter
G1 X184.369 Y40.22 E.10406 ; perimeter
G1 X184.369 Y87.054 E2.07731 ; perimeter
G1 X134.189 Y87.054 E2.22572 ; perimeter
G1 X134.189 Y37.934 E2.17871 ; perimeter
M204 S1000 ; adjust acceleration
;WIPE_START
G1 F8640
G1 X134.189 Y37.874 E-.01385 ; wipe and retract
G1 X140.192 Y37.874 E-1.38615 ; wipe and retract
;WIPE_END
G1 Z.5 F720 ; move to first perimeter point
G1 X180.938 Y44.997 F10800 ; move to first perimeter point
G1 Z.3 F720 ; move to first perimeter point
G1 E1.4 F2100 ;  ; unretract
M204 S800 ; adjust acceleration
;TYPE:Perimeter
G1 F1200
G1 X180.902 Y45.043 E.00259 ; perimeter
G1 X180.557 Y45.333 E.01999 ; perimeter
G1 X180.162 Y45.549 E.01997 ; perimeter
G1 X179.731 Y45.683 E.02002 ; perimeter
G1 X179.283 Y45.728 E.01997 ; perimeter
G1 X178.834 Y45.684 E.02001 ; perimeter
G1 X178.403 Y45.552 E.01999 ; perimeter
G1 X178.007 Y45.337 E.01999 ; perimeter
G1 X177.611 Y44.988 E.02341 ; perimeter
G1 X177.379 Y44.695 E.01658 ; perimeter
G1 X177.173 Y44.294 E.02 ; perimeter
G1 X177.051 Y43.862 E.01991 ; perimeter
G1 X177.015 Y43.438 E.01887 ; perimeter
G1 X177.049 Y43.074 E.01622 ; perimeter
G1 X177.171 Y42.64 E.02 ; perimeter
G1 X177.376 Y42.239 E.01998 ; perimeter
G1 X177.656 Y41.886 E.01998 ; perimeter
G1 X178.001 Y41.596 E.01999 ; perimeter
G1 X178.397 Y41.379 E.02003 ; perimeter
G1 X178.827 Y41.246 E.01996 ; perimeter
G1 X179.276 Y41.2 E.02002 ; perimeter
G1 X179.725 Y41.245 E.02002 ; perimeter
G1 X180.155 Y41.377 E.01995 ; perimeter
G1 X180.552 Y41.592 E.02003 ; perimeter
G1 X180.897 Y41.881 E.01996 ; perimeter
G1 X181.179 Y42.233 E.02001 ; perimeter
G1 X181.385 Y42.634 E.02 ; perimeter
G1 X181.508 Y43.067 E.01997 ; perimeter
G1 X181.543 Y43.491 E.01887 ; perimeter
G1 X181.509 Y43.854 E.01617 ; perimeter
G1 X181.388 Y44.288 E.01998 ; perimeter
G1 X181.183 Y44.69 E.02002 ; perimeter
G1 X180.976 Y44.95 E.01474 ; perimeter
M204 S1000 ; adjust acceleration
G1 X180.667 Y44.776 F10800 ; move to first perimeter point
M204 S800 ; adjust acceleration
;TYPE:External perimeter
G1 F1200
G1 X180.379 Y45.025 E.01689 ; perimeter
G1 X180.048 Y45.212 E.01686 ; perimeter
G1 X179.687 Y45.33 E.01685 ; perimeter
G1 X179.309 Y45.373 E.01687 ; perimeter
G1 X178.93 Y45.342 E.01687 ; perimeter
G1 X178.565 Y45.235 E.01687 ; perimeter
G1 X178.228 Y45.059 E.01686 ; perimeter
G1 X177.884 Y44.76 E.02022 ; perimeter
G1 X177.692 Y44.525 E.01346 ; perimeter
G1 X177.513 Y44.19 E.01685 ; perimeter
G1 X177.404 Y43.826 E.01685 ; perimeter
G1 X177.37 Y43.463 E.01617 ; perimeter
G1 X177.394 Y43.162 E.01339 ; perimeter
G1 X177.491 Y42.795 E.01684 ; perimeter
G1 X177.659 Y42.454 E.01686 ; perimeter
G1 X177.892 Y42.153 E.01688 ; perimeter
G1 X178.179 Y41.904 E.01685 ; perimeter
G1 X178.51 Y41.717 E.01686 ; perimeter
G1 X178.872 Y41.599 E.01689 ; perimeter
G1 X179.249 Y41.555 E.01684 ; perimeter
G1 X179.628 Y41.587 E.01687 ; perimeter
G1 X179.993 Y41.693 E.01686 ; perimeter
G1 X180.33 Y41.87 E.01688 ; perimeter
G1 X180.625 Y42.11 E.01687 ; perimeter
G1 X180.867 Y42.403 E.01686 ; perimeter
G1 X181.045 Y42.739 E.01687 ; perimeter
G1 X181.154 Y43.103 E.01685 ; perimeter
G1 X181.189 Y43.466 E.01618 ; perimeter
G1 X181.164 Y43.767 E.0134 ; perimeter
G1 X181.067 Y44.134 E.01684 ; perimeter
G1 X180.899 Y44.475 E.01686 ; perimeter
G1 X180.703 Y44.728 E.0142 ; perimeter
M204 S1000 ; adjust acceleration
;WIPE_START
G1 F8640
G1 X180.667 Y44.776 E-.01385 ; wipe and retract
G1 X180.379 Y45.025 E-.08791 ; wipe and retract
G1 X180.048 Y45.212 E-.08778 ; wipe and retract
G1 X179.687 Y45.33 E-.0877 ; wipe and retract
G1 X179.309 Y45.373 E-.08784 ; wipe and retract
G1 X178.93 Y45.342 E-.0878 ; wipe and retract
G1 X178.565 Y45.235 E-.08783 ; wipe and retract
G1 X178.228 Y45.059 E-.08779 ; wipe and retract
G1 X177.884 Y44.76 E-.10524 ; wipe and retract
G1 X177.692 Y44.525 E-.07007 ; wipe and retract
G1 X177.513 Y44.19 E-.0877 ; wipe and retract
G1 X177.404 Y43.826 E-.08774 ; wipe and retract
G1 X177.37 Y43.463 E-.08418 ; wipe and retract
G1 X177.394 Y43.162 E-.06972 ; wipe and retract
G1 X177.491 Y42.795 E-.08765 ; wipe and retract
G1 X177.659 Y42.454 E-.08777 ; wipe and retract
G1 X177.892 Y42.153 E-.08789 ; wipe and retract
G1 X177.904 Y42.143 E-.00354 ; wipe and retract
;WIPE_END
G1 Z.5 F720 ; move to first perimeter point
G1 X167.528 Y55.547 F10800 ; move to first perimeter point
G1 Z.3 F720 ; move to first perimeter point
G1 E1.4 F2100 ;  ; unretract
M204 S800 ; adjust acceleration
;TYPE:Perimeter
G1 F1200
G1 X167.853 Y55.953 E.02307 ; perimeter
G1 X168.167 Y56.389 E.02383 ; perimeter
G1 X168.458 Y56.839 E.02377 ; perimeter
G1 X168.727 Y57.304 E.02383 ; perimeter
G1 X168.973 Y57.781 E.02381 ; perimeter
G1 X169.194 Y58.27 E.0238 ; perimeter
G1 X169.391 Y58.77 E.02384 ; perimeter
G1 X169.563 Y59.278 E.02379 ; perimeter
G1 X169.709 Y59.795 E.02383 ; perimeter
G1 X169.829 Y60.318 E.0238 ; perimeter
G1 X169.923 Y60.847 E.02383 ; perimeter
G1 X169.99 Y61.379 E.02378 ; perimeter
G1 X170.031 Y61.914 E.0238 ; perimeter
G1 X170.045 Y62.451 E.02383 ; perimeter
G1 X170.032 Y62.988 E.02383 ; perimeter
G1 X169.993 Y63.523 E.02379 ; perimeter
G1 X169.926 Y64.056 E.02383 ; perimeter
G1 X169.834 Y64.584 E.02377 ; perimeter
G1 X169.715 Y65.108 E.02383 ; perimeter
G1 X169.57 Y65.625 E.02382 ; perimeter
G1 X169.4 Y66.134 E.0238 ; perimeter
G1 X169.205 Y66.634 E.0238 ; perimeter
G1 X168.984 Y67.123 E.0238 ; perimeter
G1 X168.74 Y67.601 E.0238 ; perimeter
G1 X168.472 Y68.066 E.02381 ; perimeter
G1 X168.182 Y68.518 E.02382 ; perimeter
G1 X167.869 Y68.954 E.02381 ; perimeter
G1 X167.535 Y69.374 E.0238 ; perimeter
G1 X167.18 Y69.777 E.02382 ; perimeter
G1 X166.806 Y70.162 E.02381 ; perimeter
G1 X166.413 Y70.527 E.02379 ; perimeter
G1 X166.002 Y70.873 E.02383 ; perimeter
G1 X165.602 Y71.176 E.02226 ; perimeter
G1 X165.131 Y71.5 E.02536 ; perimeter
G1 X164.673 Y71.781 E.02383 ; perimeter
G1 X164.202 Y72.038 E.0238 ; perimeter
G1 X163.719 Y72.272 E.02381 ; perimeter
G1 X163.225 Y72.481 E.02379 ; perimeter
G1 X162.72 Y72.665 E.02384 ; perimeter
G1 X162.208 Y72.824 E.02378 ; perimeter
G1 X161.688 Y72.957 E.02381 ; perimeter
G1 X161.162 Y73.064 E.02381 ; perimeter
G1 X160.631 Y73.145 E.02382 ; perimeter
G1 X160.097 Y73.199 E.02381 ; perimeter
G1 X159.561 Y73.226 E.0238 ; perimeter
G1 X159.024 Y73.227 E.02382 ; perimeter
G1 X158.488 Y73.201 E.0238 ; perimeter
G1 X157.954 Y73.148 E.0238 ; perimeter
G1 X157.423 Y73.069 E.02381 ; perimeter
G1 X156.897 Y72.963 E.0238 ; perimeter
G1 X156.376 Y72.831 E.02384 ; perimeter
G1 X155.863 Y72.673 E.02381 ; perimeter
G1 X155.358 Y72.49 E.02382 ; perimeter
G1 X154.864 Y72.283 E.02376 ; perimeter
G1 X154.38 Y72.05 E.02383 ; perimeter
G1 X153.908 Y71.794 E.02382 ; perimeter
G1 X153.45 Y71.515 E.02379 ; perimeter
G1 X153.006 Y71.213 E.02382 ; perimeter
G1 X152.577 Y70.889 E.02385 ; perimeter
G1 X152.166 Y70.545 E.02377 ; perimeter
G1 X151.772 Y70.18 E.02382 ; perimeter
G1 X151.397 Y69.796 E.02381 ; perimeter
G1 X151.041 Y69.394 E.02382 ; perimeter
G1 X150.706 Y68.975 E.02379 ; perimeter
G1 X150.392 Y68.54 E.0238 ; perimeter
G1 X150.1 Y68.089 E.02383 ; perimeter
G1 X149.831 Y67.625 E.02379 ; perimeter
G1 X149.586 Y67.147 E.02382 ; perimeter
G1 X149.364 Y66.658 E.02382 ; perimeter
G1 X149.167 Y66.159 E.0238 ; perimeter
G1 X148.996 Y65.65 E.02382 ; perimeter
G1 X148.85 Y65.134 E.02379 ; perimeter
G1 X148.73 Y64.61 E.02384 ; perimeter
G1 X148.636 Y64.082 E.02379 ; perimeter
G1 X148.568 Y63.549 E.02383 ; perimeter
G1 X148.528 Y63.014 E.0238 ; perimeter
G1 X148.514 Y62.478 E.02378 ; perimeter
G1 X148.526 Y61.941 E.02382 ; perimeter
G1 X148.566 Y61.406 E.0238 ; perimeter
G1 X148.632 Y60.873 E.02382 ; perimeter
G1 X148.725 Y60.344 E.02382 ; perimeter
G1 X148.843 Y59.821 E.02378 ; perimeter
G1 X148.988 Y59.303 E.02386 ; perimeter
G1 X149.333 Y58.348 E.04504 ; perimeter
G1 X149.573 Y57.807 E.02625 ; perimeter
G1 X149.818 Y57.327 E.0239 ; perimeter
G1 X150.086 Y56.862 E.02381 ; perimeter
G1 X150.377 Y56.411 E.02381 ; perimeter
G1 X150.69 Y55.975 E.02381 ; perimeter
G1 X151.024 Y55.554 E.02384 ; perimeter
G1 X151.378 Y55.152 E.02376 ; perimeter
G1 X151.753 Y54.767 E.02384 ; perimeter
G1 X152.146 Y54.401 E.02382 ; perimeter
G1 X152.557 Y54.056 E.0238 ; perimeter
G1 X152.956 Y53.752 E.02225 ; perimeter
G1 X153.427 Y53.428 E.02536 ; perimeter
G1 X153.885 Y53.148 E.02381 ; perimeter
G1 X154.356 Y52.89 E.02382 ; perimeter
G1 X154.839 Y52.657 E.02379 ; perimeter
G1 X155.334 Y52.448 E.02383 ; perimeter
G1 X155.838 Y52.264 E.0238 ; perimeter
G1 X156.351 Y52.105 E.02382 ; perimeter
G1 X156.871 Y51.972 E.02381 ; perimeter
G1 X157.397 Y51.865 E.02381 ; perimeter
G1 X157.927 Y51.784 E.02378 ; perimeter
G1 X158.461 Y51.73 E.02381 ; perimeter
G1 X158.998 Y51.702 E.02385 ; perimeter
G1 X159.534 Y51.702 E.02377 ; perimeter
G1 X160.07 Y51.728 E.0238 ; perimeter
G1 X160.605 Y51.781 E.02385 ; perimeter
G1 X161.136 Y51.86 E.02381 ; perimeter
G1 X161.662 Y51.966 E.0238 ; perimeter
G1 X162.182 Y52.097 E.02379 ; perimeter
G1 X162.695 Y52.255 E.02381 ; perimeter
G1 X163.2 Y52.438 E.02382 ; perimeter
G1 X163.695 Y52.646 E.02382 ; perimeter
G1 X164.179 Y52.878 E.02381 ; perimeter
G1 X164.65 Y53.134 E.02378 ; perimeter
G1 X165.109 Y53.414 E.02385 ; perimeter
G1 X165.553 Y53.716 E.02382 ; perimeter
G1 X165.981 Y54.039 E.02378 ; perimeter
G1 X166.393 Y54.384 E.02384 ; perimeter
G1 X166.787 Y54.748 E.02379 ; perimeter
G1 X167.162 Y55.132 E.02381 ; perimeter
G1 X167.489 Y55.502 E.0219 ; perimeter
M204 S1000 ; adjust acceleration
G1 X167.251 Y55.769 F10800 ; move to first perimeter point
M204 S800 ; adjust acceleration
;TYPE:External perimeter
G1 F1200
G1 X167.575 Y56.175 E.02304 ; perimeter
G1 X167.878 Y56.596 E.02301 ; perimeter
G1 X168.16 Y57.032 E.02303 ; perimeter
G1 X168.419 Y57.482 E.02303 ; perimeter
G1 X168.656 Y57.944 E.02303 ; perimeter
G1 X168.87 Y58.417 E.02303 ; perimeter
G1 X169.06 Y58.9 E.02302 ; perimeter
G1 X169.225 Y59.392 E.02302 ; perimeter
G1 X169.366 Y59.891 E.023 ; perimeter
G1 X169.482 Y60.397 E.02303 ; perimeter
G1 X169.572 Y60.908 E.02301 ; perimeter
G1 X169.637 Y61.423 E.02302 ; perimeter
G1 X169.676 Y61.941 E.02304 ; perimeter
G1 X169.689 Y62.46 E.02303 ; perimeter
G1 X169.676 Y62.979 E.02303 ; perimeter
G1 X169.638 Y63.496 E.02299 ; perimeter
G1 X169.574 Y64.011 E.02302 ; perimeter
G1 X169.484 Y64.523 E.02306 ; perimeter
G1 X169.368 Y65.029 E.02303 ; perimeter
G1 X169.228 Y65.528 E.02299 ; perimeter
G1 X169.063 Y66.021 E.02306 ; perimeter
G1 X168.874 Y66.504 E.02301 ; perimeter
G1 X168.66 Y66.977 E.02303 ; perimeter
G1 X168.424 Y67.439 E.02301 ; perimeter
G1 X168.164 Y67.889 E.02305 ; perimeter
G1 X167.883 Y68.325 E.02301 ; perimeter
G1 X167.58 Y68.746 E.02301 ; perimeter
G1 X167.257 Y69.152 E.02301 ; perimeter
G1 X166.913 Y69.542 E.02307 ; perimeter
G1 X166.551 Y69.913 E.02299 ; perimeter
G1 X166.171 Y70.267 E.02304 ; perimeter
G1 X165.773 Y70.6 E.02302 ; perimeter
G1 X165.36 Y70.914 E.02301 ; perimeter
G1 X164.931 Y71.207 E.02304 ; perimeter
G1 X164.488 Y71.477 E.02301 ; perimeter
G1 X164.032 Y71.726 E.02304 ; perimeter
G1 X163.565 Y71.951 E.02299 ; perimeter
G1 X163.087 Y72.153 E.02302 ; perimeter
G1 X162.599 Y72.331 E.02304 ; perimeter
G1 X162.103 Y72.484 E.02302 ; perimeter
G1 X161.6 Y72.612 E.02302 ; perimeter
G1 X161.091 Y72.715 E.02303 ; perimeter
G1 X160.578 Y72.793 E.02302 ; perimeter
G1 X160.062 Y72.845 E.023 ; perimeter
G1 X159.543 Y72.871 E.02305 ; perimeter
G1 X159.024 Y72.871 E.02302 ; perimeter
G1 X158.506 Y72.845 E.023 ; perimeter
G1 X157.989 Y72.794 E.02304 ; perimeter
G1 X157.476 Y72.717 E.02301 ; perimeter
G1 X156.967 Y72.614 E.02303 ; perimeter
G1 X156.464 Y72.486 E.02302 ; perimeter
G1 X155.968 Y72.334 E.02301 ; perimeter
G1 X155.48 Y72.156 E.02304 ; perimeter
G1 X155.002 Y71.955 E.023 ; perimeter
G1 X154.534 Y71.73 E.02303 ; perimeter
G1 X154.078 Y71.482 E.02302 ; perimeter
G1 X153.635 Y71.211 E.02303 ; perimeter
G1 X153.206 Y70.919 E.02302 ; perimeter
G1 X152.792 Y70.606 E.02302 ; perimeter
G1 X152.394 Y70.272 E.02305 ; perimeter
G1 X152.014 Y69.92 E.02297 ; perimeter
G1 X151.651 Y69.548 E.02305 ; perimeter
G1 X151.308 Y69.159 E.023 ; perimeter
G1 X150.984 Y68.753 E.02304 ; perimeter
G1 X150.681 Y68.332 E.02301 ; perimeter
