; generated by PrusaSlicer 2.5.0 on 2023-02-11 at 13:56:10 UTC


;
;
; 

; external perimeters extrusion width = 0.60mm
; perimeters extrusion width = 0.50mm
; infill extrusion width = 0.50mm
; solid infill extrusion width = 0.50mm
; top infill extrusion width = 0.45mm
; first layer extrusion width = 0.42mm

; external perimeters extrusion width = 0.60mm
; perimeters extrusion width = 0.50mm
; infill extrusion width = 0.50mm
; solid infill extrusion width = 0.50mm
; top infill extrusion width = 0.45mm
; first layer extrusion width = 0.42mm

M73 P0 R99
M73 Q0 S101
M201 X1000 Y1000 Z200 E5000 ; sets maximum accelerations, mm/sec^2
M203 X200 Y200 Z12 E120 ; sets maximum feedrates, mm / sec
M204 P1250 R1250 T1250 ; sets acceleration (P, T) and retract acceleration (R), mm/sec^2
M205 X8.00 Y8.00 Z0.40 E4.50 ; sets the jerk limits, mm/sec
M205 S0 T0 ; sets the minimum extruding and travel feed rate, mm/sec
M107
;TYPE:Custom
M862.3 P "MK3S" ; printer model check
M862.1 P0.4 ; nozzle diameter check
M115 U3.11.0 ; tell printer latest fw version
G90 ; use absolute coordinates
M83 ; extruder relative mode
M104 S240 ; set extruder temp
M140 S95 ; set bed temp
M190 S95 ; wait for bed temp
M109 S240 ; wait for extruder temp
G28 W ; home all without mesh bed level
G80 ; mesh bed leveling

G1 Z0.2 F720
G1 Y-3 F1000 ; go outside print area
G92 E0
G1 X60 E9 F1000 ; intro line
G1 X100 E12.5 F1000 ; intro line

G92 E0
M221 S95

; Don't change E values below. Excessive value can damage the printer.

M907 E538 ; set extruder motor current
G21 ; set units to millimeters
G90 ; use absolute coordinates
M83 ; use relative distances for extrusion
M900 K0.08 ; Filament gcode LA 1.5
M900 K45 ; Filament gcode LA 1.0
M107
;LAYER_CHANGE
;Z:0.3
;HEIGHT:0.3
;BEFORE_LAYER_CHANGE
G92 E0.0
;0.3


G1 E-1.4 F2100
G1 Z.2 F720
G1 Z.3
;AFTER_LAYER_CHANGE
;0.3
G1 Z.5
G1 X70.217 Y35.125 F10800
G1 Z.3 F720
G1 E1.4 F2100
M204 S800
;TYPE:Skirt/Brim
;WIDTH:0.42
G1 F1200
G1 X71.261 Y34.257 E.06024
G1 X72.171 Y34.07 E.04122
G1 X126.561 Y33.852 E2.41248
G1 X178.561 Y33.852 E2.30645
G1 X179.862 Y34.244 E.06024
G1 X180.73 Y35.288 E.06024
G1 X180.917 Y36.208 E.04163
G1 X180.917 Y86.208 E2.21774
G1 X180.525 Y87.509 E.06024
G1 X179.481 Y88.377 E.06024
G1 X178.571 Y88.564 E.04122
G1 X124.19 Y88.781 E2.41206
G1 X72.181 Y88.781 E2.30687
G1 X70.88 Y88.39 E.06024
G1 X70.012 Y87.346 E.06024
G1 X69.825 Y86.426 E.04163
G1 X69.825 Y36.426 E2.21774
G1 X70.199 Y35.183 E.05758
M204 S1000
; printing object 5L_hipjoint_lower-Body.stl id:0 copy 0
;WIPE_START
G1 F8640
M73 Q0 S100
G1 X71.261 Y34.257 E-.32524
G1 X72.171 Y34.07 E-.21458
G1 X75.593 Y34.056 E-.79019
;WIPE_END
G1 E-.07 F2100
G1 Z.5 F720
G1 X127.327 Y36.974 F10800
G1 Z.3 F720
G1 E1.4 F2100
M204 S800
;TYPE:Perimeter
;WIDTH:0.42
G1 F1200
G1 X177.796 Y36.974 E2.23853
G1 X177.796 Y85.442 E2.14982
G1 X127.327 Y85.442 E2.23853
G1 X127.327 Y37.034 E2.14716
M204 S1000
G1 X126.971 Y36.618 F10800
M204 S800
;TYPE:External perimeter
G1 F1200
G1 X178.151 Y36.618 E2.27008
G1 X178.151 Y85.798 E2.18137
G1 X126.971 Y85.798 E2.27008
G1 X126.971 Y36.678 E2.17871
M204 S1000
G1 X127.358 Y36.719 F10800
;WIPE_START
G1 F8640
G1 X132.731 Y36.671 E-1.33
;WIPE_END
G1 E-.07 F2100
G1 Z.5 F720
G1 X132.5 Y39.95 F10800
G1 Z.3 F720
G1 E1.4 F2100
M204 S800
;TYPE:Perimeter
G1 F1200
G1 X133.007 Y39.989 E.02252
G1 X133.438 Y40.121 E.02
G1 X133.834 Y40.336 E.02
G1 X134.18 Y40.625 E.02
G1 X134.461 Y40.977 E.01999
G1 X134.667 Y41.378 E.02
G1 X134.79 Y41.812 E.02
G1 X134.825 Y42.261 E.01999
G1 X134.773 Y42.695 E.0194
G1 X134.67 Y43.032 E.01563
G1 X134.465 Y43.434 E.01998
G1 X134.184 Y43.786 E.02
G1 X133.839 Y44.077 E.01999
G1 X133.444 Y44.293 E.02
G1 X133.013 Y44.426 E.01999
G1 X132.565 Y44.472 E.02
G1 X132.116 Y44.428 E.01999
G1 X131.685 Y44.295 E.02
G1 X131.289 Y44.08 E.02
G1 X130.943 Y43.791 E.02
G1 X130.661 Y43.439 E.01999
G1 X130.455 Y43.038 E.02
G1 X130.332 Y42.604 E.02
G1 X130.298 Y42.261 E.0153
G1 X130.35 Y41.721 E.02408
G1 X130.453 Y41.384 E.01563
G1 X130.658 Y40.983 E.01998
G1 X130.938 Y40.63 E.02
G1 X131.283 Y40.34 E.01999
G1 X131.679 Y40.123 E.02
G1 X132.109 Y39.99 E.01999
G1 X132.441 Y39.956 E.01476
M204 S1000
G1 X133.275 Y40.437 F10800
M204 S800
;TYPE:External perimeter
G1 F1200
G1 X133.612 Y40.614 E.01687
G1 X133.907 Y40.854 E.01686
G1 X134.149 Y41.147 E.01686
G1 X134.328 Y41.483 E.01687
G1 X134.436 Y41.847 E.01687
G1 X134.471 Y42.226 E.01686
G1 X134.431 Y42.599 E.01665
G1 X134.349 Y42.878 E.01289
G1 X134.181 Y43.219 E.01685
G1 X133.949 Y43.52 E.01687
G1 X133.662 Y43.769 E.01686
G1 X133.33 Y43.956 E.01687
G1 X132.969 Y44.073 E.01686
G1 X132.591 Y44.117 E.01687
G1 X132.212 Y44.085 E.01686
G1 X131.847 Y43.979 E.01687
G1 X131.511 Y43.802 E.01687
G1 X131.215 Y43.563 E.01687
G1 X130.974 Y43.269 E.01686
G1 X130.795 Y42.933 E.01687
G1 X130.686 Y42.569 E.01687
G1 X130.652 Y42.226 E.0153
G1 X130.692 Y41.817 E.01822
G1 X130.773 Y41.538 E.01289
G1 X130.941 Y41.197 E.01685
G1 X131.174 Y40.896 E.01687
G1 X131.461 Y40.648 E.01686
G1 X131.792 Y40.46 E.01687
G1 X132.154 Y40.343 E.01686
G1 X132.531 Y40.299 E.01687
G1 X132.91 Y40.331 E.01686
G1 X133.218 Y40.42 E.0142
M204 S1000
G1 X133.575 Y40.203 F10800
;WIPE_START
G1 F8640
G1 X133.612 Y40.614 E-.10142
G1 X133.907 Y40.854 E-.0878
G1 X134.149 Y41.147 E-.08779
G1 X134.328 Y41.483 E-.0878
G1 X134.436 Y41.847 E-.0878
G1 X134.471 Y42.226 E-.0878
G1 X134.431 Y42.599 E-.0867
G1 X134.349 Y42.878 E-.06711
G1 X134.181 Y43.219 E-.08769
G1 X133.949 Y43.52 E-.0878
G1 X133.662 Y43.769 E-.08779
G1 X133.33 Y43.956 E-.0878
G1 X132.969 Y44.073 E-.08779
G1 X132.591 Y44.117 E-.0878
G1 X132.212 Y44.085 E-.08779
G1 X132.124 Y44.06 E-.02132
;WIPE_END
G1 E-.07 F2100
G1 Z.5 F720
G1 X130.482 Y81.09 F10800
G1 Z.3 F720
G1 E1.4 F2100
M204 S800
;TYPE:Perimeter
G1 F1200
G1 X130.332 Y80.604 E.02252
G1 X130.298 Y80.261 E.0153
G1 X130.354 Y79.708 E.02468
G1 X130.496 Y79.28 E.02
G1 X130.714 Y78.898 E.01949
G1 X130.947 Y78.621 E.01606
G1 X131.283 Y78.34 E.01945
G1 X131.679 Y78.123 E.01999
G1 X132.109 Y77.99 E.01999
G1 X132.558 Y77.944 E.02
G1 X133.007 Y77.989 E.02
G1 X133.438 Y78.121 E.02
G1 X133.834 Y78.336 E.02
G1 X134.18 Y78.625 E.01999
G1 X134.461 Y78.977 E.01999
G1 X134.667 Y79.378 E.02
G1 X134.79 Y79.812 E.02
G1 X134.825 Y80.261 E.02
G1 X134.769 Y80.709 E.02
G1 X134.626 Y81.136 E.02
G1 X134.409 Y81.518 E.01949
G1 X134.176 Y81.795 E.01606
G1 X133.839 Y82.077 E.01945
G1 X133.444 Y82.293 E.01999
G1 X133.013 Y82.426 E.01999
G1 X132.565 Y82.472 E.02
G1 X132.116 Y82.428 E.02
G1 X131.685 Y82.295 E.02
G1 X131.289 Y82.08 E.02
G1 X130.943 Y81.791 E.02
G1 X130.661 Y81.439 E.01999
G1 X130.509 Y81.143 E.01476
M204 S1000
G1 X130.795 Y80.933 F10800
M204 S800
;TYPE:External perimeter
G1 F1200
G1 X130.686 Y80.569 E.01687
G1 X130.652 Y80.226 E.0153
G1 X130.693 Y79.812 E.01843
G1 X130.809 Y79.45 E.01686
G1 X130.991 Y79.121 E.01669
G1 X131.182 Y78.888 E.01335
G1 X131.461 Y78.647 E.01636
G1 X131.792 Y78.46 E.01686
G1 X132.154 Y78.343 E.01686
G1 X132.531 Y78.299 E.01687
G1 X132.91 Y78.331 E.01687
G1 X133.275 Y78.437 E.01687
G1 X133.612 Y78.614 E.01687
G1 X133.907 Y78.854 E.01686
G1 X134.149 Y79.147 E.01686
G1 X134.328 Y79.483 E.01687
G1 X134.436 Y79.847 E.01687
G1 X134.471 Y80.226 E.01686
G1 X134.429 Y80.604 E.01687
G1 X134.314 Y80.966 E.01686
G1 X134.131 Y81.295 E.01669
G1 X133.941 Y81.528 E.01335
G1 X133.661 Y81.769 E.01636
G1 X133.33 Y81.956 E.01686
G1 X132.969 Y82.073 E.01686
G1 X132.591 Y82.117 E.01687
G1 X132.212 Y82.085 E.01687
G1 X131.847 Y81.979 E.01687
G1 X131.511 Y81.802 E.01686
G1 X131.215 Y81.563 E.01687
G1 X130.974 Y81.269 E.01686
G1 X130.823 Y80.986 E.0142
M204 S1000
G1 X130.418 Y80.883 F10800
;WIPE_START
G1 F8640
G1 X130.686 Y80.569 E-.10142
G1 X130.652 Y80.226 E-.07966
G1 X130.693 Y79.812 E-.09593
G1 X130.809 Y79.45 E-.08779
G1 X130.991 Y79.121 E-.08687
G1 X131.182 Y78.888 E-.06948
G1 X131.461 Y78.647 E-.08515
G1 X131.792 Y78.46 E-.08779
G1 X132.154 Y78.343 E-.08779
G1 X132.531 Y78.299 E-.0878
G1 X132.91 Y78.331 E-.0878
G1 X133.275 Y78.437 E-.0878
G1 X133.612 Y78.614 E-.0878
G1 X133.907 Y78.854 E-.08779
G1 X134.149 Y79.147 E-.08779
G1 X134.192 Y79.229 E-.02133
;WIPE_END
G1 E-.07 F2100
G1 Z.5 F720
G1 X170.698 Y81.484 F10800
G1 Z.3 F720
G1 E1.4 F2100
M204 S800
;TYPE:Perimeter
G1 F1200
G1 X170.455 Y81.038 E.02252
G1 X170.332 Y80.604 E.01999
G1 X170.298 Y80.261 E.0153
G1 X170.341 Y79.756 E.02249
G1 X170.496 Y79.28 E.0222
G1 X170.714 Y78.898 E.01949
G1 X170.947 Y78.621 E.01607
G1 X171.283 Y78.339 E.01945
G1 X171.679 Y78.123 E.01999
G1 X172.109 Y77.99 E.01999
G1 X172.558 Y77.944 E.02
G1 X173.007 Y77.989 E.02
G1 X173.438 Y78.121 E.02
G1 X173.834 Y78.336 E.02
G1 X174.18 Y78.625 E.01999
G1 X174.461 Y78.977 E.01999
G1 X174.667 Y79.378 E.02
M73 P0 R98
G1 X174.79 Y79.812 E.01999
G1 X174.825 Y80.261 E.02
G1 X174.769 Y80.709 E.02
G1 X174.626 Y81.136 E.01999
G1 X174.409 Y81.518 E.01949
G1 X174.175 Y81.795 E.01606
G1 X173.839 Y82.077 E.01945
G1 X173.444 Y82.293 E.01999
G1 X173.013 Y82.426 E.01999
G1 X172.565 Y82.472 E.02
G1 X172.116 Y82.428 E.02
G1 X171.685 Y82.295 E.02
G1 X171.289 Y82.08 E.02
G1 X170.943 Y81.791 E.02
G1 X170.735 Y81.531 E.01476
M204 S1000
G1 X170.974 Y81.269 F10800
M204 S800
;TYPE:External perimeter
G1 F1200
G1 X170.795 Y80.933 E.01687
G1 X170.686 Y80.569 E.01686
G1 X170.652 Y80.226 E.0153
G1 X170.693 Y79.812 E.01843
G1 X170.809 Y79.45 E.01686
G1 X170.991 Y79.121 E.01669
G1 X171.182 Y78.888 E.01335
G1 X171.461 Y78.647 E.01636
G1 X171.792 Y78.46 E.01686
G1 X172.154 Y78.343 E.01686
G1 X172.531 Y78.299 E.01687
G1 X172.91 Y78.331 E.01687
G1 X173.275 Y78.437 E.01687
G1 X173.612 Y78.614 E.01687
G1 X173.907 Y78.854 E.01686
G1 X174.149 Y79.147 E.01686
G1 X174.328 Y79.483 E.01687
G1 X174.436 Y79.847 E.01686
G1 X174.471 Y80.226 E.01686
G1 X174.429 Y80.604 E.01687
G1 X174.314 Y80.966 E.01686
G1 X174.131 Y81.295 E.01669
G1 X173.941 Y81.528 E.01335
G1 X173.661 Y81.769 E.01636
G1 X173.33 Y81.956 E.01686
G1 X172.969 Y82.073 E.01686
G1 X172.591 Y82.117 E.01687
G1 X172.212 Y82.085 E.01686
G1 X171.847 Y81.979 E.01687
G1 X171.511 Y81.802 E.01686
G1 X171.215 Y81.563 E.01687
G1 X171.012 Y81.315 E.0142
M204 S1000
G1 X170.594 Y81.294 F10800
;WIPE_START
G1 F8640
G1 X170.795 Y80.933 E-.10142
G1 X170.686 Y80.569 E-.08779
G1 X170.652 Y80.226 E-.07966
G1 X170.693 Y79.812 E-.09593
G1 X170.809 Y79.45 E-.0878
G1 X170.991 Y79.121 E-.08687
G1 X171.182 Y78.888 E-.06948
G1 X171.461 Y78.647 E-.08516
G1 X171.792 Y78.46 E-.08779
G1 X172.154 Y78.343 E-.08779
G1 X172.531 Y78.299 E-.0878
G1 X172.91 Y78.331 E-.0878
G1 X173.275 Y78.437 E-.0878
G1 X173.612 Y78.614 E-.0878
G1 X173.907 Y78.854 E-.08779
G1 X173.966 Y78.925 E-.02132
;WIPE_END
G1 E-.07 F2100
G1 Z.5 F720
G1 X171.34 Y44.108 F10800
G1 Z.3 F720
G1 E1.4 F2100
M204 S800
;TYPE:Perimeter
G1 F1200
G1 X170.943 Y43.791 E.02252
G1 X170.661 Y43.439 E.01999
G1 X170.455 Y43.038 E.02
G1 X170.332 Y42.604 E.01999
G1 X170.298 Y42.262 E.01528
G1 X170.331 Y41.818 E.01974
G1 X170.453 Y41.384 E.01998
G1 X170.658 Y40.983 E.01999
G1 X170.938 Y40.63 E.02
G1 X171.283 Y40.34 E.02
G1 X171.679 Y40.123 E.02
G1 X172.109 Y39.99 E.01999
G1 X172.558 Y39.944 E.02
G1 X173.007 Y39.989 E.01999
G1 X173.438 Y40.121 E.02
G1 X173.834 Y40.336 E.02
G1 X174.18 Y40.625 E.02
G1 X174.461 Y40.977 E.01999
G1 X174.667 Y41.378 E.02
G1 X174.79 Y41.812 E.01999
G1 X174.826 Y42.248 E.0194
G1 X174.791 Y42.598 E.01563
G1 X174.67 Y43.032 E.01998
G1 X174.465 Y43.434 E.01999
G1 X174.184 Y43.786 E.02
G1 X173.839 Y44.077 E.02
G1 X173.444 Y44.293 E.02
G1 X173.013 Y44.426 E.01999
G1 X172.565 Y44.472 E.02
G1 X172.116 Y44.428 E.01999
G1 X171.685 Y44.295 E.02
G1 X171.393 Y44.137 E.01476
M204 S1000
G1 X171.511 Y43.802 F10800
M204 S800
;TYPE:External perimeter
G1 F1200
G1 X171.215 Y43.563 E.01687
G1 X170.974 Y43.269 E.01686
G1 X170.795 Y42.933 E.01687
G1 X170.686 Y42.569 E.01686
G1 X170.652 Y42.226 E.01528
G1 X170.676 Y41.906 E.01426
G1 X170.773 Y41.538 E.01685
G1 X170.941 Y41.197 E.01686
G1 X171.174 Y40.896 E.01687
G1 X171.461 Y40.647 E.01687
G1 X171.792 Y40.46 E.01687
G1 X172.154 Y40.343 E.01686
G1 X172.531 Y40.299 E.01687
G1 X172.91 Y40.331 E.01686
G1 X173.275 Y40.437 E.01687
G1 X173.612 Y40.614 E.01687
G1 X173.907 Y40.854 E.01686
G1 X174.149 Y41.147 E.01686
G1 X174.328 Y41.483 E.01687
G1 X174.436 Y41.847 E.01686
G1 X174.471 Y42.221 E.01665
G1 X174.447 Y42.511 E.01289
G1 X174.349 Y42.878 E.01685
G1 X174.181 Y43.219 E.01686
G1 X173.949 Y43.52 E.01687
G1 X173.662 Y43.769 E.01687
G1 X173.33 Y43.956 E.01687
G1 X172.969 Y44.073 E.01686
G1 X172.591 Y44.117 E.01687
G1 X172.212 Y44.085 E.01686
G1 X171.847 Y43.979 E.01687
G1 X171.564 Y43.83 E.0142
M204 S1000
G1 X171.171 Y43.973 F10800
;WIPE_START
G1 F8640
G1 X171.215 Y43.563 E-.10141
G1 X170.974 Y43.269 E-.08779
G1 X170.795 Y42.933 E-.08781
G1 X170.686 Y42.569 E-.08779
G1 X170.652 Y42.226 E-.07957
G1 X170.676 Y41.906 E-.07423
G1 X170.773 Y41.538 E-.08771
G1 X170.941 Y41.197 E-.08779
G1 X171.174 Y40.896 E-.0878
G1 X171.461 Y40.647 E-.0878
G1 X171.792 Y40.46 E-.0878
G1 X172.154 Y40.343 E-.08779
G1 X172.531 Y40.299 E-.0878
G1 X172.91 Y40.331 E-.08779
G1 X173.275 Y40.437 E-.0878
G1 X173.357 Y40.48 E-.02132
;WIPE_END
G1 E-.07 F2100
G1 Z.5 F720
G1 X177.689 Y37.799 F10800
G1 Z.3 F720
G1 E1.4 F2100
M204 S800
;TYPE:Solid infill
;WIDTH:0.420033
G1 F1200
G1 X177.13 Y37.24 E.03506
G1 X176.627 Y37.24 E.02231
G1 X177.529 Y38.142 E.05658
G1 X177.529 Y38.645 E.02231
G1 X176.124 Y37.24 E.08813
G1 X175.621 Y37.24 E.02231
G1 X177.529 Y39.148 E.11968
G1 X177.529 Y39.651 E.02231
G1 X175.118 Y37.24 E.15124
G1 X174.615 Y37.24 E.02231
G1 X177.529 Y40.154 E.18279
G1 X177.529 Y40.657 E.02231
G1 X174.112 Y37.24 E.21434
G1 X173.609 Y37.24 E.02231
G1 X177.529 Y41.16 E.24589
G1 X177.529 Y41.663 E.02231
G1 X173.106 Y37.24 E.27745
G1 X172.603 Y37.24 E.02231
G1 X177.529 Y42.166 E.309
G1 X177.529 Y42.669 E.02231
G1 X172.1 Y37.24 E.34055
G1 X171.597 Y37.24 E.02231
G1 X177.529 Y43.172 E.3721
G1 X177.529 Y43.675 E.02231
G1 X171.094 Y37.24 E.40366
G1 X170.592 Y37.24 E.02231
G1 X173.098 Y39.747 E.15723
G1 X172.928 Y39.704 E.00776
G1 X172.534 Y39.686 E.01749
G1 X170.089 Y37.24 E.15344
G1 X169.586 Y37.24 E.02231
G1 X172.08 Y39.735 E.15648
G1 X171.927 Y39.758 E.00687
G1 X171.689 Y39.846 E.01127
G1 X169.083 Y37.24 E.16348
G1 X168.58 Y37.24 E.02231
G1 X171.341 Y40.002 E.17325
G1 X171.03 Y40.194 E.01621
G1 X168.077 Y37.24 E.18529
G1 X167.574 Y37.24 E.02231
G1 X170.77 Y40.436 E.20049
G1 X170.657 Y40.541 E.00683
G1 X170.538 Y40.708 E.00908
G1 X167.071 Y37.24 E.21754
G1 X166.568 Y37.24 E.02231
G1 X170.338 Y41.011 E.23654
G1 X170.183 Y41.359 E.01689
G1 X166.065 Y37.24 E.25835
G1 X165.562 Y37.24 E.02231
G1 X170.08 Y41.758 E.28342
G1 X170.051 Y41.884 E.00573
G1 X170.035 Y42.217 E.01477
G1 X165.059 Y37.24 E.31218
G1 X164.556 Y37.24 E.02231
G1 X170.348 Y43.032 E.36335
M204 S1000
;WIPE_START
G1 F8640
G1 X166.275 Y38.96 E-1.33
;WIPE_END
G1 E-.07 F2100
M73 P1 R98
G1 Z.5 F720
G1 X174.79 Y41.439 F10800
G1 Z.3 F720
M73 Q1 S100
G1 E1.4 F2100
M204 S800
G1 F1200
G1 X177.529 Y44.178 E.1718
G1 X177.529 Y44.681 E.02231
G1 X175.085 Y42.236 E.15334
G1 X175.063 Y42.603 E.01629
G1 X175.04 Y42.695 E.0042
G1 X177.529 Y45.184 E.15613
G1 X177.529 Y45.687 E.02231
G1 X174.927 Y43.085 E.16322
G1 X174.772 Y43.433 E.01689
G1 X177.529 Y46.19 E.17295
G1 X177.529 Y46.693 E.02231
G1 X174.568 Y43.731 E.18578
G1 X174.465 Y43.875 E.00781
G1 X174.332 Y43.999 E.00808
G1 X177.529 Y47.196 E.20053
G1 X177.529 Y47.699 E.02231
G1 X174.068 Y44.237 E.21714
G1 X173.757 Y44.429 E.01621
G1 X177.529 Y48.202 E.23666
G1 X177.529 Y48.705 E.02231
G1 X173.405 Y44.581 E.25871
G1 X173.196 Y44.658 E.00989
G1 X173.008 Y44.687 E.00842
G1 X177.529 Y49.208 E.2836
G1 X177.529 Y49.711 E.02231
G1 X172.545 Y44.726 E.31268
G1 X172.118 Y44.702 E.01895
G1 X171.979 Y44.663 E.00642
G1 X177.529 Y50.214 E.34819
G1 X177.529 Y50.716 E.02231
G1 X164.053 Y37.24 E.84539
G1 X163.55 Y37.24 E.02231
G1 X177.529 Y51.219 E.87695
G1 X177.529 Y51.722 E.02231
G1 X163.047 Y37.24 E.9085
G1 X162.544 Y37.24 E.02231
G1 X177.529 Y52.225 E.94005
G1 X177.529 Y52.728 E.02231
G1 X162.041 Y37.24 E.9716
G1 X161.538 Y37.24 E.02231
G1 X177.529 Y53.231 E1.00316
