; generated by PrusaSlicer 2.5.0 on 2022-11-18 at 17:13:36 UTC

; 

; external perimeters extrusion width = 0.60mm
; perimeters extrusion width = 0.50mm
; infill extrusion width = 0.50mm
; solid infill extrusion width = 0.50mm
; top infill extrusion width = 0.45mm
; first layer extrusion width = 0.42mm

; external perimeters extrusion width = 0.60mm
; perimeters extrusion width = 0.50mm
; infill extrusion width = 0.50mm
; solid infill extrusion width = 0.50mm
; top infill extrusion width = 0.45mm
; first layer extrusion width = 0.42mm

M73 P0 R78
M73 Q0 S79
M201 X1000 Y1000 Z200 E5000 ; sets maximum accelerations, mm/sec^2
M203 X200 Y200 Z12 E120 ; sets maximum feedrates, mm / sec
M204 P1250 R1250 T1250 ; sets acceleration (P, T) and retract acceleration (R), mm/sec^2
M205 X8.00 Y8.00 Z0.40 E4.50 ; sets the jerk limits, mm/sec
M205 S0 T0 ; sets the minimum extruding and travel feed rate, mm/sec
M107
;TYPE:Custom
M862.3 P "MK3S" ; printer model check
M862.1 P0.4 ; nozzle diameter check
M115 U3.10.1 ; tell printer latest fw version
G90 ; use absolute coordinates
M83 ; extruder relative mode
M104 S240 ; set extruder temp
M140 S95 ; set bed temp
M190 S95 ; wait for bed temp
M109 S240 ; wait for extruder temp
G28 W ; home all without mesh bed level
G80 ; mesh bed leveling
G1 Z0.2 F720
G1 Y-3 F1000 ; go outside print area
G92 E0
G1 X60 E9 F1000 ; intro line
G1 X100 E12.5 F1000 ; intro line
G92 E0
M221 S95

; Don't change E values below. Excessive value can damage the printer.

M907 E538 ; set extruder motor current
G21 ; set units to millimeters
G90 ; use absolute coordinates
M83 ; use relative distances for extrusion
M900 K0.08 ; Filament gcode LA 1.5
M900 K45 ; Filament gcode LA 1.0
M107
;LAYER_CHANGE
;Z:0.3
;HEIGHT:0.3
;BEFORE_LAYER_CHANGE
G92 E0.0
;0.3


G1 E-1.4 F2100
G1 Z.2 F720
G1 Z.3
;AFTER_LAYER_CHANGE
;0.3
G1 Z.5
G1 X62.986 Y67.651 F10800
G1 Z.3 F720
G1 E1.4 F2100
M204 S800
;TYPE:Skirt/Brim
;WIDTH:0.42
G1 F1200
G1 X64.03 Y66.782 E.06024
G1 X64.95 Y66.595 E.04163
G1 X114.953 Y66.595 E2.21787
G1 X166.493 Y66.658 E2.28606
G1 X167.793 Y67.051 E.06024
G1 X168.66 Y68.096 E.06024
G1 X168.846 Y69.013 E.0415
G1 X168.846 Y121.013 E2.30645
G1 X168.454 Y122.314 E.06024
G1 X167.41 Y123.182 E.06024
G1 X166.49 Y123.369 E.04163
G1 X64.947 Y123.307 E4.50392
G1 X63.647 Y122.914 E.06024
G1 X62.78 Y121.868 E.06024
G1 X62.594 Y120.951 E.0415
G1 X62.594 Y68.951 E2.30645
G1 X62.969 Y67.708 E.05758
M204 S1000
; printing object 5L_hipjoint_upper-Body.stl id:0 copy 0
;WIPE_START
G1 F8640
G1 X64.03 Y66.782 E-.32524
G1 X64.95 Y66.595 E-.21671
G1 X68.363 Y66.595 E-.78805
;WIPE_END
G1 E-.07 F2100
G1 Z.5 F720
G1 X117.256 Y69.779 F10800
G1 Z.3 F720
G1 E1.4 F2100
M204 S800
;TYPE:Perimeter
;WIDTH:0.42
G1 F1200
G1 X165.725 Y69.779 E2.14982
G1 X165.725 Y120.248 E2.23853
G1 X117.256 Y120.248 E2.14982
G1 X117.256 Y69.839 E2.23587
M204 S1000
G1 X116.9 Y69.423 F10800
M204 S800
;TYPE:External perimeter
G1 F1200
G1 X166.08 Y69.423 E2.18137
G1 X166.08 Y120.603 E2.27008
M73 P0 R77
G1 X116.9 Y120.603 E2.18137
G1 X116.9 Y69.483 E2.26742
M204 S1000
G1 X117.286 Y69.529 F10800
;WIPE_START
G1 F8640
G1 X122.66 Y69.476 E-1.33
;WIPE_END
G1 E-.07 F2100
G1 Z.5 F720
G1 X119.407 Y75.14 F10800
G1 Z.3 F720
G1 E1.4 F2100
M204 S800
;TYPE:Perimeter
G1 F1200
G1 X119.65 Y74.695 E.02252
G1 X119.938 Y74.365 E.0194
G1 X120.213 Y74.145 E.01563
G1 X120.608 Y73.929 E.01998
G1 X121.038 Y73.795 E.02
G1 X121.487 Y73.75 E.02
G1 X121.936 Y73.794 E.02
G1 X122.367 Y73.926 E.02
G1 X122.763 Y74.141 E.02
G1 X123.109 Y74.43 E.01999
G1 X123.39 Y74.782 E.02
G1 X123.596 Y75.183 E.02
G1 X123.719 Y75.617 E.01999
G1 X123.753 Y76.066 E.02
G1 X123.698 Y76.514 E.02
G1 X123.555 Y76.941 E.01999
G1 X123.33 Y77.332 E.02
G1 X123.033 Y77.671 E.02
G1 X122.686 Y77.937 E.0194
G1 X122.372 Y78.098 E.01563
G1 X121.942 Y78.232 E.01998
G1 X121.494 Y78.277 E.02
G1 X121.045 Y78.233 E.02
G1 X120.614 Y78.101 E.02
G1 X120.218 Y77.886 E.02
G1 X119.872 Y77.596 E.01999
G1 X119.59 Y77.244 E.02
G1 X119.384 Y76.844 E.02
G1 X119.261 Y76.41 E.01999
G1 X119.227 Y76.066 E.0153
G1 X119.283 Y75.513 E.02468
G1 X119.388 Y75.197 E.01476
M204 S1000
;WIPE_START
G1 F8640
G1 X119.65 Y74.695 E-.1309
G1 X119.938 Y74.365 E-.10097
G1 X120.213 Y74.145 E-.08138
G1 X120.608 Y73.929 E-.104
G1 X121.038 Y73.795 E-.10409
G1 X121.487 Y73.75 E-.10409
G1 X121.936 Y73.794 E-.10409
G1 X122.367 Y73.926 E-.10409
G1 X122.763 Y74.141 E-.10409
G1 X123.109 Y74.43 E-.10409
G1 X123.39 Y74.782 E-.10409
G1 X123.596 Y75.183 E-.1041
G1 X123.691 Y75.517 E-.08
;WIPE_END
G1 E-.07 F2100
G1 Z.5 F720
G1 X120.44 Y77.608 F10800
G1 Z.3 F720
G1 E1.4 F2100
M204 S800
;TYPE:External perimeter
G1 F1200
G1 X120.144 Y77.368 E.01686
G1 X119.903 Y77.074 E.01687
G1 X119.724 Y76.739 E.01687
G1 X119.615 Y76.374 E.01686
G1 X119.581 Y76.031 E.0153
G1 X119.622 Y75.618 E.01843
G1 X119.738 Y75.255 E.01686
G1 X119.923 Y74.923 E.01686
G1 X120.166 Y74.637 E.01665
G1 X120.39 Y74.453 E.01289
G1 X120.721 Y74.266 E.01685
G1 X121.083 Y74.148 E.01687
G1 X121.46 Y74.104 E.01686
G1 X121.839 Y74.136 E.01687
G1 X122.204 Y74.242 E.01687
G1 X122.541 Y74.419 E.01687
G1 X122.836 Y74.659 E.01686
G1 X123.078 Y74.952 E.01687
G1 X123.257 Y75.288 E.01687
G1 X123.365 Y75.652 E.01686
G1 X123.4 Y76.031 E.01686
G1 X123.358 Y76.409 E.01687
G1 X123.243 Y76.771 E.01686
G1 X123.058 Y77.104 E.01686
G1 X122.811 Y77.393 E.01687
G1 X122.516 Y77.625 E.01665
G1 X122.259 Y77.761 E.01289
G1 X121.898 Y77.879 E.01685
G1 X121.52 Y77.923 E.01686
G1 X121.141 Y77.891 E.01687
G1 X120.776 Y77.784 E.01687
G1 X120.493 Y77.636 E.0142
M204 S1000
G1 X120.1 Y77.778 F10800
;WIPE_START
G1 F8640
G1 X120.144 Y77.368 E-.10141
G1 X119.903 Y77.074 E-.0878
G1 X119.724 Y76.739 E-.0878
G1 X119.615 Y76.374 E-.0878
G1 X119.581 Y76.031 E-.07966
G1 X119.622 Y75.618 E-.09593
G1 X119.738 Y75.255 E-.08779
G1 X119.923 Y74.923 E-.0878
G1 X120.166 Y74.637 E-.0867
G1 X120.39 Y74.453 E-.0671
G1 X120.721 Y74.266 E-.0877
G1 X121.083 Y74.148 E-.0878
G1 X121.46 Y74.104 E-.08779
G1 X121.839 Y74.136 E-.0878
G1 X122.204 Y74.242 E-.0878
G1 X122.286 Y74.285 E-.02133
;WIPE_END
G1 E-.07 F2100
G1 Z.5 F720
G1 X119.407 Y113.14 F10800
G1 Z.3 F720
G1 E1.4 F2100
M204 S800
;TYPE:Perimeter
G1 F1200
G1 X119.65 Y112.695 E.02252
G1 X119.938 Y112.365 E.0194
G1 X120.213 Y112.145 E.01563
G1 X120.608 Y111.929 E.01998
G1 X121.038 Y111.795 E.02
G1 X121.487 Y111.75 E.02
G1 X121.936 Y111.794 E.02
G1 X122.367 Y111.926 E.02
G1 X122.763 Y112.141 E.02
G1 X123.109 Y112.43 E.01999
M73 P1 R77
G1 X123.39 Y112.782 E.02
G1 X123.596 Y113.183 E.02
G1 X123.719 Y113.617 E.01999
G1 X123.753 Y114.066 E.02
G1 X123.698 Y114.514 E.02
G1 X123.555 Y114.941 E.01999
G1 X123.33 Y115.332 E.02
G1 X123.033 Y115.671 E.02
G1 X122.686 Y115.937 E.0194
G1 X122.372 Y116.098 E.01563
G1 X121.942 Y116.232 E.01998
G1 X121.494 Y116.277 E.02
G1 X121.045 Y116.233 E.02
M73 Q1 S79
G1 X120.497 Y116.041 E.02574
G1 X120.218 Y115.886 E.01419
G1 X119.872 Y115.596 E.01999
G1 X119.59 Y115.244 E.02
G1 X119.384 Y114.844 E.02
G1 X119.261 Y114.41 E.01999
G1 X119.227 Y114.066 E.0153
G1 X119.283 Y113.513 E.02468
G1 X119.388 Y113.197 E.01476
M204 S1000
G1 X119.738 Y113.255 F10800
M204 S800
;TYPE:External perimeter
G1 F1200
G1 X119.923 Y112.923 E.01686
G1 X120.166 Y112.637 E.01665
G1 X120.39 Y112.453 E.01289
G1 X120.721 Y112.266 E.01685
G1 X121.083 Y112.148 E.01687
G1 X121.46 Y112.104 E.01686
G1 X121.839 Y112.136 E.01687
G1 X122.204 Y112.242 E.01687
G1 X122.541 Y112.419 E.01687
G1 X122.836 Y112.659 E.01686
G1 X123.078 Y112.952 E.01687
G1 X123.257 Y113.288 E.01687
G1 X123.365 Y113.652 E.01686
G1 X123.4 Y114.031 E.01686
G1 X123.358 Y114.409 E.01687
G1 X123.243 Y114.771 E.01686
G1 X123.058 Y115.104 E.01686
G1 X122.811 Y115.393 E.01687
G1 X122.516 Y115.625 E.01665
G1 X122.259 Y115.761 E.01289
G1 X121.898 Y115.879 E.01685
G1 X121.52 Y115.923 E.01686
G1 X121.141 Y115.891 E.01687
G1 X120.66 Y115.724 E.0226
G1 X120.44 Y115.608 E.01105
G1 X120.144 Y115.368 E.01686
G1 X119.903 Y115.074 E.01687
G1 X119.724 Y114.739 E.01687
G1 X119.615 Y114.374 E.01686
G1 X119.581 Y114.031 E.0153
G1 X119.622 Y113.618 E.01843
G1 X119.72 Y113.313 E.0142
M204 S1000
G1 X119.51 Y112.951 F10800
;WIPE_START
G1 F8640
G1 X119.923 Y112.923 E-.10141
G1 X120.166 Y112.637 E-.0867
G1 X120.39 Y112.453 E-.0671
G1 X120.721 Y112.266 E-.0877
G1 X121.083 Y112.148 E-.0878
G1 X121.46 Y112.104 E-.08779
G1 X121.839 Y112.136 E-.0878
G1 X122.204 Y112.242 E-.0878
G1 X122.541 Y112.419 E-.0878
G1 X122.836 Y112.659 E-.08779
G1 X123.078 Y112.952 E-.0878
G1 X123.257 Y113.288 E-.0878
G1 X123.365 Y113.652 E-.0878
G1 X123.4 Y114.031 E-.0878
G1 X123.358 Y114.409 E-.0878
G1 X123.33 Y114.497 E-.02131
;WIPE_END
G1 E-.07 F2100
G1 Z.5 F720
G1 X159.407 Y113.142 F10800
G1 Z.3 F720
G1 E1.4 F2100
M204 S800
;TYPE:Perimeter
G1 F1200
G1 X159.65 Y112.695 E.02261
G1 X159.938 Y112.365 E.0194
G1 X160.213 Y112.145 E.01563
G1 X160.608 Y111.929 E.01998
G1 X161.038 Y111.795 E.02
G1 X161.487 Y111.75 E.02
G1 X161.936 Y111.794 E.02
G1 X162.367 Y111.926 E.02
G1 X162.763 Y112.141 E.02
G1 X163.109 Y112.43 E.01999
G1 X163.39 Y112.782 E.02
G1 X163.596 Y113.183 E.02
G1 X163.719 Y113.617 E.01999
G1 X163.753 Y114.066 E.02
G1 X163.698 Y114.514 E.02
G1 X163.555 Y114.941 E.01999
G1 X163.33 Y115.332 E.02
G1 X163.033 Y115.671 E.02
G1 X162.686 Y115.937 E.0194
G1 X162.372 Y116.098 E.01563
G1 X161.942 Y116.232 E.01998
G1 X161.494 Y116.277 E.02
G1 X161.045 Y116.233 E.02
G1 X160.614 Y116.101 E.02
G1 X160.218 Y115.886 E.02
G1 X159.872 Y115.596 E.01999
G1 X159.59 Y115.244 E.02
G1 X159.384 Y114.844 E.02
G1 X159.261 Y114.41 E.01999
G1 X159.227 Y114.066 E.0153
G1 X159.27 Y113.561 E.02249
G1 X159.388 Y113.199 E.01688
M204 S1000
G1 X159.738 Y113.255 F10800
M204 S800
;TYPE:External perimeter
G1 F1200
G1 X159.923 Y112.923 E.01686
G1 X160.166 Y112.637 E.01665
G1 X160.39 Y112.453 E.01289
G1 X160.721 Y112.266 E.01685
G1 X161.083 Y112.148 E.01687
G1 X161.46 Y112.104 E.01686
G1 X161.839 Y112.136 E.01687
G1 X162.204 Y112.242 E.01687
G1 X162.541 Y112.419 E.01687
G1 X162.836 Y112.659 E.01686
G1 X163.078 Y112.952 E.01687
G1 X163.257 Y113.288 E.01687
G1 X163.365 Y113.652 E.01686
G1 X163.4 Y114.031 E.01686
G1 X163.358 Y114.409 E.01687
G1 X163.243 Y114.771 E.01686
G1 X163.058 Y115.104 E.01687
G1 X162.811 Y115.393 E.01687
G1 X162.516 Y115.625 E.01665
G1 X162.259 Y115.761 E.01289
G1 X161.898 Y115.879 E.01685
G1 X161.52 Y115.923 E.01686
G1 X161.141 Y115.891 E.01687
G1 X160.776 Y115.784 E.01687
G1 X160.44 Y115.608 E.01687
G1 X160.144 Y115.368 E.01686
G1 X159.903 Y115.074 E.01687
G1 X159.724 Y114.739 E.01687
G1 X159.615 Y114.374 E.01686
G1 X159.581 Y114.031 E.0153
G1 X159.622 Y113.618 E.01843
G1 X159.72 Y113.313 E.0142
M204 S1000
G1 X159.51 Y112.951 F10800
;WIPE_START
G1 F8640
G1 X159.923 Y112.923 E-.10141
G1 X160.166 Y112.637 E-.0867
G1 X160.39 Y112.453 E-.0671
G1 X160.721 Y112.266 E-.0877
G1 X161.083 Y112.148 E-.0878
G1 X161.46 Y112.104 E-.08779
G1 X161.839 Y112.136 E-.0878
G1 X162.204 Y112.242 E-.0878
G1 X162.541 Y112.419 E-.0878
G1 X162.836 Y112.659 E-.08779
G1 X163.078 Y112.952 E-.0878
G1 X163.257 Y113.288 E-.0878
G1 X163.365 Y113.652 E-.08779
G1 X163.4 Y114.031 E-.0878
G1 X163.358 Y114.409 E-.0878
G1 X163.33 Y114.497 E-.02131
;WIPE_END
G1 E-.07 F2100
G1 Z.5 F720
G1 X163.359 Y77.282 F10800
G1 Z.3 F720
G1 E1.4 F2100
M204 S800
;TYPE:Perimeter
G1 F1200
G1 X163.033 Y77.671 E.02252
G1 X162.686 Y77.937 E.0194
G1 X162.372 Y78.098 E.01563
G1 X161.942 Y78.232 E.01998
G1 X161.494 Y78.277 E.02
G1 X161.045 Y78.233 E.02
G1 X160.614 Y78.101 E.02
G1 X160.218 Y77.886 E.02
G1 X159.872 Y77.596 E.01999
G1 X159.59 Y77.244 E.02
G1 X159.384 Y76.844 E.02
G1 X159.261 Y76.41 E.01999
G1 X159.227 Y76.066 E.0153
G1 X159.283 Y75.513 E.02468
G1 X159.425 Y75.085 E.01999
G1 X159.65 Y74.695 E.02
G1 X159.938 Y74.365 E.0194
G1 X160.213 Y74.145 E.01563
G1 X160.608 Y73.929 E.01998
G1 X161.038 Y73.795 E.02
G1 X161.487 Y73.75 E.02
G1 X161.936 Y73.794 E.02
G1 X162.483 Y73.986 E.02574
G1 X162.763 Y74.141 E.01419
G1 X163.109 Y74.43 E.01999
G1 X163.39 Y74.782 E.02
G1 X163.596 Y75.183 E.02
G1 X163.719 Y75.617 E.01999
G1 X163.753 Y76.066 E.02
G1 X163.698 Y76.514 E.02
G1 X163.555 Y76.941 E.01999
G1 X163.389 Y77.23 E.01476
M204 S1000
G1 X163.058 Y77.104 F10800
M204 S800
;TYPE:External perimeter
G1 F1200
G1 X162.811 Y77.393 E.01687
G1 X162.516 Y77.625 E.01665
G1 X162.259 Y77.761 E.01289
G1 X161.898 Y77.879 E.01685
G1 X161.52 Y77.923 E.01686
G1 X161.141 Y77.891 E.01687
G1 X160.776 Y77.784 E.01687
G1 X160.44 Y77.608 E.01687
G1 X160.144 Y77.368 E.01686
G1 X159.903 Y77.074 E.01687
G1 X159.724 Y76.739 E.01687
G1 X159.615 Y76.374 E.01686
G1 X159.581 Y76.031 E.0153
G1 X159.622 Y75.618 E.01843
G1 X159.738 Y75.255 E.01686
G1 X159.923 Y74.923 E.01686
G1 X160.166 Y74.637 E.01665
G1 X160.39 Y74.453 E.01289
G1 X160.721 Y74.266 E.01685
G1 X161.083 Y74.148 E.01687
G1 X161.46 Y74.104 E.01686
G1 X161.839 Y74.136 E.01687
G1 X162.321 Y74.302 E.0226
G1 X162.541 Y74.419 E.01105
G1 X162.836 Y74.659 E.01686
G1 X163.078 Y74.952 E.01687
G1 X163.257 Y75.288 E.01687
G1 X163.365 Y75.652 E.01686
G1 X163.4 Y76.031 E.01686
G1 X163.358 Y76.409 E.01687
G1 X163.243 Y76.771 E.01686
G1 X163.087 Y77.051 E.0142
M204 S1000
G1 X163.22 Y77.448 F10800
;WIPE_START
G1 F8640
G1 X162.811 Y77.393 E-.10141
G1 X162.516 Y77.625 E-.0867
G1 X162.259 Y77.761 E-.06711
G1 X161.898 Y77.879 E-.08771
G1 X161.52 Y77.923 E-.08779
G1 X161.141 Y77.891 E-.0878
G1 X160.776 Y77.784 E-.0878
G1 X160.44 Y77.608 E-.0878
G1 X160.144 Y77.368 E-.08779
G1 X159.903 Y77.074 E-.0878
G1 X159.724 Y76.739 E-.0878
G1 X159.615 Y76.374 E-.08779
G1 X159.581 Y76.031 E-.07966
G1 X159.622 Y75.618 E-.09593
G1 X159.738 Y75.255 E-.08779
G1 X159.783 Y75.175 E-.02132
;WIPE_END
G1 E-.07 F2100
G1 Z.5 F720
G1 X165.618 Y70.605 F10800
G1 Z.3 F720
G1 E1.4 F2100
M204 S800
;TYPE:Solid infill
;WIDTH:0.420033
G1 F1200
G1 X165.059 Y70.046 E.03506
G1 X164.556 Y70.046 E.02231
G1 X165.458 Y70.948 E.05658
G1 X165.458 Y71.451 E.02231
G1 X164.053 Y70.046 E.08813
G1 X163.55 Y70.046 E.02231
G1 X165.458 Y71.953 E.11968
G1 X165.458 Y72.456 E.02231
G1 X163.047 Y70.046 E.15124
G1 X162.544 Y70.046 E.02231
G1 X165.458 Y72.959 E.18279
G1 X165.458 Y73.462 E.02231
G1 X162.041 Y70.046 E.21434
G1 X161.538 Y70.046 E.02231
G1 X165.458 Y73.965 E.24589
M73 Q1 S78
G1 X165.458 Y74.468 E.02231
G1 X161.035 Y70.046 E.27745
G1 X160.532 Y70.046 E.02231
G1 X165.458 Y74.971 E.309
G1 X165.458 Y75.474 E.02231
G1 X160.029 Y70.046 E.34055
G1 X159.526 Y70.046 E.02231
G1 X165.458 Y75.977 E.3721
G1 X165.458 Y76.48 E.02231
G1 X159.023 Y70.046 E.40366
G1 X158.52 Y70.046 E.02231
G1 X162.027 Y73.552 E.21997
G1 X161.857 Y73.51 E.00776
G1 X161.463 Y73.492 E.01749
G1 X158.018 Y70.046 E.21617
G1 X157.515 Y70.046 E.02231
G1 X161.009 Y73.54 E.21921
G1 X160.856 Y73.564 E.00687
G1 X160.617 Y73.652 E.01127
G1 X157.012 Y70.046 E.22621
G1 X156.509 Y70.046 E.02231
G1 X160.27 Y73.807 E.23595
G1 X159.959 Y73.999 E.01621
G1 X156.006 Y70.046 E.248
G1 X155.503 Y70.046 E.02231
G1 X159.693 Y74.236 E.26285
G1 X159.467 Y74.513 E.01586
G1 X155 Y70.046 E.28024
G1 X154.497 Y70.046 E.02231
G1 X159.272 Y74.821 E.29956
G1 X159.113 Y75.165 E.0168
G1 X153.994 Y70.046 E.32112
G1 X153.491 Y70.046 E.02231
G1 X159.004 Y75.558 E.34583
G1 X158.965 Y76.023 E.02069
G1 X152.988 Y70.046 E.37499
G1 X152.485 Y70.046 E.02231
G1 X159.277 Y76.838 E.42609
M204 S1000
;WIPE_START
G1 F8640
G1 X155.204 Y72.765 E-1.33
;WIPE_END
G1 E-.07 F2100
G1 Z.5 F720
G1 X163.719 Y75.245 F10800
G1 Z.3 F720
G1 E1.4 F2100
M204 S800
G1 F1200
G1 X165.458 Y76.983 E.10907
G1 X165.458 Y77.486 E.02231
G1 X164.012 Y76.04 E.09071
G1 X163.974 Y76.505 E.02069
G1 X165.458 Y77.989 E.09309
G1 X165.458 Y78.492 E.02231
G1 X163.86 Y76.894 E.10027
G1 X163.695 Y77.232 E.0167
G1 X165.458 Y78.995 E.11058
G1 X165.458 Y79.498 E.02231
G1 X163.496 Y77.536 E.12307
G1 X163.266 Y77.809 E.01583
G1 X165.458 Y80.001 E.1375
G1 X165.458 Y80.504 E.02231
G1 X162.994 Y78.04 E.15459
G1 X162.687 Y78.236 E.01615
G1 X165.458 Y81.007 E.17383
G1 X165.458 Y81.51 E.02231
G1 X162.335 Y78.387 E.19591
G1 X162.124 Y78.463 E.00993
G1 X161.937 Y78.492 E.0084
G1 X165.458 Y82.013 E.22087
G1 X165.458 Y82.516 E.02231
G1 X161.474 Y78.532 E.24994
