; generated by PrusaSlicer 2.4.2 on 2022-09-10 at 13:15:56 UTC

; 

; external perimeters extrusion width = 0.60mm
; perimeters extrusion width = 0.50mm
; infill extrusion width = 0.50mm
; solid infill extrusion width = 0.50mm
; top infill extrusion width = 0.45mm
; support material extrusion width = 0.38mm
; first layer extrusion width = 0.42mm

M73 P0 R158
M73 Q0 S160
M201 X1000 Y1000 Z200 E5000 ; sets maximum accelerations, mm/sec^2
M203 X200 Y200 Z12 E120 ; sets maximum feedrates, mm / sec
M204 P1250 R1250 T1250 ; sets acceleration (P, T) and retract acceleration (R), mm/sec^2
M205 X8.00 Y8.00 Z0.40 E4.50 ; sets the jerk limits, mm/sec
M205 S0 T0 ; sets the minimum extruding and travel feed rate, mm/sec
M107
;TYPE:Custom
M862.3 P "MK3S" ; printer model check
M862.1 P0.4 ; nozzle diameter check
M115 U3.10.1 ; tell printer latest fw version
G90 ; use absolute coordinates
M83 ; extruder relative mode
M104 S240 ; set extruder temp
M140 S95 ; set bed temp
M190 S95 ; wait for bed temp
M109 S240 ; wait for extruder temp
G28 W ; home all without mesh bed level
G80 ; mesh bed leveling
G1 Z0.2 F720
G1 Y-3 F1000 ; go outside print area
G92 E0
G1 X60 E9 F1000 ; intro line
G1 X100 E12.5 F1000 ; intro line
G92 E0
M221 S95

; Don't change E values below. Excessive value can damage the printer.

M907 E538 ; set extruder motor current
G21 ; set units to millimeters
G90 ; use absolute coordinates
M83 ; use relative distances for extrusion
M900 K0.08 ; Filament gcode LA 1.5
M900 K45 ; Filament gcode LA 1.0
M107
;LAYER_CHANGE
;Z:0.3
;HEIGHT:0.3
;BEFORE_LAYER_CHANGE
G92 E0.0
;0.3


G1 E-1.4 F2100
G1 Z.2 F720
G1 Z.3
;AFTER_LAYER_CHANGE
;0.3
G1 Z.5
G1 X97.979 Y87.092 F10800
G1 Z.3 F720
G1 E1.4 F2100
M204 S800
;TYPE:Skirt/Brim
;WIDTH:0.42
G1 F1200
G1 X108.714 Y75.015 E.71669
G1 X120.387 Y63.337 E.7324
G1 X122.052 Y62.647 E.07997
G1 X146.473 Y62.647 E1.08316
G1 X148.138 Y63.337 E.07997
G1 X150.454 Y65.652 E.14525
G1 X151.04 Y66.625 E.05037
G1 X160.302 Y96.728 E1.39699
G1 X160.406 Y97.421 E.03107
G1 X160.401 Y108.104 E.47386
G1 X158.086 Y142.839 E1.54405
G1 X157.608 Y144.11 E.06024
G1 X156.509 Y144.907 E.06024
G1 X155.735 Y145.038 E.03479
G1 X94.265 Y145.038 E2.7265
G1 X92.964 Y144.646 E.06024
M73 Q0 S159
G1 X92.096 Y143.602 E.06024
G1 X91.914 Y142.839 E.03479
G1 X89.599 Y108.104 E1.54405
G1 X89.594 Y97.421 E.47386
G1 X90.189 Y95.856 E.07426
G1 X97.939 Y87.137 E.51743
M204 S1000
; printing object 5R_hipjoint-Body.stl id:0 copy 0
;WIPE_START
G1 F8640
G1 X101.766 Y82.832 E-1.33
;WIPE_END
G1 E-.07 F2100
G1 Z.5 F720
G1 X105.069 Y100.073 F10800
G1 Z.3 F720
G1 E1.4 F2100
M204 S800
;TYPE:Support material
G1 F1200
G1 X105.252 Y100.105 E.00821
G1 X105.424 Y100.173 E.00821
G1 X105.543 Y100.245 E.00616
G1 X105.682 Y100.368 E.00821
G1 X105.793 Y100.515 E.00821
G1 X105.874 Y100.682 E.00821
G1 X105.919 Y100.862 E.00821
G1 X105.929 Y101.046 E.00821
G1 X105.901 Y101.23 E.00821
G1 X105.857 Y101.361 E.00616
G1 X105.768 Y101.524 E.00821
G1 X105.649 Y101.666 E.00821
G1 X105.504 Y101.781 E.00821
G1 X105.34 Y101.866 E.00821
G1 X105.161 Y101.916 E.00821
G1 X104.977 Y101.93 E.00821
G1 X104.793 Y101.907 E.00821
G1 X104.618 Y101.848 E.00821
G1 X104.457 Y101.755 E.00821
G1 X104.318 Y101.633 E.00821
G1 X104.232 Y101.524 E.00616
G1 X104.143 Y101.361 E.00821
G1 X104.089 Y101.184 E.00821
G1 X104.07 Y101 E.00821
G1 X104.089 Y100.816 E.00821
G1 X104.143 Y100.639 E.00821
G1 X104.232 Y100.476 E.00821
G1 X104.351 Y100.334 E.00821
G1 X104.496 Y100.219 E.00821
G1 X104.66 Y100.135 E.00821
G1 X104.839 Y100.084 E.00821
G1 X105.016 Y100.071 E.0079
M204 S1000
G1 X105.243 Y101.73 F10800
M204 S800
G1 F1200
G1 X105.243 Y100.441 E.05717
G1 X105.046 Y100.392 E.00904
G1 X104.848 Y100.41 E.00878
G1 X104.848 Y101.59 E.05236
G1 X104.722 Y101.543 E.00599
G1 X104.62 Y101.477 E.00538
G1 X104.533 Y101.392 E.00539
G1 X104.453 Y101.269 E.00649
G1 X104.453 Y100.459 E.03596
M204 S1000
;WIPE_START
G1 F8640
G1 X104.453 Y101.269 E-.18719
G1 X104.533 Y101.392 E-.03378
G1 X104.62 Y101.477 E-.02804
G1 X104.722 Y101.543 E-.02803
G1 X104.848 Y101.59 E-.0312
G1 X104.848 Y100.41 E-.2726
G1 X105.046 Y100.392 E-.04573
G1 X105.243 Y100.441 E-.04708
G1 X105.243 Y101.73 E-.29764
;WIPE_END
G1 E-.42871 F2100
G1 Z.5 F720
G1 X135.219 Y73.078 F10800
G1 Z.3 F720
G1 E1.4 F2100
M204 S800
G1 F1200
G1 X135.509 Y73.115 E.01296
G1 X135.794 Y73.18 E.01296
G1 X136.07 Y73.273 E.01295
G1 X136.337 Y73.393 E.01295
G1 X136.59 Y73.539 E.01296
G1 X136.827 Y73.709 E.01295
G1 X137.046 Y73.903 E.01296
G1 X137.244 Y74.117 E.01295
G1 X137.421 Y74.35 E.01296
G1 X137.573 Y74.599 E.01296
G1 X137.7 Y74.862 E.01295
G1 X137.8 Y75.137 E.01296
G1 X137.872 Y75.42 E.01296
G1 X137.915 Y75.708 E.01296
G1 X137.93 Y76 E.01295
G1 X137.915 Y76.292 E.01296
G1 X137.872 Y76.581 E.01296
G1 X137.8 Y76.864 E.01295
G1 X137.7 Y77.138 E.01296
G1 X137.573 Y77.401 E.01295
G1 X137.421 Y77.651 E.01295
G1 X137.244 Y77.883 E.01296
G1 X137.046 Y78.097 E.01296
G1 X136.827 Y78.291 E.01295
G1 X136.465 Y78.537 E.01942
G1 X136.205 Y78.671 E.01296
G1 X135.933 Y78.777 E.01296
G1 X135.652 Y78.856 E.01295
G1 X135.364 Y78.907 E.01296
G1 X135.073 Y78.929 E.01295
G1 X134.781 Y78.922 E.01295
G1 X134.348 Y78.856 E.01943
G1 X134.067 Y78.777 E.01296
G1 X133.795 Y78.671 E.01295
G1 X133.535 Y78.537 E.01295
G1 X133.29 Y78.379 E.01296
G1 X133.061 Y78.197 E.01295
G1 X132.852 Y77.993 E.01295
G1 X132.665 Y77.769 E.01296
G1 X132.5 Y77.528 E.01296
G1 X132.36 Y77.271 E.01295
G1 X132.247 Y77.002 E.01296
G1 X132.161 Y76.723 E.01296
G1 X132.103 Y76.437 E.01295
G1 X132.074 Y76.146 E.01296
G1 X132.074 Y75.854 E.01296
G1 X132.103 Y75.563 E.01295
G1 X132.161 Y75.277 E.01296
G1 X132.247 Y74.998 E.01295
G1 X132.36 Y74.729 E.01295
G1 X132.5 Y74.472 E.01296
G1 X132.665 Y74.231 E.01296
G1 X132.852 Y74.007 E.01296
G1 X133.061 Y73.803 E.01295
G1 X133.29 Y73.621 E.01295
G1 X133.535 Y73.463 E.01296
G1 X133.795 Y73.33 E.01296
G1 X134.067 Y73.223 E.01295
G1 X134.348 Y73.144 E.01295
G1 X134.636 Y73.093 E.01296
G1 X135.166 Y73.076 E.02352
M204 S1000
G1 X137.249 Y77.615 F10800
M204 S800
G1 F1200
G1 X137.249 Y74.678 E.13028
G1 X137.08 Y74.424 E.01351
G1 X136.854 Y74.165 E.01528
G1 X136.854 Y77.836 E.16283
G1 X136.627 Y78.04 E.01356
G1 X136.459 Y78.163 E.00923
G1 X136.459 Y73.837 E.19187
G1 X136.305 Y73.74 E.00808
G1 X136.064 Y73.617 E.012
G1 X136.064 Y78.383 E.21138
G1 X135.707 Y78.512 E.01684
G1 X135.669 Y78.522 E.00175
G1 X135.669 Y73.478 E.22371
G1 X135.273 Y73.406 E.01782
G1 X135.273 Y78.595 E.23016
G1 X134.878 Y78.606 E.01753
G1 X134.878 Y73.394 E.23118
G1 X134.483 Y73.443 E.01766
G1 X134.483 Y78.557 E.22684
G1 X134.088 Y78.444 E.01823
G1 X134.088 Y73.556 E.21684
G1 X133.693 Y73.741 E.01937
G1 X133.693 Y78.259 E.20037
G1 X133.298 Y77.977 E.02152
G1 X133.298 Y74.023 E.1754
G1 X133.087 Y74.225 E.01296
G1 X132.903 Y74.448 E.01284
G1 X132.903 Y77.552 E.13767
G1 X132.649 Y77.132 E.02175
G1 X132.508 Y76.773 E.01713
G1 X132.508 Y74.793 E.08784
M204 S1000
;WIPE_START
G1 F8640
G1 X132.508 Y76.773 E-.4573
G1 X132.649 Y77.132 E-.08917
G1 X132.903 Y77.552 E-.11324
G1 X132.903 Y74.649 E-.67029
;WIPE_END
G1 E-.07 F2100
G1 Z.5 F720
G1 X131.77 Y67.43 F10800
G1 Z.3 F720
G1 E1.4 F2100
M204 S800
G1 F1200
G1 X129.835 Y67.434 E.08581
G1 X129.493 Y67.466 E.01523
G1 X129.156 Y67.531 E.01523
G1 X128.666 Y67.689 E.02283
G1 X128.342 Y67.838 E.01583
G1 X127.905 Y68.11 E.02283
G1 X127.511 Y68.441 E.02283
G1 X97.393 Y100.561 E1.95302
G1 X97.067 Y100.965 E.02303
G1 X96.798 Y101.421 E.0235
G1 X96.658 Y101.746 E.01567
G1 X96.555 Y102.064 E.01483
G1 X96.451 Y102.616 E.0249
G1 X96.43 Y102.956 E.01511
G1 X96.443 Y103.309 E.01568
G1 X96.491 Y103.659 E.01567
G1 X96.568 Y103.983 E.01477
G1 X96.765 Y104.509 E.02491
G1 X96.924 Y104.812 E.01516
G1 X97.118 Y105.107 E.01568
G1 X97.34 Y105.382 E.01567
G1 X97.573 Y105.618 E.01472
G1 X98.013 Y105.966 E.02486
G1 X98.443 Y106.212 E.02201
G1 X98.786 Y106.357 E.0165
G1 X99.275 Y106.495 E.02256
G1 X99.655 Y106.553 E.01704
G1 X99.997 Y106.57 E.01516
G1 X104.792 Y106.57 E.21268
G1 X104.792 Y142.682 E1.60174
G1 X94.265 Y142.682 E.46691
G1 X94.265 Y107.948 E1.54063
G1 X91.949 Y107.948 E.10271
G1 X91.949 Y97.421 E.46691
G1 X94.265 Y97.421 E.10271
G1 X94.265 Y95.105 E.10271
G1 X96.58 Y95.105 E.10271
G1 X96.58 Y92.79 E.10271
G1 X98.896 Y92.79 E.10271
G1 X98.896 Y90.474 E.10271
G1 X101.212 Y90.474 E.10271
G1 X101.212 Y88.159 E.10271
G1 X103.527 Y88.159 E.10271
G1 X103.527 Y85.843 E.10271
G1 X105.843 Y85.843 E.10271
G1 X105.843 Y83.527 E.10271
G1 X108.159 Y83.527 E.10271
G1 X108.159 Y81.212 E.10271
G1 X110.474 Y81.212 E.10271
G1 X110.474 Y76.58 E.20542
G1 X112.79 Y76.58 E.10271
G1 X112.79 Y74.265 E.10271
G1 X115.105 Y74.265 E.10271
G1 X115.105 Y71.949 E.10271
G1 X117.421 Y71.949 E.10271
G1 X117.421 Y69.634 E.10271
G1 X119.737 Y69.634 E.10271
G1 X119.737 Y67.318 E.10271
G1 X122.052 Y67.318 E.10271
G1 X122.052 Y65.002 E.10271
G1 X131.387 Y65.002 E.41405
G1 X131.761 Y67.377 E.10664
M204 S1000
G1 X131.322 Y67.27 F10800
M204 S800
G1 F1200
G1 X131.322 Y66.646 E.02769
G1 X131.114 Y65.322 E.05942
G1 X130.927 Y65.322 E.00828
G1 X130.927 Y67.11 E.07929
G1 X130.532 Y67.11 E.01753
G1 X130.532 Y65.322 E.07929
G1 X130.137 Y65.322 E.01753
G1 X130.137 Y67.11 E.07929
G1 X129.742 Y67.119 E.01753
G1 X129.742 Y65.322 E.07971
G1 X129.346 Y65.322 E.01753
G1 X129.346 Y67.166 E.08178
G1 X128.951 Y67.255 E.01796
G1 X128.951 Y65.322 E.08571
G1 X128.556 Y65.322 E.01753
G1 X128.556 Y67.388 E.09162
G1 X128.161 Y67.573 E.01935
G1 X128.161 Y65.322 E.09981
G1 X127.766 Y65.322 E.01753
G1 X127.766 Y67.816 E.11062
G1 X127.371 Y68.134 E.02249
G1 X127.371 Y65.322 E.12472
G1 X126.976 Y65.322 E.01753
G1 X126.976 Y68.538 E.14264
G1 X126.581 Y68.96 E.02563
G1 X126.581 Y65.322 E.16134
G1 X126.185 Y65.322 E.01753
G1 X126.185 Y69.381 E.18003
G1 X125.79 Y69.803 E.02563
G1 X125.79 Y65.322 E.19872
G1 X125.395 Y65.322 E.01753
G1 X125.395 Y70.224 E.21742
G1 X125 Y70.646 E.02563
G1 X125 Y65.322 E.23611
G1 X124.605 Y65.322 E.01753
G1 X124.605 Y71.067 E.25481
G1 X124.21 Y71.489 E.02563
G1 X124.21 Y65.322 E.2735
G1 X123.815 Y65.322 E.01753
G1 X123.815 Y71.91 E.2922
G1 X123.419 Y72.332 E.02563
G1 X123.419 Y65.322 E.31089
G1 X123.024 Y65.322 E.01753
G1 X123.024 Y72.753 E.32959
G1 X122.629 Y73.175 E.02563
G1 X122.629 Y65.322 E.34828
G1 X122.372 Y65.322 E.01139
G1 X122.372 Y67.638 E.10271
G1 X122.234 Y67.638 E.00613
G1 X122.234 Y73.596 E.26427
G1 X121.839 Y74.018 E.02563
G1 X121.839 Y67.638 E.28296
G1 X121.444 Y67.638 E.01753
G1 X121.444 Y74.439 E.30165
G1 X121.049 Y74.86 E.02563
G1 X121.049 Y67.638 E.32035
G1 X120.654 Y67.638 E.01753
G1 X120.654 Y75.282 E.33904
G1 X120.258 Y75.703 E.02563
G1 X120.258 Y67.638 E.35774
G1 X120.057 Y67.638 E.00895
G1 X120.057 Y69.954 E.10271
G1 X119.863 Y69.954 E.00858
G1 X119.863 Y76.125 E.27372
G1 X119.468 Y76.546 E.02563
G1 X119.468 Y69.954 E.29242
G1 X119.073 Y69.954 E.01753
G1 X119.073 Y76.968 E.31111
G1 X118.678 Y77.389 E.02563
G1 X118.678 Y69.954 E.32981
G1 X118.283 Y69.954 E.01753
G1 X118.283 Y77.811 E.3485
G1 X117.888 Y78.232 E.02563
G1 X117.888 Y69.954 E.36719
G1 X117.741 Y69.954 E.0065
G1 X117.741 Y72.269 E.10271
G1 X117.492 Y72.269 E.01103
G1 X117.492 Y78.654 E.28318
G1 X117.097 Y79.075 E.02563
G1 X117.097 Y72.269 E.30187
G1 X116.702 Y72.269 E.01753
G1 X116.702 Y79.497 E.32057
G1 X116.307 Y79.918 E.02563
G1 X116.307 Y72.269 E.33926
G1 X115.912 Y72.269 E.01753
G1 X115.912 Y80.34 E.35796
G1 X115.517 Y80.761 E.02563
G1 X115.517 Y72.269 E.37665
G1 X115.425 Y72.269 E.00405
G1 X115.425 Y74.585 E.10271
G1 X115.122 Y74.585 E.01347
G1 X115.122 Y81.183 E.29264
G1 X114.727 Y81.604 E.02563
M73 P0 R157
G1 X114.727 Y74.585 E.31133
G1 X114.331 Y74.585 E.01753
G1 X114.331 Y82.026 E.33003
G1 X113.936 Y82.447 E.02563
G1 X113.936 Y74.585 E.34872
G1 X113.541 Y74.585 E.01753
G1 X113.541 Y82.868 E.36742
G1 X113.146 Y83.29 E.02563
G1 X113.146 Y74.585 E.38611
G1 X113.11 Y74.585 E.0016
G1 X113.11 Y76.901 E.10271
G1 X112.751 Y76.901 E.01592
G1 X112.751 Y83.711 E.3021
G1 X112.356 Y84.133 E.02563
G1 X112.356 Y76.901 E.32079
G1 X111.961 Y76.901 E.01753
G1 X111.961 Y84.554 E.33948
G1 X111.566 Y84.976 E.02563
G1 X111.566 Y76.901 E.35818
G1 X111.17 Y76.901 E.01753
G1 X111.17 Y85.397 E.37687
G1 X110.775 Y85.819 E.02563
G1 X110.775 Y81.532 E.19015
G1 X110.38 Y81.532 E.01753
G1 X110.38 Y86.24 E.20884
G1 X109.985 Y86.662 E.02563
G1 X109.985 Y81.532 E.22754
G1 X109.59 Y81.532 E.01753
G1 X109.59 Y87.083 E.24623
G1 X109.195 Y87.505 E.02563
G1 X109.195 Y81.532 E.26493
G1 X108.8 Y81.532 E.01753
G1 X108.8 Y87.926 E.28362
G1 X108.404 Y88.348 E.02563
G1 X108.404 Y83.847 E.19961
G1 X108.009 Y83.847 E.01753
G1 X108.009 Y88.769 E.2183
G1 X107.614 Y89.191 E.02562
G1 X107.614 Y83.847 E.237
G1 X107.219 Y83.847 E.01753
G1 X107.219 Y89.612 E.25569
G1 X106.824 Y90.034 E.02563
G1 X106.824 Y83.847 E.27439
G1 X106.429 Y83.847 E.01753
G1 X106.429 Y90.455 E.29308
G1 X106.034 Y90.876 E.02563
G1 X106.034 Y86.163 E.20906
G1 X105.639 Y86.163 E.01753
G1 X105.639 Y91.298 E.22776
G1 X105.243 Y91.719 E.02563
G1 X105.243 Y86.163 E.24645
G1 X104.848 Y86.163 E.01753
G1 X104.848 Y92.141 E.26515
G1 X104.453 Y92.562 E.02563
G1 X104.453 Y86.163 E.28384
G1 X104.058 Y86.163 E.01753
G1 X104.058 Y92.984 E.30254
G1 X103.663 Y93.405 E.02563
G1 X103.663 Y88.479 E.21852
G1 X103.268 Y88.479 E.01753
G1 X103.268 Y93.827 E.23722
G1 X102.873 Y94.248 E.02563
G1 X102.873 Y88.479 E.25591
G1 X102.477 Y88.479 E.01753
G1 X102.477 Y94.67 E.27461
G1 X102.082 Y95.091 E.02563
G1 X102.082 Y88.479 E.2933
G1 X101.687 Y88.479 E.01753
G1 X101.687 Y95.513 E.31199
G1 X101.292 Y95.934 E.02563
G1 X101.292 Y90.794 E.22798
G1 X100.897 Y90.794 E.01753
G1 X100.897 Y96.356 E.24667
G1 X100.502 Y96.777 E.02563
G1 X100.502 Y90.794 E.26537
G1 X100.107 Y90.794 E.01753
G1 X100.107 Y97.199 E.28406
G1 X99.712 Y97.62 E.02563
G1 X99.712 Y90.794 E.30276
G1 X99.316 Y90.794 E.01753
G1 X99.316 Y98.042 E.32145
G1 X98.921 Y98.463 E.02563
G1 X98.921 Y93.11 E.23744
G1 X98.526 Y93.11 E.01753
G1 X98.526 Y98.884 E.25613
G1 X98.131 Y99.306 E.02563
G1 X98.131 Y93.11 E.27483
G1 X97.736 Y93.11 E.01753
G1 X97.736 Y99.727 E.29352
G1 X97.341 Y100.149 E.02563
G1 X97.341 Y93.11 E.31222
G1 X96.946 Y93.11 E.01753
G1 X96.946 Y100.592 E.33188
G1 X96.7 Y100.941 E.01892
G1 X96.55 Y101.204 E.01342
G1 X96.55 Y95.425 E.2563
G1 X96.155 Y95.425 E.01753
G1 X96.155 Y142.362 E2.08186
G1 X96.55 Y142.362 E.01753
G1 X96.55 Y104.798 E1.66614
G1 X96.749 Y105.136 E.01739
G1 X96.946 Y105.408 E.01489
G1 X96.946 Y142.362 E1.63908
G1 X97.341 Y142.362 E.01753
M73 Q0 S158
G1 X97.341 Y105.839 E1.61999
G1 X97.736 Y106.162 E.02266
G1 X97.736 Y142.362 E1.60563
G1 X98.131 Y142.362 E.01753
G1 X98.131 Y106.411 E1.59458
G1 X98.526 Y106.6 E.01942
G1 X98.526 Y142.362 E1.58622
G1 X98.921 Y142.362 E.01753
G1 X98.921 Y106.737 E1.58015
G1 X99.316 Y106.829 E.01799
G1 X99.316 Y142.362 E1.57607
G1 X99.712 Y142.362 E.01753
G1 X99.712 Y106.879 E1.57386
G1 X100.107 Y106.89 E.01753
G1 X100.107 Y142.362 E1.57335
G1 X100.502 Y142.362 E.01753
G1 X100.502 Y106.89 E1.57335
G1 X100.897 Y106.89 E.01753
G1 X100.897 Y142.362 E1.57335
G1 X101.292 Y142.362 E.01753
G1 X101.292 Y106.89 E1.57335
G1 X101.687 Y106.89 E.01753
M73 P1 R157
G1 X101.687 Y142.362 E1.57335
G1 X102.082 Y142.362 E.01753
M73 Q1 S158
G1 X102.082 Y106.89 E1.57335
G1 X102.477 Y106.89 E.01753
G1 X102.477 Y142.362 E1.57335
G1 X102.873 Y142.362 E.01753
G1 X102.873 Y106.89 E1.57335
G1 X103.268 Y106.89 E.01753
G1 X103.268 Y142.362 E1.57335
G1 X103.663 Y142.362 E.01753
G1 X103.663 Y106.89 E1.57335
G1 X104.058 Y106.89 E.01753
G1 X104.058 Y142.362 E1.57335
G1 X104.453 Y142.362 E.01753
G1 X104.453 Y106.73 E1.58044
M204 S1000
G1 X95.76 Y142.522 F10800
M204 S800
G1 F1200
G1 X95.76 Y95.425 E2.08896
G1 X95.365 Y95.425 E.01753
M73 P1 R156
G1 X95.365 Y142.362 E2.08186
G1 X94.97 Y142.362 E.01753
G1 X94.97 Y95.425 E2.08186
G1 X94.585 Y95.425 E.01708
G1 X94.575 Y107.628 E.54123
G1 X94.18 Y107.628 E.01753
G1 X94.18 Y97.741 E.43852
G1 X93.785 Y97.741 E.01753
G1 X93.785 Y107.628 E.43852
G1 X93.389 Y107.628 E.01753
G1 X93.389 Y97.741 E.43852
G1 X92.994 Y97.741 E.01753
G1 X92.994 Y107.628 E.43852
G1 X92.599 Y107.628 E.01753
G1 X92.599 Y97.581 E.44561
