; generated by PrusaSlicer 2.5.0 on 2023-03-11 at 18:22:25 UTC


;
;
; 

; external perimeters extrusion width = 0.60mm
; perimeters extrusion width = 0.50mm
; infill extrusion width = 0.50mm
; solid infill extrusion width = 0.50mm
; top infill extrusion width = 0.45mm
; first layer extrusion width = 0.42mm

M73 P0 R53
M73 Q0 S54
M201 X1000 Y1000 Z200 E5000 ; sets maximum accelerations, mm/sec^2
M203 X200 Y200 Z12 E120 ; sets maximum feedrates, mm / sec
M204 P1250 R1250 T1250 ; sets acceleration (P, T) and retract acceleration (R), mm/sec^2
M205 X8.00 Y8.00 Z0.40 E4.50 ; sets the jerk limits, mm/sec
M205 S0 T0 ; sets the minimum extruding and travel feed rate, mm/sec
M107 ; disable fan
;TYPE:Custom
M862.3 P "MK3S" ; printer model check
M862.1 P0.4 ; nozzle diameter check
M115 U3.11.0 ; tell printer latest fw version
G90 ; use absolute coordinates
M83 ; extruder relative mode
M104 S240 ; set extruder temp
M140 S95 ; set bed temp
M190 S95 ; wait for bed temp
M109 S240 ; wait for extruder temp
G28 W ; home all without mesh bed level
G80 ; mesh bed leveling

G1 Z0.2 F720
G1 Y-3 F1000 ; go outside print area
G92 E0
G1 X60 E9 F1000 ; intro line
G1 X100 E12.5 F1000 ; intro line

G92 E0
M221 S95

; Don't change E values below. Excessive value can damage the printer.

M907 E538 ; set extruder motor current
G21 ; set units to millimeters
G90 ; use absolute coordinates
M83 ; use relative distances for extrusion
M900 K0.08 ; Filament gcode LA 1.5
M900 K45 ; Filament gcode LA 1.0
M107 ; disable fan
;LAYER_CHANGE
;Z:0.3
;HEIGHT:0.3
;BEFORE_LAYER_CHANGE
G92 E0.0
;0.3


G1 E-1.4 F2100 ; retract
G1 Z.2 F720 ; lift Z
G1 Z.3 ; move to next layer (0)
;AFTER_LAYER_CHANGE
;0.3
G1 Z.5 ; lift Z
G1 X98.036 Y76.7 F10800 ; move to first skirt point
G1 Z.3 F720 ; restore layer Z
G1 E1.4 F2100 ;  ; unretract
M204 S800 ; adjust acceleration
;TYPE:Skirt/Brim
;WIDTH:0.42
G1 F1200
G1 X99.08 Y75.831 E.06024 ; skirt
G1 X100 Y75.644 E.04163 ; skirt
G1 X150 Y75.644 E2.21774 ; skirt
G1 X151.3 Y76.036 E.06024 ; skirt
G1 X152.169 Y77.08 E.06024 ; skirt
G1 X152.356 Y78 E.04163 ; skirt
G1 X152.356 Y132 E2.39516 ; skirt
G1 X151.964 Y133.3 E.06024 ; skirt
G1 X150.92 Y134.169 E.06024 ; skirt
G1 X150 Y134.356 E.04163 ; skirt
G1 X100 Y134.356 E2.21774 ; skirt
G1 X98.7 Y133.964 E.06024 ; skirt
G1 X97.831 Y132.92 E.06024 ; skirt
G1 X97.644 Y132 E.04163 ; skirt
G1 X97.644 Y78 E2.39516 ; skirt
G1 X98.019 Y76.757 E.05758 ; skirt
M204 S1000 ; adjust acceleration
; printing object 5R_hipjoint_upper_bearing-Body.stl id:0 copy 0
;WIPE_START
G1 F8640
G1 X99.08 Y75.831 E-.32524 ; wipe and retract
G1 X100 Y75.644 E-.21671 ; wipe and retract
G1 X103.413 Y75.644 E-.78805 ; wipe and retract
;WIPE_END
G1 E-.07 F2100 ; retract
G1 Z.5 F720 ; lift Z
G1 X100.766 Y78.766 F10800 ; move to first perimeter point
G1 Z.3 F720 ; restore layer Z
G1 E1.4 F2100 ;  ; unretract
M204 S800 ; adjust acceleration
;TYPE:Perimeter
;WIDTH:0.42
G1 F1200
G1 X149.234 Y78.766 E2.14982 ; perimeter
G1 X149.234 Y131.234 E2.32724 ; perimeter
G1 X100.766 Y131.234 E2.14982 ; perimeter
G1 X100.766 Y78.826 E2.32458 ; perimeter
M204 S1000 ; adjust acceleration
G1 X100.41 Y78.41 F10800 ; move to first perimeter point
M204 S800 ; adjust acceleration
;TYPE:External perimeter
G1 F1200
G1 X149.59 Y78.41 E2.18137 ; perimeter
G1 X149.59 Y131.59 E2.35879 ; perimeter
G1 X100.41 Y131.59 E2.18137 ; perimeter
M73 P1 R53
M73 Q1 S53
G1 X100.41 Y78.47 E2.35613 ; perimeter
M204 S1000 ; adjust acceleration
G1 X100.795 Y78.519 F10800 ; move inwards before travel
;WIPE_START
G1 F8640
G1 X106.17 Y78.463 E-1.33 ; wipe and retract
;WIPE_END
G1 E-.07 F2100 ; retract
G1 Z.5 F720 ; lift Z
G1 X104.067 Y84.943 F10800 ; move to first perimeter point
G1 Z.3 F720 ; restore layer Z
G1 E1.4 F2100 ;  ; unretract
M204 S800 ; adjust acceleration
;TYPE:Perimeter
G1 F1200
G1 X104.548 Y84.782 E.02252 ; perimeter
G1 X104.997 Y84.736 E.02 ; perimeter
G1 X105.445 Y84.78 E.01999 ; perimeter
G1 X105.876 Y84.913 E.02 ; perimeter
G1 X106.272 Y85.128 E.02 ; perimeter
G1 X106.618 Y85.417 E.02 ; perimeter
G1 X106.9 Y85.769 E.02 ; perimeter
G1 X107.106 Y86.17 E.01999 ; perimeter
G1 X107.229 Y86.602 E.01994 ; perimeter
G1 X107.264 Y87.027 E.01889 ; perimeter
G1 X107.23 Y87.39 E.01619 ; perimeter
G1 X107.109 Y87.824 E.01998 ; perimeter
G1 X106.903 Y88.225 E.02 ; perimeter
G1 X106.623 Y88.578 E.02 ; perimeter
G1 X106.278 Y88.869 E.01999 ; perimeter
G1 X105.882 Y89.085 E.02 ; perimeter
G1 X105.452 Y89.218 E.01999 ; perimeter
G1 X105.003 Y89.264 E.02 ; perimeter
G1 X104.555 Y89.22 E.01999 ; perimeter
G1 X104.124 Y89.087 E.02 ; perimeter
G1 X103.728 Y88.872 E.02 ; perimeter
G1 X103.382 Y88.583 E.02 ; perimeter
G1 X103.1 Y88.231 E.02 ; perimeter
G1 X102.894 Y87.83 E.01999 ; perimeter
G1 X102.771 Y87.398 E.01994 ; perimeter
G1 X102.737 Y87.065 E.01481 ; perimeter
G1 X102.77 Y86.61 E.02026 ; perimeter
G1 X102.891 Y86.176 E.01998 ; perimeter
G1 X103.097 Y85.775 E.02 ; perimeter
G1 X103.377 Y85.422 E.02 ; perimeter
G1 X103.722 Y85.131 E.01999 ; perimeter
G1 X104.014 Y84.972 E.01476 ; perimeter
M204 S1000 ; adjust acceleration
G1 X104.592 Y85.135 F10800 ; move to first perimeter point
M204 S800 ; adjust acceleration
;TYPE:External perimeter
G1 F1200
G1 X104.97 Y85.091 E.01687 ; perimeter
G1 X105.349 Y85.123 E.01686 ; perimeter
G1 X105.714 Y85.229 E.01687 ; perimeter
G1 X106.051 Y85.406 E.01687 ; perimeter
G1 X106.346 Y85.646 E.01687 ; perimeter
G1 X106.588 Y85.939 E.01687 ; perimeter
G1 X106.766 Y86.275 E.01686 ; perimeter
G1 X106.875 Y86.639 E.01685 ; perimeter
G1 X106.909 Y87.002 E.01617 ; perimeter
G1 X106.885 Y87.302 E.01339 ; perimeter
G1 X106.788 Y87.67 E.01685 ; perimeter
G1 X106.62 Y88.011 E.01687 ; perimeter
G1 X106.388 Y88.312 E.01687 ; perimeter
G1 X106.1 Y88.561 E.01686 ; perimeter
G1 X105.769 Y88.748 E.01687 ; perimeter
G1 X105.408 Y88.865 E.01686 ; perimeter
G1 X105.03 Y88.909 E.01687 ; perimeter
G1 X104.651 Y88.877 E.01686 ; perimeter
G1 X104.286 Y88.771 E.01687 ; perimeter
G1 X103.949 Y88.594 E.01687 ; perimeter
G1 X103.654 Y88.354 E.01687 ; perimeter
G1 X103.412 Y88.061 E.01687 ; perimeter
G1 X103.234 Y87.725 E.01686 ; perimeter
G1 X103.125 Y87.361 E.01684 ; perimeter
G1 X103.091 Y87.029 E.01481 ; perimeter
G1 X103.115 Y86.698 E.01475 ; perimeter
G1 X103.212 Y86.33 E.01685 ; perimeter
G1 X103.38 Y85.989 E.01687 ; perimeter
G1 X103.612 Y85.688 E.01687 ; perimeter
G1 X103.9 Y85.439 E.01686 ; perimeter
G1 X104.231 Y85.252 E.01687 ; perimeter
G1 X104.535 Y85.153 E.0142 ; perimeter
M204 S1000 ; adjust acceleration
G1 X104.708 Y84.772 F10800 ; move inwards before travel
;WIPE_START
G1 F8640
G1 X104.97 Y85.091 E-.10142 ; wipe and retract
G1 X105.349 Y85.123 E-.0878 ; wipe and retract
G1 X105.714 Y85.229 E-.0878 ; wipe and retract
G1 X106.051 Y85.406 E-.0878 ; wipe and retract
G1 X106.346 Y85.646 E-.0878 ; wipe and retract
G1 X106.588 Y85.939 E-.0878 ; wipe and retract
G1 X106.766 Y86.275 E-.0878 ; wipe and retract
G1 X106.875 Y86.639 E-.08769 ; wipe and retract
G1 X106.909 Y87.002 E-.08418 ; wipe and retract
G1 X106.885 Y87.302 E-.06971 ; wipe and retract
G1 X106.788 Y87.67 E-.08772 ; wipe and retract
G1 X106.62 Y88.011 E-.0878 ; wipe and retract
G1 X106.388 Y88.312 E-.0878 ; wipe and retract
G1 X106.1 Y88.561 E-.08779 ; wipe and retract
G1 X105.769 Y88.748 E-.0878 ; wipe and retract
G1 X105.681 Y88.776 E-.02132 ; wipe and retract
;WIPE_END
G1 E-.07 F2100 ; retract
G1 Z.5 F720 ; lift Z
G1 X106.864 Y123.724 F10800 ; move to first perimeter point
G1 Z.3 F720 ; restore layer Z
G1 E1.4 F2100 ;  ; unretract
M204 S800 ; adjust acceleration
;TYPE:Perimeter
G1 F1200
G1 X107.106 Y124.17 E.02252 ; perimeter
G1 X107.229 Y124.602 E.01994 ; perimeter
G1 X107.264 Y125.027 E.01889 ; perimeter
G1 X107.23 Y125.39 E.01619 ; perimeter
G1 X107.109 Y125.824 E.01998 ; perimeter
G1 X106.903 Y126.225 E.02 ; perimeter
G1 X106.623 Y126.578 E.02 ; perimeter
G1 X106.278 Y126.869 E.01999 ; perimeter
G1 X105.882 Y127.085 E.02 ; perimeter
G1 X105.452 Y127.218 E.01999 ; perimeter
G1 X105.003 Y127.264 E.02 ; perimeter
G1 X104.555 Y127.22 E.01999 ; perimeter
G1 X104.007 Y127.028 E.02574 ; perimeter
G1 X103.728 Y126.872 E.01418 ; perimeter
G1 X103.382 Y126.583 E.02 ; perimeter
G1 X103.1 Y126.231 E.02 ; perimeter
G1 X102.894 Y125.83 E.01999 ; perimeter
G1 X102.771 Y125.398 E.01994 ; perimeter
G1 X102.737 Y125.065 E.01481 ; perimeter
G1 X102.77 Y124.61 E.02026 ; perimeter
G1 X102.891 Y124.176 E.01998 ; perimeter
G1 X103.097 Y123.775 E.02 ; perimeter
G1 X103.377 Y123.422 E.02 ; perimeter
G1 X103.722 Y123.131 E.01999 ; perimeter
G1 X104.118 Y122.915 E.02 ; perimeter
G1 X104.548 Y122.782 E.01999 ; perimeter
G1 X104.997 Y122.736 E.02 ; perimeter
G1 X105.445 Y122.78 E.02 ; perimeter
G1 X105.876 Y122.913 E.02 ; perimeter
G1 X106.272 Y123.128 E.02 ; perimeter
G1 X106.618 Y123.417 E.02 ; perimeter
G1 X106.826 Y123.677 E.01476 ; perimeter
M204 S1000 ; adjust acceleration
G1 X106.588 Y123.939 F10800 ; move to first perimeter point
M204 S800 ; adjust acceleration
;TYPE:External perimeter
G1 F1200
G1 X106.766 Y124.275 E.01686 ; perimeter
G1 X106.875 Y124.639 E.01684 ; perimeter
G1 X106.909 Y125.002 E.01617 ; perimeter
G1 X106.885 Y125.302 E.01339 ; perimeter
G1 X106.788 Y125.67 E.01685 ; perimeter
G1 X106.62 Y126.011 E.01687 ; perimeter
G1 X106.388 Y126.312 E.01686 ; perimeter
G1 X106.1 Y126.561 E.01686 ; perimeter
G1 X105.769 Y126.748 E.01687 ; perimeter
G1 X105.408 Y126.865 E.01686 ; perimeter
G1 X105.03 Y126.909 E.01687 ; perimeter
G1 X104.651 Y126.877 E.01686 ; perimeter
G1 X104.169 Y126.711 E.0226 ; perimeter
G1 X103.949 Y126.594 E.01105 ; perimeter
G1 X103.654 Y126.354 E.01687 ; perimeter
G1 X103.412 Y126.061 E.01687 ; perimeter
G1 X103.234 Y125.725 E.01686 ; perimeter
G1 X103.125 Y125.361 E.01684 ; perimeter
G1 X103.091 Y125.029 E.01481 ; perimeter
G1 X103.115 Y124.698 E.01475 ; perimeter
G1 X103.212 Y124.33 E.01685 ; perimeter
G1 X103.38 Y123.989 E.01687 ; perimeter
G1 X103.612 Y123.688 E.01687 ; perimeter
G1 X103.9 Y123.439 E.01686 ; perimeter
G1 X104.231 Y123.252 E.01687 ; perimeter
G1 X104.592 Y123.135 E.01686 ; perimeter
G1 X104.97 Y123.091 E.01687 ; perimeter
G1 X105.349 Y123.123 E.01687 ; perimeter
G1 X105.714 Y123.229 E.01686 ; perimeter
G1 X106.051 Y123.406 E.01687 ; perimeter
G1 X106.346 Y123.646 E.01687 ; perimeter
G1 X106.549 Y123.893 E.0142 ; perimeter
M204 S1000 ; adjust acceleration
G1 X106.967 Y123.914 F10800 ; move inwards before travel
;WIPE_START
G1 F8640
G1 X106.766 Y124.275 E-.10141 ; wipe and retract
G1 X106.875 Y124.639 E-.08769 ; wipe and retract
G1 X106.909 Y125.002 E-.08418 ; wipe and retract
G1 X106.885 Y125.302 E-.06971 ; wipe and retract
G1 X106.788 Y125.67 E-.08772 ; wipe and retract
G1 X106.62 Y126.011 E-.0878 ; wipe and retract
G1 X106.388 Y126.312 E-.0878 ; wipe and retract
G1 X106.1 Y126.561 E-.08779 ; wipe and retract
G1 X105.769 Y126.748 E-.0878 ; wipe and retract
G1 X105.408 Y126.865 E-.08779 ; wipe and retract
G1 X105.03 Y126.909 E-.0878 ; wipe and retract
G1 X104.651 Y126.877 E-.0878 ; wipe and retract
G1 X104.169 Y126.711 E-.11765 ; wipe and retract
G1 X103.949 Y126.594 E-.05754 ; wipe and retract
G1 X103.654 Y126.354 E-.0878 ; wipe and retract
G1 X103.594 Y126.282 E-.02173 ; wipe and retract
;WIPE_END
G1 E-.07 F2100 ; retract
G1 Z.5 F720 ; lift Z
G1 X144.067 Y122.943 F10800 ; move to first perimeter point
G1 Z.3 F720 ; restore layer Z
G1 E1.4 F2100 ;  ; unretract
M204 S800 ; adjust acceleration
;TYPE:Perimeter
G1 F1200
G1 X144.548 Y122.782 E.02252 ; perimeter
G1 X144.997 Y122.736 E.02 ; perimeter
G1 X145.445 Y122.78 E.02 ; perimeter
G1 X145.876 Y122.913 E.02 ; perimeter
G1 X146.272 Y123.128 E.02 ; perimeter
G1 X146.618 Y123.417 E.02 ; perimeter
G1 X146.9 Y123.769 E.02 ; perimeter
G1 X147.106 Y124.17 E.01999 ; perimeter
G1 X147.229 Y124.602 E.01994 ; perimeter
G1 X147.264 Y125.027 E.01889 ; perimeter
G1 X147.23 Y125.39 E.01619 ; perimeter
G1 X147.109 Y125.824 E.01998 ; perimeter
G1 X146.903 Y126.225 E.02 ; perimeter
G1 X146.623 Y126.578 E.02 ; perimeter
G1 X146.278 Y126.869 E.01999 ; perimeter
G1 X145.882 Y127.085 E.02 ; perimeter
G1 X145.452 Y127.218 E.01999 ; perimeter
G1 X145.003 Y127.264 E.02 ; perimeter
G1 X144.555 Y127.22 E.01999 ; perimeter
G1 X144.124 Y127.087 E.02 ; perimeter
G1 X143.728 Y126.872 E.02 ; perimeter
G1 X143.382 Y126.583 E.02 ; perimeter
G1 X143.1 Y126.231 E.02 ; perimeter
G1 X142.894 Y125.83 E.02 ; perimeter
G1 X142.771 Y125.398 E.01994 ; perimeter
G1 X142.737 Y125.065 E.01481 ; perimeter
G1 X142.77 Y124.61 E.02026 ; perimeter
G1 X142.891 Y124.176 E.01998 ; perimeter
G1 X143.097 Y123.775 E.02 ; perimeter
G1 X143.377 Y123.422 E.02 ; perimeter
G1 X143.722 Y123.131 E.01999 ; perimeter
G1 X144.014 Y122.972 E.01476 ; perimeter
M204 S1000 ; adjust acceleration
G1 X144.231 Y123.252 F10800 ; move to first perimeter point
M204 S800 ; adjust acceleration
;TYPE:External perimeter
G1 F1200
G1 X144.592 Y123.135 E.01686 ; perimeter
G1 X144.97 Y123.091 E.01687 ; perimeter
G1 X145.349 Y123.123 E.01687 ; perimeter
G1 X145.714 Y123.229 E.01687 ; perimeter
G1 X146.051 Y123.406 E.01687 ; perimeter
G1 X146.346 Y123.646 E.01687 ; perimeter
G1 X146.588 Y123.939 E.01687 ; perimeter
G1 X146.766 Y124.275 E.01686 ; perimeter
G1 X146.875 Y124.639 E.01685 ; perimeter
G1 X146.909 Y125.002 E.01617 ; perimeter
G1 X146.885 Y125.302 E.01339 ; perimeter
G1 X146.788 Y125.67 E.01685 ; perimeter
G1 X146.62 Y126.011 E.01687 ; perimeter
G1 X146.388 Y126.312 E.01686 ; perimeter
G1 X146.1 Y126.561 E.01686 ; perimeter
G1 X145.769 Y126.748 E.01687 ; perimeter
G1 X145.408 Y126.865 E.01686 ; perimeter
G1 X145.03 Y126.909 E.01687 ; perimeter
G1 X144.651 Y126.877 E.01686 ; perimeter
G1 X144.286 Y126.771 E.01686 ; perimeter
G1 X143.949 Y126.594 E.01687 ; perimeter
G1 X143.654 Y126.354 E.01687 ; perimeter
G1 X143.412 Y126.061 E.01687 ; perimeter
G1 X143.234 Y125.725 E.01687 ; perimeter
G1 X143.125 Y125.361 E.01684 ; perimeter
G1 X143.091 Y125.029 E.01481 ; perimeter
G1 X143.115 Y124.698 E.01475 ; perimeter
G1 X143.212 Y124.33 E.01685 ; perimeter
G1 X143.38 Y123.989 E.01687 ; perimeter
G1 X143.612 Y123.688 E.01687 ; perimeter
G1 X143.9 Y123.439 E.01686 ; perimeter
G1 X144.179 Y123.282 E.0142 ; perimeter
M204 S1000 ; adjust acceleration
G1 X144.272 Y122.874 F10800 ; move inwards before travel
;WIPE_START
G1 F8640
G1 X144.592 Y123.135 E-.10141 ; wipe and retract
G1 X144.97 Y123.091 E-.0878 ; wipe and retract
G1 X145.349 Y123.123 E-.0878 ; wipe and retract
G1 X145.714 Y123.229 E-.0878 ; wipe and retract
G1 X146.051 Y123.406 E-.0878 ; wipe and retract
G1 X146.346 Y123.646 E-.0878 ; wipe and retract
G1 X146.588 Y123.939 E-.0878 ; wipe and retract
G1 X146.766 Y124.275 E-.0878 ; wipe and retract
G1 X146.875 Y124.639 E-.08769 ; wipe and retract
G1 X146.909 Y125.002 E-.08418 ; wipe and retract
G1 X146.885 Y125.302 E-.06971 ; wipe and retract
G1 X146.788 Y125.67 E-.08772 ; wipe and retract
G1 X146.62 Y126.011 E-.0878 ; wipe and retract
G1 X146.388 Y126.312 E-.0878 ; wipe and retract
G1 X146.1 Y126.561 E-.08779 ; wipe and retract
G1 X146.02 Y126.606 E-.02132 ; wipe and retract
;WIPE_END
G1 E-.07 F2100 ; retract
G1 Z.5 F720 ; lift Z
G1 X145.061 Y89.258 F10800 ; move to first perimeter point
G1 Z.3 F720 ; restore layer Z
G1 E1.4 F2100 ;  ; unretract
M204 S800 ; adjust acceleration
;TYPE:Perimeter
G1 F1200
G1 X144.555 Y89.22 E.02252 ; perimeter
G1 X144.124 Y89.087 E.02 ; perimeter
G1 X143.728 Y88.872 E.02 ; perimeter
G1 X143.382 Y88.583 E.02 ; perimeter
G1 X143.1 Y88.231 E.02 ; perimeter
G1 X142.894 Y87.83 E.01999 ; perimeter
G1 X142.771 Y87.398 E.01994 ; perimeter
G1 X142.737 Y87.065 E.01481 ; perimeter
G1 X142.77 Y86.61 E.02026 ; perimeter
G1 X142.891 Y86.176 E.01998 ; perimeter
G1 X143.097 Y85.775 E.02 ; perimeter
G1 X143.377 Y85.422 E.02 ; perimeter
G1 X143.722 Y85.131 E.01999 ; perimeter
G1 X144.118 Y84.915 E.02 ; perimeter
G1 X144.548 Y84.782 E.01999 ; perimeter
G1 X144.997 Y84.736 E.02 ; perimeter
G1 X145.445 Y84.78 E.02 ; perimeter
G1 X145.876 Y84.913 E.02 ; perimeter
G1 X146.272 Y85.128 E.02 ; perimeter
G1 X146.618 Y85.417 E.02 ; perimeter
