; generated by PrusaSlicer 2.4.2 on 2022-09-10 at 17:11:56 UTC

; 

; external perimeters extrusion width = 0.60mm
; perimeters extrusion width = 0.50mm
; infill extrusion width = 0.50mm
; solid infill extrusion width = 0.50mm
; top infill extrusion width = 0.45mm
; first layer extrusion width = 0.42mm

M73 P0 R52
M73 Q0 S53
M201 X1000 Y1000 Z200 E5000 ; sets maximum accelerations, mm/sec^2
M203 X200 Y200 Z12 E120 ; sets maximum feedrates, mm / sec
M204 P1250 R1250 T1250 ; sets acceleration (P, T) and retract acceleration (R), mm/sec^2
M205 X8.00 Y8.00 Z0.40 E4.50 ; sets the jerk limits, mm/sec
M205 S0 T0 ; sets the minimum extruding and travel feed rate, mm/sec
M107
;TYPE:Custom
M862.3 P "MK3S" ; printer model check
M862.1 P0.4 ; nozzle diameter check
M115 U3.10.1 ; tell printer latest fw version
G90 ; use absolute coordinates
M83 ; extruder relative mode
M104 S240 ; set extruder temp
M140 S95 ; set bed temp
M190 S95 ; wait for bed temp
M109 S240 ; wait for extruder temp
G28 W ; home all without mesh bed level
G80 ; mesh bed leveling
G1 Z0.2 F720
G1 Y-3 F1000 ; go outside print area
G92 E0
G1 X60 E9 F1000 ; intro line
G1 X100 E12.5 F1000 ; intro line
G92 E0
M221 S95

; Don't change E values below. Excessive value can damage the printer.

M907 E538 ; set extruder motor current
G21 ; set units to millimeters
G90 ; use absolute coordinates
M83 ; use relative distances for extrusion
M900 K0.08 ; Filament gcode LA 1.5
M900 K45 ; Filament gcode LA 1.0
M107
;LAYER_CHANGE
;Z:0.3
;HEIGHT:0.3
;BEFORE_LAYER_CHANGE
G92 E0.0
;0.3


G1 E-1.4 F2100
G1 Z.2 F720
G1 Z.3
;AFTER_LAYER_CHANGE
;0.3
G1 Z.5
G1 X96.036 Y78.7 F10800
G1 Z.3 F720
G1 E1.4 F2100
M204 S800
;TYPE:Skirt/Brim
;WIDTH:0.42
M73 Q0 S52
G1 F1200
G1 X97.08 Y77.831 E.06024
G1 X98 Y77.644 E.04163
G1 X152 Y77.644 E2.39516
G1 X153.3 Y78.036 E.06024
G1 X154.169 Y79.08 E.06024
G1 X154.356 Y80 E.04163
G1 X154.356 Y130 E2.21774
G1 X153.964 Y131.3 E.06024
G1 X152.92 Y132.169 E.06024
G1 X152 Y132.356 E.04163
G1 X98 Y132.356 E2.39516
G1 X96.7 Y131.964 E.06024
G1 X95.831 Y130.92 E.06024
G1 X95.644 Y130 E.04163
G1 X95.644 Y80 E2.21774
G1 X96.019 Y78.757 E.05758
M204 S1000
; printing object 5R_hipjoint_lower-Body.stl id:0 copy 0
;WIPE_START
G1 F8640
G1 X97.08 Y77.831 E-.32524
G1 X98 Y77.644 E-.21671
G1 X101.413 Y77.644 E-.78805
;WIPE_END
G1 E-.07 F2100
G1 Z.5 F720
G1 X98.766 Y80.766 F10800
G1 Z.3 F720
G1 E1.4 F2100
M204 S800
;TYPE:Perimeter
G1 F1200
G1 X151.234 Y80.766 E2.32724
G1 X151.234 Y129.234 E2.14982
G1 X98.766 Y129.234 E2.32724
G1 X98.766 Y80.826 E2.14716
M204 S1000
M73 P0 R51
G1 X98.41 Y80.41 F10800
M204 S800
;TYPE:External perimeter
G1 F1200
G1 X151.59 Y80.41 E2.35879
G1 X151.59 Y129.59 E2.18137
M73 P1 R51
G1 X98.41 Y129.59 E2.35879
M73 Q1 S52
G1 X98.41 Y80.47 E2.17871
M204 S1000
G1 X98.798 Y80.508 F10800
;WIPE_START
G1 F8640
G1 X104.17 Y80.464 E-1.33
;WIPE_END
G1 E-.07 F2100
G1 Z.5 F720
G1 X151.128 Y81.595 F10800
G1 Z.3 F720
G1 E1.4 F2100
M204 S800
;TYPE:Solid infill
;WIDTH:0.421778
G1 F1200
G1 X150.565 Y81.032 E.03547
G1 X150.06 Y81.032 E.02253
G1 X150.968 Y81.94 E.05724
G1 X150.968 Y82.446 E.02253
G1 X149.554 Y81.032 E.08911
G1 X149.049 Y81.032 E.02253
G1 X150.968 Y82.951 E.12097
G1 X150.968 Y83.457 E.02253
G1 X148.543 Y81.032 E.15283
G1 X148.038 Y81.032 E.02253
G1 X150.968 Y83.962 E.1847
G1 X150.968 Y84.468 E.02253
G1 X147.532 Y81.032 E.21656
G1 X147.027 Y81.032 E.02253
G1 X150.968 Y84.973 E.24842
G1 X150.968 Y85.478 E.02253
G1 X146.522 Y81.032 E.28028
G1 X146.016 Y81.032 E.02253
G1 X150.968 Y85.984 E.31215
G1 X150.968 Y86.489 E.02253
G1 X145.511 Y81.032 E.34401
G1 X145.005 Y81.032 E.02253
G1 X150.968 Y86.995 E.37587
G1 X150.968 Y87.5 E.02253
G1 X144.5 Y81.032 E.40774
G1 X143.994 Y81.032 E.02253
G1 X150.968 Y88.006 E.4396
G1 X150.968 Y88.511 E.02253
G1 X143.489 Y81.032 E.47146
G1 X142.984 Y81.032 E.02253
G1 X150.968 Y89.016 E.50333
G1 X150.968 Y89.522 E.02253
G1 X142.478 Y81.032 E.53519
G1 X141.973 Y81.032 E.02253
G1 X150.968 Y90.027 E.56705
G1 X150.968 Y90.533 E.02253
G1 X141.467 Y81.032 E.59892
G1 X140.962 Y81.032 E.02253
G1 X150.968 Y91.038 E.63078
G1 X150.968 Y91.544 E.02253
G1 X140.456 Y81.032 E.66264
G1 X139.951 Y81.032 E.02253
G1 X150.968 Y92.049 E.6945
G1 X150.968 Y92.555 E.02253
G1 X139.445 Y81.032 E.72637
G1 X138.94 Y81.032 E.02253
G1 X150.968 Y93.06 E.75823
G1 X150.968 Y93.565 E.02253
G1 X138.435 Y81.032 E.79009
G1 X137.929 Y81.032 E.02253
G1 X150.968 Y94.071 E.82196
G1 X150.968 Y94.576 E.02253
G1 X137.424 Y81.032 E.85382
G1 X136.918 Y81.032 E.02253
G1 X150.968 Y95.082 E.88568
G1 X150.968 Y95.587 E.02253
G1 X136.413 Y81.032 E.91755
G1 X135.907 Y81.032 E.02253
G1 X150.968 Y96.093 E.94941
G1 X150.968 Y96.598 E.02253
G1 X135.402 Y81.032 E.98127
G1 X134.897 Y81.032 E.02253
G1 X150.968 Y97.103 E1.01313
G1 X150.968 Y97.609 E.02253
G1 X134.391 Y81.032 E1.045
G1 X133.886 Y81.032 E.02253
G1 X150.968 Y98.114 E1.07686
G1 X150.968 Y98.62 E.02253
G1 X133.38 Y81.032 E1.10872
G1 X132.875 Y81.032 E.02253
M73 P2 R51
M73 Q2 S52
G1 X150.968 Y99.125 E1.14059
G1 X150.968 Y99.631 E.02253
G1 X132.369 Y81.032 E1.17245
G1 X131.864 Y81.032 E.02253
G1 X150.968 Y100.136 E1.20431
G1 X150.968 Y100.641 E.02253
M73 Q2 S51
G1 X131.359 Y81.032 E1.23618
G1 X130.853 Y81.032 E.02253
G1 X150.968 Y101.147 E1.26804
G1 X150.968 Y101.652 E.02253
G1 X130.348 Y81.032 E1.2999
G1 X129.842 Y81.032 E.02253
G1 X150.968 Y102.158 E1.33176
G1 X150.968 Y102.663 E.02253
G1 X129.337 Y81.032 E1.36363
G1 X128.831 Y81.032 E.02253
G1 X150.968 Y103.169 E1.39549
G1 X150.968 Y103.674 E.02253
G1 X128.326 Y81.032 E1.42735
G1 X127.82 Y81.032 E.02253
G1 X150.968 Y104.18 E1.45922
G1 X150.968 Y104.685 E.02253
G1 X127.315 Y81.032 E1.49108
G1 X126.81 Y81.032 E.02253
G1 X150.968 Y105.19 E1.52294
G1 X150.968 Y105.696 E.02253
G1 X126.304 Y81.032 E1.55481
G1 X125.799 Y81.032 E.02253
M73 P2 R50
G1 X150.968 Y106.201 E1.58667
G1 X150.968 Y106.707 E.02253
G1 X125.293 Y81.032 E1.61853
G1 X124.788 Y81.032 E.02253
G1 X150.968 Y107.212 E1.6504
G1 X150.968 Y107.718 E.02253
G1 X124.282 Y81.032 E1.68226
G1 X123.777 Y81.032 E.02253
G1 X150.968 Y108.223 E1.71412
G1 X150.968 Y108.728 E.02253
M73 P3 R50
G1 X123.272 Y81.032 E1.74598
G1 X122.766 Y81.032 E.02253
M73 Q3 S51
G1 X150.968 Y109.234 E1.77785
G1 X150.968 Y109.739 E.02253
G1 X122.261 Y81.032 E1.80971
G1 X121.755 Y81.032 E.02253
G1 X150.968 Y110.245 E1.84157
G1 X150.968 Y110.75 E.02253
G1 X121.25 Y81.032 E1.87344
G1 X120.744 Y81.032 E.02253
G1 X150.968 Y111.256 E1.9053
G1 X150.968 Y111.761 E.02253
G1 X120.239 Y81.032 E1.93716
G1 X119.733 Y81.032 E.02253
G1 X150.968 Y112.267 E1.96903
G1 X150.968 Y112.772 E.02253
G1 X119.228 Y81.032 E2.00089
G1 X118.723 Y81.032 E.02253
G1 X150.968 Y113.277 E2.03275
G1 X150.968 Y113.783 E.02253
G1 X118.217 Y81.032 E2.06461
G1 X117.712 Y81.032 E.02253
G1 X150.968 Y114.288 E2.09648
G1 X150.968 Y114.794 E.02253
G1 X117.206 Y81.032 E2.12834
G1 X116.701 Y81.032 E.02253
G1 X150.968 Y115.299 E2.1602
G1 X150.968 Y115.805 E.02253
M73 P4 R50
G1 X116.195 Y81.032 E2.19207
G1 X115.69 Y81.032 E.02253
M73 Q4 S50
G1 X150.968 Y116.31 E2.22393
G1 X150.968 Y116.815 E.02253
G1 X115.185 Y81.032 E2.25579
G1 X114.679 Y81.032 E.02253
G1 X150.968 Y117.321 E2.28766
G1 X150.968 Y117.826 E.02253
G1 X114.174 Y81.032 E2.31952
G1 X113.668 Y81.032 E.02253
G1 X150.968 Y118.332 E2.35138
G1 X150.968 Y118.837 E.02253
G1 X113.163 Y81.032 E2.38324
G1 X112.657 Y81.032 E.02253
G1 X150.968 Y119.343 E2.41511
G1 X150.968 Y119.848 E.02253
M73 P4 R49
G1 X112.152 Y81.032 E2.44697
G1 X111.647 Y81.032 E.02253
G1 X150.968 Y120.353 E2.47883
G1 X150.968 Y120.859 E.02253
G1 X111.141 Y81.032 E2.5107
G1 X110.636 Y81.032 E.02253
G1 X150.968 Y121.364 E2.54256
G1 X150.968 Y121.87 E.02253
M73 P5 R49
G1 X110.13 Y81.032 E2.57442
G1 X109.625 Y81.032 E.02253
M73 Q5 S50
G1 X150.968 Y122.375 E2.60629
G1 X150.968 Y122.881 E.02253
G1 X109.119 Y81.032 E2.63815
G1 X108.614 Y81.032 E.02253
G1 X150.968 Y123.386 E2.67001
G1 X150.968 Y123.892 E.02253
G1 X108.108 Y81.032 E2.70188
G1 X107.603 Y81.032 E.02253
G1 X150.968 Y124.397 E2.73374
G1 X150.968 Y124.902 E.02253
G1 X107.098 Y81.032 E2.7656
G1 X106.592 Y81.032 E.02253
G1 X150.968 Y125.408 E2.79746
G1 X150.968 Y125.913 E.02253
G1 X106.087 Y81.032 E2.82933
G1 X105.581 Y81.032 E.02253
G1 X150.968 Y126.419 E2.86119
G1 X150.968 Y126.924 E.02253
M73 P6 R49
M73 Q5 S49
G1 X105.076 Y81.032 E2.89305
G1 X104.57 Y81.032 E.02253
M73 Q6 S49
G1 X150.968 Y127.43 E2.92492
G1 X150.968 Y127.935 E.02253
G1 X104.065 Y81.032 E2.95678
G1 X103.56 Y81.032 E.02253
G1 X150.968 Y128.44 E2.98864
G1 X150.968 Y128.946 E.02253
G1 X103.054 Y81.032 E3.02051
G1 X102.549 Y81.032 E.02253
M73 P6 R48
G1 X150.484 Y128.968 E3.02188
G1 X149.979 Y128.968 E.02253
G1 X102.043 Y81.032 E3.02188
G1 X101.538 Y81.032 E.02253
G1 X149.473 Y128.968 E3.02188
G1 X148.968 Y128.968 E.02253
G1 X101.032 Y81.032 E3.02188
G1 X100.527 Y81.032 E.02253
G1 X148.462 Y128.968 E3.02188
G1 X147.957 Y128.968 E.02253
M73 P7 R48
M73 Q7 S49
G1 X100.022 Y81.032 E3.02188
G1 X99.516 Y81.032 E.02253
G1 X147.451 Y128.968 E3.02188
G1 X146.946 Y128.968 E.02253
G1 X99.032 Y81.054 E3.02051
G1 X99.032 Y81.559 E.02253
G1 X146.441 Y128.968 E2.98865
G1 X145.935 Y128.968 E.02253
G1 X99.032 Y82.065 E2.95679
G1 X99.032 Y82.57 E.02253
G1 X145.43 Y128.968 E2.92492
G1 X144.924 Y128.968 E.02253
G1 X99.032 Y83.076 E2.89306
G1 X99.032 Y83.581 E.02253
G1 X144.419 Y128.968 E2.8612
G1 X143.913 Y128.968 E.02253
M73 Q7 S48
G1 X99.032 Y84.087 E2.82933
G1 X99.032 Y84.592 E.02253
M73 P8 R48
G1 X143.408 Y128.968 E2.79747
G1 X142.903 Y128.968 E.02253
M73 Q8 S48
G1 X99.032 Y85.097 E2.76561
G1 X99.032 Y85.603 E.02253
G1 X142.397 Y128.968 E2.73375
G1 X141.892 Y128.968 E.02253
G1 X99.032 Y86.108 E2.70188
G1 X99.032 Y86.614 E.02253
M73 P8 R47
G1 X141.386 Y128.968 E2.67002
G1 X140.881 Y128.968 E.02253
G1 X99.032 Y87.119 E2.63816
G1 X99.032 Y87.625 E.02253
G1 X140.375 Y128.968 E2.60629
G1 X139.87 Y128.968 E.02253
G1 X99.032 Y88.13 E2.57443
G1 X99.032 Y88.636 E.02253
G1 X139.364 Y128.968 E2.54257
G1 X138.859 Y128.968 E.02253
G1 X99.032 Y89.141 E2.5107
G1 X99.032 Y89.646 E.02253
M73 P9 R47
G1 X138.354 Y128.968 E2.47884
G1 X137.848 Y128.968 E.02253
G1 X99.032 Y90.152 E2.44698
G1 X99.032 Y90.657 E.02253
M73 Q9 S48
G1 X137.343 Y128.968 E2.41511
G1 X136.837 Y128.968 E.02253
G1 X99.032 Y91.163 E2.38325
G1 X99.032 Y91.668 E.02253
G1 X136.332 Y128.968 E2.35139
G1 X135.826 Y128.968 E.02253
G1 X99.032 Y92.174 E2.31953
G1 X99.032 Y92.679 E.02253
G1 X135.321 Y128.968 E2.28766
G1 X134.816 Y128.968 E.02253
G1 X99.032 Y93.184 E2.2558
G1 X99.032 Y93.69 E.02253
G1 X134.31 Y128.968 E2.22394
G1 X133.805 Y128.968 E.02253
M73 Q9 S47
G1 X99.032 Y94.195 E2.19207
G1 X99.032 Y94.701 E.02253
G1 X133.299 Y128.968 E2.16021
G1 X132.794 Y128.968 E.02253
G1 X99.032 Y95.206 E2.12835
G1 X99.032 Y95.712 E.02253
M73 P10 R47
G1 X132.288 Y128.968 E2.09648
G1 X131.783 Y128.968 E.02253
G1 X99.032 Y96.217 E2.06462
G1 X99.032 Y96.723 E.02253
M73 Q10 S47
G1 X131.277 Y128.968 E2.03276
G1 X130.772 Y128.968 E.02253
G1 X99.032 Y97.228 E2.0009
G1 X99.032 Y97.733 E.02253
G1 X130.267 Y128.968 E1.96903
G1 X129.761 Y128.968 E.02253
M73 P10 R46
G1 X99.032 Y98.239 E1.93717
G1 X99.032 Y98.744 E.02253
G1 X129.256 Y128.968 E1.90531
G1 X128.75 Y128.968 E.02253
G1 X99.032 Y99.25 E1.87344
G1 X99.032 Y99.755 E.02253
G1 X128.245 Y128.968 E1.84158
G1 X127.739 Y128.968 E.02253
G1 X99.032 Y100.261 E1.80972
G1 X99.032 Y100.766 E.02253
G1 X127.234 Y128.968 E1.77785
G1 X126.729 Y128.968 E.02253
G1 X99.032 Y101.271 E1.74599
G1 X99.032 Y101.777 E.02253
G1 X126.223 Y128.968 E1.71413
G1 X125.718 Y128.968 E.02253
G1 X99.032 Y102.282 E1.68227
G1 X99.032 Y102.788 E.02253
G1 X125.212 Y128.968 E1.6504
G1 X124.707 Y128.968 E.02253
M73 P11 R46
G1 X99.032 Y103.293 E1.61854
G1 X99.032 Y103.799 E.02253
G1 X124.201 Y128.968 E1.58668
G1 X123.696 Y128.968 E.02253
M73 Q11 S47
G1 X99.032 Y104.304 E1.55481
G1 X99.032 Y104.809 E.02253
G1 X123.191 Y128.968 E1.52295
G1 X122.685 Y128.968 E.02253
G1 X99.032 Y105.315 E1.49109
G1 X99.032 Y105.82 E.02253
G1 X122.18 Y128.968 E1.45922
G1 X121.674 Y128.968 E.02253
G1 X99.032 Y106.326 E1.42736
G1 X99.032 Y106.831 E.02253
G1 X121.169 Y128.968 E1.3955
G1 X120.663 Y128.968 E.02253
G1 X99.032 Y107.337 E1.36363
G1 X99.032 Y107.842 E.02253
G1 X120.158 Y128.968 E1.33177
G1 X119.652 Y128.968 E.02253
G1 X99.032 Y108.348 E1.29991
G1 X99.032 Y108.853 E.02253
G1 X119.147 Y128.968 E1.26805
G1 X118.642 Y128.968 E.02253
G1 X99.032 Y109.358 E1.23618
G1 X99.032 Y109.864 E.02253
M73 Q11 S46
G1 X118.136 Y128.968 E1.20432
G1 X117.631 Y128.968 E.02253
G1 X99.032 Y110.369 E1.17246
G1 X99.032 Y110.875 E.02253
G1 X117.125 Y128.968 E1.14059
G1 X116.62 Y128.968 E.02253
G1 X99.032 Y111.38 E1.10873
G1 X99.032 Y111.886 E.02253
G1 X116.114 Y128.968 E1.07687
G1 X115.609 Y128.968 E.02253
G1 X99.032 Y112.391 E1.045
G1 X99.032 Y112.896 E.02253
G1 X115.104 Y128.968 E1.01314
G1 X114.598 Y128.968 E.02253
G1 X99.032 Y113.402 E.98128
G1 X99.032 Y113.907 E.02253
M73 P12 R46
G1 X114.093 Y128.968 E.94942
G1 X113.587 Y128.968 E.02253
G1 X99.032 Y114.413 E.91755
G1 X99.032 Y114.918 E.02253
G1 X113.082 Y128.968 E.88569
G1 X112.576 Y128.968 E.02253
G1 X99.032 Y115.424 E.85383
G1 X99.032 Y115.929 E.02253
M73 Q12 S46
G1 X112.071 Y128.968 E.82196
G1 X111.565 Y128.968 E.02253
G1 X99.032 Y116.435 E.7901
G1 X99.032 Y116.94 E.02253
G1 X111.06 Y128.968 E.75824
G1 X110.555 Y128.968 E.02253
M73 P12 R45
G1 X99.032 Y117.445 E.72637
G1 X99.032 Y117.951 E.02253
G1 X110.049 Y128.968 E.69451
G1 X109.544 Y128.968 E.02253
G1 X99.032 Y118.456 E.66265
G1 X99.032 Y118.962 E.02253
G1 X109.038 Y128.968 E.63079
G1 X108.533 Y128.968 E.02253
G1 X99.032 Y119.467 E.59892
G1 X99.032 Y119.973 E.02253
G1 X108.027 Y128.968 E.56706
G1 X107.522 Y128.968 E.02253
G1 X99.032 Y120.478 E.5352
G1 X99.032 Y120.983 E.02253
G1 X107.017 Y128.968 E.50333
G1 X106.511 Y128.968 E.02253
G1 X99.032 Y121.489 E.47147
G1 X99.032 Y121.994 E.02253
G1 X106.006 Y128.968 E.43961
G1 X105.5 Y128.968 E.02253
G1 X99.032 Y122.5 E.40774
G1 X99.032 Y123.005 E.02253
G1 X104.995 Y128.968 E.37588
G1 X104.489 Y128.968 E.02253
G1 X99.032 Y123.511 E.34402
G1 X99.032 Y124.016 E.02253
G1 X103.984 Y128.968 E.31215
G1 X103.479 Y128.968 E.02253
G1 X99.032 Y124.521 E.28029
G1 X99.032 Y125.027 E.02253
G1 X102.973 Y128.968 E.24843
G1 X102.468 Y128.968 E.02253
G1 X99.032 Y125.532 E.21657
G1 X99.032 Y126.038 E.02253
G1 X101.962 Y128.968 E.1847
G1 X101.457 Y128.968 E.02253
G1 X99.032 Y126.543 E.15284
G1 X99.032 Y127.049 E.02253
G1 X100.951 Y128.968 E.12098
G1 X100.446 Y128.968 E.02253
G1 X99.032 Y127.554 E.08911
G1 X99.032 Y128.06 E.02253
G1 X99.94 Y128.968 E.05725
G1 X99.435 Y128.968 E.02253
G1 X98.872 Y128.405 E.03548
M204 S1000
; stop printing object 5R_hipjoint_lower-Body.stl id:0 copy 0
;LAYER_CHANGE
;Z:0.6
;HEIGHT:0.3
;BEFORE_LAYER_CHANGE
G92 E0.0
;0.6


;WIPE_START
G1 F8640
G1 X99.435 Y128.968 E-.18376
G1 X99.94 Y128.968 E-.11671
G1 X99.032 Y128.06 E-.29655
G1 X99.032 Y127.554 E-.11671
G1 X100.446 Y128.968 E-.4616
G1 X100.951 Y128.968 E-.11671
G1 X100.835 Y128.851 E-.03796
;WIPE_END
G1 E-.07 F2100
G1 Z.5 F720
G1 Z.6
;AFTER_LAYER_CHANGE
;0.6
M140 S90 ; set bed temperature
G1 Z.8
G1 X100.835 Y132.356 F10800
G1 Z.6 F720
G1 E1.4 F2100
;TYPE:Skirt/Brim
;WIDTH:0.42
G1 F2700
G1 X98 Y132.356 E.12575
G1 X96.7 Y131.964 E.06024
G1 X95.831 Y130.92 E.06024
G1 X95.644 Y130 E.04163
G1 X95.644 Y80 E2.21774
G1 X96.036 Y78.7 E.06024
G1 X97.08 Y77.831 E.06024
G1 X98 Y77.644 E.04163
G1 X152 Y77.644 E2.39516
G1 X153.3 Y78.036 E.06024
G1 X154.169 Y79.08 E.06024
G1 X154.356 Y80 E.04163
G1 X154.356 Y130 E2.21774
G1 X153.964 Y131.3 E.06024
G1 X152.92 Y132.169 E.06024
G1 X152 Y132.356 E.04163
G1 X100.895 Y132.356 E2.26675
; printing object 5R_hipjoint_lower-Body.stl id:0 copy 0
;WIPE_START
G1 F8640
G1 X98 Y132.356 E-.66848
G1 X96.7 Y131.964 E-.31359
G1 X95.831 Y130.92 E-.31359
G1 X95.802 Y130.774 E-.03433
;WIPE_END
G1 E-.07 F2100
G1 Z.8 F720
G1 X98.786 Y129.214 F10800
G1 Z.6 F720
G1 E1.4 F2100
M204 S800
;TYPE:Perimeter
;WIDTH:0.5
G1 F3000
G1 X98.786 Y80.786 E2.63127
G1 X151.214 Y80.786 E2.8486
G1 X151.214 Y129.214 E2.63127
G1 X98.846 Y129.214 E2.84534
