; generated by PrusaSlicer 2.7.1 on 2024-01-03 at 10:12:04 UTC


;
;
; 

; external perimeters extrusion width = 0.60mm
; perimeters extrusion width = 0.50mm
; infill extrusion width = 0.50mm
; solid infill extrusion width = 0.50mm
; top infill extrusion width = 0.45mm
; support material extrusion width = 0.38mm
; first layer extrusion width = 0.42mm

; external perimeters extrusion width = 0.60mm
; perimeters extrusion width = 0.50mm
; infill extrusion width = 0.50mm
; solid infill extrusion width = 0.50mm
; top infill extrusion width = 0.45mm
; support material extrusion width = 0.38mm
; first layer extrusion width = 0.42mm

; external perimeters extrusion width = 0.60mm
; perimeters extrusion width = 0.50mm
; infill extrusion width = 0.50mm
; solid infill extrusion width = 0.50mm
; top infill extrusion width = 0.45mm
; support material extrusion width = 0.38mm
; first layer extrusion width = 0.42mm

; external perimeters extrusion width = 0.60mm
; perimeters extrusion width = 0.50mm
; infill extrusion width = 0.50mm
; solid infill extrusion width = 0.50mm
; top infill extrusion width = 0.45mm
; support material extrusion width = 0.38mm
; first layer extrusion width = 0.42mm

M73 P0 R164
M73 Q0 S166
M201 X1000 Y1000 Z200 E5000 ; sets maximum accelerations, mm/sec^2
M203 X200 Y200 Z12 E120 ; sets maximum feedrates, mm / sec
M204 S1250 T1250 ; sets acceleration (S) and retract acceleration (R), mm/sec^2
M205 X8.00 Y8.00 Z0.40 E4.50 ; sets the jerk limits, mm/sec
M205 S0 T0 ; sets the minimum extruding and travel feed rate, mm/sec

; printing object 6L_hip_bearing2-Body.stl id:1 copy 0
; stop printing object 6L_hip_bearing2-Body.stl id:1 copy 0
; printing object 6F_hipfront2-Body.stl id:0 copy 0
; stop printing object 6F_hipfront2-Body.stl id:0 copy 0
; printing object 6F_hipback2-Body.stl id:3 copy 0
; stop printing object 6F_hipback2-Body.stl id:3 copy 0
; printing object 6R_hip_bearing2-Body.stl id:2 copy 0
; stop printing object 6R_hip_bearing2-Body.stl id:2 copy 0

;TYPE:Custom
M862.3 P "MK3S" ; printer model check
M862.1 P0.4 ; nozzle diameter check
M115 U3.12.2 ; tell printer latest fw version
G90 ; use absolute coordinates
M83 ; extruder relative mode
M104 S240 ; set extruder temp
M140 S95 ; set bed temp
M190 S95 ; wait for bed temp
M109 S240 ; wait for extruder temp
G28 W ; home all without mesh bed level
G80 ; mesh bed leveling

G1 Z0.2 F720
G1 Y-3 F1000 ; go outside print area
G92 E0
G1 X60 E9 F1000 ; intro line
G1 X100 E12.5 F1000 ; intro line

G92 E0
M221 S95

; Don't change E values below. Excessive value can damage the printer.

M907 E538 ; set extruder motor current
G21 ; set units to millimeters
G90 ; use absolute coordinates
M83 ; use relative distances for extrusion
M900 K0.08 ; Filament gcode LA 1.5
M900 K45 ; Filament gcode LA 1.0
M107 ; disable fan
;LAYER_CHANGE
;Z:0.3
;HEIGHT:0.3
;BEFORE_LAYER_CHANGE
G92 E0.0
;0.3


G1 E-1.4 F2100 ; retract
G1 Z.3 F720 ; move to next layer (0)
;AFTER_LAYER_CHANGE
;0.3
G1 X43.076 Y60.831 F10800 ; move to print after unknown position
G1 Z.3 F720 ; move to print after unknown position
G1 E1.4 F2100 ;  ; unretract
M204 S800 ; adjust acceleration
;TYPE:Skirt/Brim
;WIDTH:0.42
G1 F1200
G1 X43.854 Y60.649 E.03544 ; skirt
G1 X163.884 Y53.45 E5.33348 ; skirt
G1 X164.956 Y53.526 E.04767 ; skirt
G1 X166.464 Y53.877 E.06868 ; skirt
G1 X167.532 Y54.312 E.05115 ; skirt
G1 X168.884 Y55.129 E.07007 ; skirt
G1 X182.1 Y64.392 E.71584 ; skirt
G1 X182.941 Y65.459 E.06026 ; skirt
G1 X183.104 Y66.3 E.038 ; skirt
G1 X183.479 Y109.164 E1.9013 ; skirt
G1 X183.479 Y149.684 E1.79726 ; skirt
G1 X183.088 Y150.985 E.06026 ; skirt
G1 X182.491 Y151.603 E.03811 ; skirt
G1 X169.459 Y160.891 E.70982 ; skirt
G1 X168.388 Y161.578 E.05644 ; skirt
G1 X166.529 Y162.334 E.08901 ; skirt
G1 X165.4 Y162.567 E.05113 ; skirt
G1 X163.822 Y162.641 E.07007 ; skirt
G1 X43.736 Y149.341 E5.35896 ; skirt
G1 X42.487 Y148.809 E.06022 ; skirt
M73 Q0 S165
G1 X41.64 Y147 E.0886 ; skirt
G1 X41.64 Y63 E3.7258 ; skirt
G1 X42.032 Y61.7 E.06023 ; skirt
G1 X43.03 Y60.87 E.05757 ; skirt
M204 S1000 ; adjust acceleration
; printing object 6L_hip_bearing2-Body.stl id:1 copy 0
;WIPE_START
G1 F8640
G1 X43.076 Y60.831 E-.01393 ; wipe and retract
G1 X43.854 Y60.649 E-.18449 ; wipe and retract
G1 X49.049 Y60.337 E-1.20158 ; wipe and retract
;WIPE_END
G1 Z.5 F720 ; move to first support material point
G1 X169.622 Y150.672 F10800 ; move to first support material point
G1 Z.3 F720 ; move to first support material point
M73 P0 R163
G1 E1.4 F2100 ;  ; unretract
M204 S800 ; adjust acceleration
;TYPE:Support material
G1 F1200
G1 X170.129 Y151.707 E.05112 ; support material
G1 X170.44 Y152.817 E.05113 ; support material
G1 X170.545 Y153.964 E.05109 ; support material
G1 X170.44 Y155.116 E.05131 ; support material
G1 X170.129 Y156.224 E.05104 ; support material
G1 X169.622 Y157.26 E.05116 ; support material
G1 X168.935 Y158.186 E.05114 ; support material
G1 X168.092 Y158.972 E.05112 ; support material
G1 X167.12 Y159.593 E.05116 ; support material
G1 X166.052 Y160.027 E.05113 ; support material
G1 X164.923 Y160.261 E.05114 ; support material
G1 X163.771 Y160.286 E.05111 ; support material
G1 X162.633 Y160.101 E.05114 ; support material
G1 X161.547 Y159.714 E.05114 ; support material
G1 X160.55 Y159.136 E.05112 ; support material
G1 X159.673 Y158.387 E.05115 ; support material
G1 X158.948 Y157.492 E.05109 ; support material
G1 X158.424 Y156.532 E.04851 ; support material
G1 X158.047 Y155.39 E.05334 ; support material
G1 X157.892 Y154.25 E.05103 ; support material
G1 X157.892 Y153.681 E.02524 ; support material
G1 X158.047 Y152.541 E.05103 ; support material
G1 X158.206 Y151.981 E.02582 ; support material
G1 X158.424 Y151.4 E.02752 ; support material
G1 X159.098 Y150.254 E.05897 ; support material
G1 X169.312 Y150.254 E.45304 ; support material
G1 X169.59 Y150.629 E.02071 ; support material
M204 S1000 ; adjust acceleration
G1 X170.174 Y155.471 F10800 ; move to first support material point
M204 S800 ; adjust acceleration
G1 F1200
G1 X170.124 Y152.876 E.11512 ; support material
G1 X169.779 Y151.72 E.05351 ; support material
G1 X169.779 Y156.212 E.19924 ; support material
G1 X169.384 Y157.018 E.03981 ; support material
G1 X169.384 Y150.913 E.27079 ; support material
G1 X169.151 Y150.575 E.01821 ; support material
G1 X168.988 Y150.575 E.00723 ; support material
G1 X168.988 Y157.576 E.31053 ; support material
G1 X168.593 Y158.067 E.02795 ; support material
G1 X168.593 Y150.575 E.33231 ; support material
G1 X168.198 Y150.575 E.01752 ; support material
G1 X168.198 Y158.436 E.34867 ; support material
G1 X167.803 Y158.777 E.02315 ; support material
G1 X167.803 Y150.575 E.3638 ; support material
G1 X167.408 Y150.575 E.01752 ; support material
G1 X167.408 Y159.029 E.37498 ; support material
G1 X167.013 Y159.282 E.02081 ; support material
G1 X167.013 Y150.575 E.3862 ; support material
G1 X166.618 Y150.575 E.01752 ; support material
G1 X166.618 Y159.452 E.39374 ; support material
G1 X166.223 Y159.612 E.0189 ; support material
G1 X166.223 Y150.575 E.40083 ; support material
G1 X165.827 Y150.575 E.01756 ; support material
G1 X165.827 Y159.747 E.40682 ; support material
G1 X165.432 Y159.829 E.01789 ; support material
G1 X165.432 Y150.575 E.41046 ; support material
G1 X165.037 Y150.575 E.01752 ; support material
G1 X165.037 Y159.91 E.41405 ; support material
G1 X164.642 Y159.947 E.0176 ; support material
G1 X164.642 Y150.575 E.41569 ; support material
G1 X164.247 Y150.575 E.01752 ; support material
G1 X164.247 Y159.955 E.41605 ; support material
G1 X163.852 Y159.964 E.01752 ; support material
G1 X163.852 Y150.575 E.41645 ; support material
G1 X163.457 Y150.575 E.01752 ; support material
G1 X163.457 Y159.911 E.4141 ; support material
G1 X163.062 Y159.847 E.01775 ; support material
G1 X163.062 Y150.575 E.41126 ; support material
G1 X162.666 Y150.575 E.01756 ; support material
G1 X162.666 Y159.774 E.40802 ; support material
G1 X162.271 Y159.633 E.0186 ; support material
G1 X162.271 Y150.575 E.40177 ; support material
G1 X161.876 Y150.575 E.01752 ; support material
G1 X161.876 Y159.492 E.39551 ; support material
G1 X161.481 Y159.306 E.01937 ; support material
G1 X161.481 Y150.575 E.38726 ; support material
G1 X161.086 Y150.575 E.01752 ; support material
G1 X161.086 Y159.077 E.3771 ; support material
G1 X160.691 Y158.836 E.02052 ; support material
G1 X160.691 Y150.575 E.36642 ; support material
G1 X160.296 Y150.575 E.01752 ; support material
G1 X160.296 Y158.498 E.35142 ; support material
G1 X159.9 Y158.159 E.02312 ; support material
G1 X159.9 Y150.575 E.33639 ; support material
G1 X159.505 Y150.575 E.01752 ; support material
G1 X159.505 Y157.671 E.31474 ; support material
G1 X159.11 Y157.121 E.03003 ; support material
G1 X159.11 Y150.81 E.27992 ; support material
G1 X158.715 Y151.536 E.03666 ; support material
G1 X158.715 Y156.395 E.21552 ; support material
G1 X158.32 Y155.102 E.05997 ; support material
G1 X158.32 Y152.166 E.13023 ; support material
M204 S1000 ; adjust acceleration
;WIPE_START
G1 F8640
G1 X158.32 Y155.102 E-.67793 ; wipe and retract
G1 X158.715 Y156.395 E-.31218 ; wipe and retract
G1 X158.715 Y154.62 E-.40989 ; wipe and retract
;WIPE_END
G1 Z.5 F720 ; move to first perimeter point
G1 X180.358 Y148.919 F10800 ; move to first perimeter point
G1 Z.3 F720 ; move to first perimeter point
G1 E1.4 F2100 ;  ; unretract
M204 S800 ; adjust acceleration
;TYPE:Perimeter
;WIDTH:0.42
G1 F1200
G1 X127.589 Y148.919 E2.34056 ; perimeter
G1 X127.589 Y109.95 E1.72846 ; perimeter
G1 X180.358 Y109.95 E2.34056 ; perimeter
G1 X180.358 Y129.434 E.86421 ; perimeter
G1 X180.358 Y148.859 E.86159 ; perimeter
M204 S1000 ; adjust acceleration
G1 X180.713 Y149.274 F10800 ; move to first perimeter point
M204 S800 ; adjust acceleration
;TYPE:External perimeter
G1 F1200
G1 X127.233 Y149.274 E2.37209 ; perimeter
G1 X127.233 Y109.594 E1.76 ; perimeter
G1 X180.713 Y109.594 E2.37209 ; perimeter
G1 X180.713 Y129.434 E.88 ; perimeter
G1 X180.713 Y149.214 E.87734 ; perimeter
M204 S1000 ; adjust acceleration
;WIPE_START
G1 F8640
G1 X180.713 Y149.274 E-.01385 ; wipe and retract
G1 X174.71 Y149.274 E-1.38615 ; wipe and retract
;WIPE_END
G1 Z.5 F720 ; move to first infill point
G1 X180.251 Y110.779 F10800 ; move to first infill point
G1 Z.3 F720 ; move to first infill point
G1 E1.4 F2100 ;  ; unretract
M204 S800 ; adjust acceleration
;TYPE:Solid infill
;WIDTH:0.421379
G1 F1200
G1 X179.689 Y110.217 E.03539 ; infill
G1 X179.185 Y110.217 E.02244 ; infill
G1 X180.091 Y111.123 E.05705 ; infill
G1 X180.091 Y111.628 E.02249 ; infill
G1 X178.68 Y110.217 E.08885 ; infill
G1 X178.175 Y110.217 E.02249 ; infill
G1 X180.091 Y112.133 E.12065 ; infill
G1 X180.091 Y112.638 E.02249 ; infill
G1 X177.67 Y110.217 E.15245 ; infill
G1 X177.165 Y110.217 E.02249 ; infill
G1 X180.091 Y113.143 E.18425 ; infill
G1 X180.091 Y113.648 E.02249 ; infill
G1 X176.66 Y110.217 E.21605 ; infill
G1 X176.155 Y110.217 E.02249 ; infill
G1 X180.091 Y114.153 E.24785 ; infill
G1 X180.091 Y114.658 E.02249 ; infill
G1 X175.65 Y110.217 E.27965 ; infill
G1 X175.146 Y110.217 E.02244 ; infill
G1 X180.091 Y115.162 E.31139 ; infill
G1 X180.091 Y115.667 E.02249 ; infill
G1 X174.641 Y110.217 E.34319 ; infill
G1 X174.136 Y110.217 E.02249 ; infill
G1 X180.091 Y116.172 E.37499 ; infill
G1 X180.091 Y116.677 E.02249 ; infill
G1 X173.631 Y110.217 E.40679 ; infill
G1 X173.126 Y110.217 E.02249 ; infill
G1 X180.091 Y117.182 E.43859 ; infill
G1 X180.091 Y117.687 E.02249 ; infill
G1 X172.621 Y110.217 E.47039 ; infill
G1 X172.116 Y110.217 E.02249 ; infill
G1 X180.091 Y118.192 E.50219 ; infill
G1 X180.091 Y118.696 E.02244 ; infill
G1 X171.611 Y110.217 E.53396 ; infill
G1 X171.107 Y110.217 E.02244 ; infill
G1 X180.091 Y119.201 E.56573 ; infill
G1 X180.091 Y119.706 E.02249 ; infill
G1 X170.602 Y110.217 E.59753 ; infill
G1 X170.097 Y110.217 E.02249 ; infill
G1 X180.091 Y120.211 E.62933 ; infill
G1 X180.091 Y120.716 E.02249 ; infill
G1 X169.592 Y110.217 E.66113 ; infill
G1 X169.087 Y110.217 E.02249 ; infill
G1 X180.091 Y121.221 E.69293 ; infill
G1 X180.091 Y121.726 E.02249 ; infill
G1 X168.582 Y110.217 E.72473 ; infill
G1 X168.077 Y110.217 E.02249 ; infill
G1 X180.091 Y122.231 E.75653 ; infill
G1 X180.091 Y122.735 E.02244 ; infill
G1 X167.572 Y110.217 E.78829 ; infill
G1 X167.068 Y110.217 E.02244 ; infill
G1 X180.091 Y123.24 E.82006 ; infill
G1 X180.091 Y123.745 E.02249 ; infill
G1 X166.563 Y110.217 E.85186 ; infill
G1 X166.058 Y110.217 E.02249 ; infill
G1 X180.091 Y124.25 E.88366 ; infill
G1 X180.091 Y124.755 E.02249 ; infill
G1 X165.553 Y110.217 E.91546 ; infill
G1 X165.048 Y110.217 E.02249 ; infill
G1 X180.091 Y125.26 E.94726 ; infill
G1 X180.091 Y125.765 E.02249 ; infill
M73 Q0 S164
G1 X164.543 Y110.217 E.97906 ; infill
G1 X164.038 Y110.217 E.02249 ; infill
G1 X180.091 Y126.27 E1.01086 ; infill
G1 X180.091 Y126.774 E.02244 ; infill
G1 X163.533 Y110.217 E1.04263 ; infill
G1 X163.029 Y110.217 E.02244 ; infill
G1 X180.091 Y127.279 E1.0744 ; infill
G1 X180.091 Y127.784 E.02249 ; infill
G1 X162.524 Y110.217 E1.1062 ; infill
G1 X162.019 Y110.217 E.02249 ; infill
M73 P0 R162
G1 X180.091 Y128.289 E1.138 ; infill
G1 X180.091 Y128.794 E.02249 ; infill
G1 X161.514 Y110.217 E1.1698 ; infill
G1 X161.009 Y110.217 E.02249 ; infill
G1 X180.091 Y129.299 E1.2016 ; infill
G1 X180.091 Y129.804 E.02249 ; infill
G1 X160.504 Y110.217 E1.2334 ; infill
G1 X159.999 Y110.217 E.02249 ; infill
G1 X180.091 Y130.309 E1.2652 ; infill
G1 X180.091 Y130.813 E.02244 ; infill
G1 X159.495 Y110.217 E1.29694 ; infill
G1 X158.99 Y110.217 E.02249 ; infill
M73 P1 R162
G1 X180.091 Y131.318 E1.32874 ; infill
G1 X180.091 Y131.823 E.02249 ; infill
M73 Q1 S164
G1 X158.485 Y110.217 E1.36054 ; infill
G1 X157.98 Y110.217 E.02249 ; infill
G1 X180.091 Y132.328 E1.39234 ; infill
G1 X180.091 Y132.833 E.02249 ; infill
G1 X157.475 Y110.217 E1.42414 ; infill
G1 X156.97 Y110.217 E.02249 ; infill
G1 X180.091 Y133.338 E1.45594 ; infill
G1 X180.091 Y133.843 E.02249 ; infill
G1 X156.465 Y110.217 E1.48774 ; infill
G1 X155.96 Y110.217 E.02249 ; infill
G1 X180.091 Y134.348 E1.51954 ; infill
G1 X180.091 Y134.852 E.02244 ; infill
G1 X155.456 Y110.217 E1.55127 ; infill
G1 X154.951 Y110.217 E.02249 ; infill
G1 X180.091 Y135.357 E1.58307 ; infill
G1 X180.091 Y135.862 E.02249 ; infill
G1 X154.446 Y110.217 E1.61487 ; infill
G1 X153.941 Y110.217 E.02249 ; infill
G1 X180.091 Y136.367 E1.64667 ; infill
G1 X180.091 Y136.872 E.02249 ; infill
G1 X153.436 Y110.217 E1.67847 ; infill
G1 X152.931 Y110.217 E.02249 ; infill
G1 X180.091 Y137.377 E1.71027 ; infill
G1 X180.091 Y137.882 E.02249 ; infill
G1 X152.426 Y110.217 E1.74207 ; infill
G1 X151.921 Y110.217 E.02249 ; infill
G1 X180.091 Y138.386 E1.77384 ; infill
G1 X180.091 Y138.891 E.02249 ; infill
G1 X151.417 Y110.217 E1.80561 ; infill
G1 X150.912 Y110.217 E.02249 ; infill
G1 X180.091 Y139.396 E1.83741 ; infill
G1 X180.091 Y139.901 E.02249 ; infill
G1 X150.407 Y110.217 E1.86921 ; infill
G1 X149.902 Y110.217 E.02249 ; infill
G1 X180.091 Y140.406 E1.90101 ; infill
G1 X180.091 Y140.911 E.02249 ; infill
G1 X149.397 Y110.217 E1.93281 ; infill
G1 X148.892 Y110.217 E.02249 ; infill
G1 X180.091 Y141.416 E1.96461 ; infill
G1 X180.091 Y141.921 E.02249 ; infill
G1 X148.387 Y110.217 E1.99641 ; infill
G1 X147.882 Y110.217 E.02249 ; infill
G1 X180.091 Y142.425 E2.02818 ; infill
G1 X180.091 Y142.93 E.02249 ; infill
G1 X147.378 Y110.217 E2.05995 ; infill
G1 X146.873 Y110.217 E.02249 ; infill
M73 Q1 S163
G1 X180.091 Y143.435 E2.09175 ; infill
G1 X180.091 Y143.94 E.02249 ; infill
G1 X146.368 Y110.217 E2.12355 ; infill
G1 X145.863 Y110.217 E.02249 ; infill
G1 X180.091 Y144.445 E2.15535 ; infill
G1 X180.091 Y144.95 E.02249 ; infill
M73 P1 R161
G1 X145.358 Y110.217 E2.18715 ; infill
G1 X144.853 Y110.217 E.02249 ; infill
G1 X180.091 Y145.455 E2.21895 ; infill
G1 X180.091 Y145.96 E.02249 ; infill
G1 X144.348 Y110.217 E2.25075 ; infill
G1 X143.844 Y110.217 E.02244 ; infill
G1 X180.091 Y146.464 E2.28249 ; infill
G1 X180.091 Y146.969 E.02249 ; infill
G1 X143.339 Y110.217 E2.31429 ; infill
