; generated by PrusaSlicer 2.5.0 on 2022-11-19 at 14:55:53 UTC

; 

; external perimeters extrusion width = 0.60mm
; perimeters extrusion width = 0.50mm
; infill extrusion width = 0.50mm
; solid infill extrusion width = 0.50mm
; top infill extrusion width = 0.45mm
; support material extrusion width = 0.38mm
; first layer extrusion width = 0.42mm

M73 P0 R10
M73 Q0 S10
M201 X1000 Y1000 Z200 E5000 ; sets maximum accelerations, mm/sec^2
M203 X200 Y200 Z12 E120 ; sets maximum feedrates, mm / sec
M204 P1250 R1250 T1250 ; sets acceleration (P, T) and retract acceleration (R), mm/sec^2
M205 X8.00 Y8.00 Z0.40 E4.50 ; sets the jerk limits, mm/sec
M205 S0 T0 ; sets the minimum extruding and travel feed rate, mm/sec
M107
;TYPE:Custom
M862.3 P "MK3S" ; printer model check
M862.1 P0.4 ; nozzle diameter check
M115 U3.10.1 ; tell printer latest fw version
G90 ; use absolute coordinates
M83 ; extruder relative mode
M104 S240 ; set extruder temp
M140 S95 ; set bed temp
M190 S95 ; wait for bed temp
M109 S240 ; wait for extruder temp
G28 W ; home all without mesh bed level
G80 ; mesh bed leveling
G1 Z0.2 F720
G1 Y-3 F1000 ; go outside print area
G92 E0
G1 X60 E9 F1000 ; intro line
G1 X100 E12.5 F1000 ; intro line
G92 E0
M221 S95

; Don't change E values below. Excessive value can damage the printer.

M907 E538 ; set extruder motor current
G21 ; set units to millimeters
G90 ; use absolute coordinates
M83 ; use relative distances for extrusion
M900 K0.08 ; Filament gcode LA 1.5
M900 K45 ; Filament gcode LA 1.0
M107
;LAYER_CHANGE
;Z:0.3
;HEIGHT:0.3
;BEFORE_LAYER_CHANGE
G92 E0.0
;0.3


G1 E-1.4 F2100
G1 Z.2 F720
G1 Z.3
;AFTER_LAYER_CHANGE
;0.3
G1 Z.5
M73 P1 R10
G1 X103.036 Y87.55 F10800
M73 Q1 S10
G1 Z.3 F720
G1 E1.4 F2100
M204 S800
;TYPE:Skirt/Brim
;WIDTH:0.42
G1 F1200
G1 X104.08 Y86.681 E.06024
G1 X105 Y86.494 E.04163
G1 X145 Y86.494 E1.77419
G1 X146.3 Y86.886 E.06024
G1 X147.169 Y87.93 E.06024
G1 X147.356 Y88.85 E.04163
G1 X147.351 Y118.355 E1.30869
G1 X147.18 Y119.507 E.05167
G1 X146.775 Y120.574 E.05062
G1 X146.176 Y121.502 E.049
G1 X145.352 Y122.326 E.05166
G1 X144.582 Y122.841 E.0411
G1 X143.869 Y123.168 E.03481
G1 X143.101 Y123.391 E.03544
G1 X142.205 Y123.501 E.04006
G1 X107.942 Y123.505 E1.51972
G1 X106.763 Y123.36 E.0527
M73 P2 R10
M73 Q2 S10
G1 X105.658 Y122.966 E.05202
G1 X104.648 Y122.326 E.05306
G1 X103.824 Y121.502 E.05166
G1 X103.377 Y120.853 E.03495
G1 X102.982 Y120.019 E.04097
G1 X102.759 Y119.251 E.03544
G1 X102.649 Y118.355 E.04006
G1 X102.644 Y88.85 E1.30869
G1 X103.019 Y87.607 E.05758
M204 S1000
; printing object 6B_hipback-Body.stl id:0 copy 0
;WIPE_START
G1 F8640
G1 X104.08 Y86.681 E-.32524
G1 X105 Y86.494 E-.21671
G1 X108.413 Y86.494 E-.78805
;WIPE_END
G1 E-.07 F2100
G1 Z.5 F720
G1 X105.766 Y89.616 F10800
G1 Z.3 F720
G1 E1.4 F2100
M204 S800
;TYPE:Perimeter
;WIDTH:0.42
G1 F1200
G1 X144.234 Y89.616 E1.70627
G1 X144.234 Y93.879 E.18909
;WIDTH:0.425695
G1 X144.232 Y94.452 E.02583
G1 X144.106 Y94.02 E.02028
;WIDTH:0.42
G1 X143.9 Y93.619 E.02
G1 X143.618 Y93.267 E.02
G1 X143.272 Y92.978 E.02
G1 X142.876 Y92.763 E.02
G1 X142.445 Y92.63 E.01999
G1 X141.997 Y92.586 E.02
G1 X141.549 Y92.632 E.01998
G1 X141.209 Y92.728 E.01563
G1 X140.817 Y92.92 E.0194
G1 X140.458 Y93.193 E.02
G1 X140.16 Y93.531 E.01999
G1 X139.935 Y93.922 E.02
G1 X139.792 Y94.349 E.01999
G1 X139.737 Y94.797 E.02
G1 X139.771 Y95.246 E.02
G1 X139.894 Y95.68 E.02
G1 X140.1 Y96.081 E.02
G1 X140.382 Y96.433 E.02
G1 X140.728 Y96.722 E.02
G1 X141.124 Y96.937 E.02
G1 X141.555 Y97.07 E.02
G1 X142.003 Y97.114 E.01999
G1 X142.452 Y97.068 E.02
G1 X142.882 Y96.935 E.01999
G1 X143.278 Y96.719 E.02
G1 X143.623 Y96.428 E.01999
G1 X143.903 Y96.075 E.01999
G1 X144.109 Y95.674 E.02
G1 X144.236 Y95.2 E.02176
G1 X144.234 Y117.179 E.97485
;WIDTH:0.425699
G1 X144.232 Y117.752 E.02583
M73 P3 R10
M73 Q3 S10
G1 X144.106 Y117.32 E.02028
;WIDTH:0.42
G1 X143.9 Y116.919 E.01999
G1 X143.618 Y116.567 E.02
G1 X143.272 Y116.278 E.02
G1 X142.876 Y116.063 E.02
G1 X142.445 Y115.93 E.02
G1 X141.997 Y115.886 E.01999
G1 X141.548 Y115.932 E.02
G1 X141.118 Y116.065 E.01998
G1 X140.805 Y116.227 E.01563
G1 X140.458 Y116.493 E.0194
G1 X140.16 Y116.831 E.01999
G1 X139.935 Y117.222 E.02
G1 X139.792 Y117.649 E.01999
G1 X139.737 Y118.097 E.02
G1 X139.771 Y118.546 E.02
G1 X139.894 Y118.98 E.01999
G1 X140.1 Y119.381 E.02
G1 X140.382 Y119.733 E.02
G1 X140.728 Y120.022 E.02
G1 X141.124 Y120.237 E.02
G1 X141.555 Y120.367 E.01999
G1 X141.208 Y120.381 E.01541
G1 X109.257 Y120.384 E1.4172
;WIDTH:0.436594
G1 X108.548 Y120.376 E.03292
G1 X108.791 Y120.274 E.01225
;WIDTH:0.42342
G1 X109.183 Y120.08 E.01959
;WIDTH:0.42
G1 X109.542 Y119.807 E.02
G1 X109.84 Y119.469 E.01999
G1 X110.065 Y119.078 E.02
G1 X110.208 Y118.651 E.01999
G1 X110.263 Y118.203 E.02
G1 X110.229 Y117.754 E.02
G1 X110.106 Y117.32 E.01999
G1 X109.9 Y116.919 E.02
G1 X109.618 Y116.567 E.02
G1 X109.272 Y116.278 E.02
G1 X108.876 Y116.063 E.02
G1 X108.445 Y115.93 E.02
G1 X107.997 Y115.886 E.01999
G1 X107.548 Y115.932 E.02
G1 X107.118 Y116.065 E.01999
G1 X106.722 Y116.281 E.02
G1 X106.377 Y116.572 E.01999
G1 X106.097 Y116.925 E.01999
G1 X105.891 Y117.326 E.02
;WIDTH:0.421111
G1 X105.77 Y117.76 E.02004
G1 X105.769 Y117.298 E.02054
;WIDTH:0.42
G1 X105.766 Y96.166 E.93731
;WIDTH:0.428522
G1 X105.771 Y95.354 E.03686
G1 X105.894 Y95.68 E.01582
;WIDTH:0.42
G1 X106.1 Y96.081 E.01999
G1 X106.382 Y96.433 E.02
G1 X106.728 Y96.722 E.02
G1 X107.124 Y96.937 E.02
G1 X107.555 Y97.07 E.02
G1 X108.003 Y97.114 E.01999
G1 X108.452 Y97.068 E.01998
G1 X108.802 Y96.967 E.01619
G1 X109.184 Y96.779 E.01889
G1 X109.542 Y96.507 E.01994
G1 X109.84 Y96.169 E.01999
G1 X110.065 Y95.778 E.02
G1 X110.208 Y95.351 E.01999
G1 X110.263 Y94.903 E.02
G1 X110.229 Y94.454 E.02
G1 X110.106 Y94.02 E.01999
G1 X109.9 Y93.619 E.02
G1 X109.618 Y93.267 E.02
G1 X109.272 Y92.978 E.02
G1 X108.876 Y92.763 E.02
G1 X108.445 Y92.63 E.01999
G1 X107.997 Y92.586 E.02
G1 X107.548 Y92.632 E.02
G1 X107.118 Y92.765 E.01999
G1 X106.722 Y92.981 E.02
G1 X106.377 Y93.272 E.02
G1 X106.097 Y93.625 E.01999
G1 X105.891 Y94.026 E.02
;WIDTH:0.423895
G1 X105.768 Y94.459 E.0202
G1 X105.766 Y93.997 E.02071
;WIDTH:0.42
G1 X105.766 Y89.676 E.19169
M204 S1000
G1 X105.41 Y89.26 F10800
M204 S800
;TYPE:External perimeter
G1 F1200
G1 X144.59 Y89.26 E1.73782
G1 X144.59 Y118.136 E1.28077
M73 P4 R10
M73 Q4 S10
G1 X144.515 Y118.743 E.02717
G1 X144.405 Y119.078 E.01561
G1 X144.174 Y119.535 E.02272
G1 X143.896 Y119.895 E.0202
G1 X143.514 Y120.235 E.02264
G1 X143.074 Y120.492 E.02264
G1 X142.63 Y120.648 E.02086
G1 X142.127 Y120.737 E.02264
G1 X108.452 Y120.74 E1.49363
G1 X107.624 Y120.712 E.03675
G1 X107.009 Y120.542 E.0283
G1 X106.456 Y120.228 E.02822
G1 X106.084 Y119.89 E.02228
G1 X105.717 Y119.371 E.02821
G1 X105.488 Y118.777 E.02822
G1 X105.413 Y118.273 E.02261
G1 X105.41 Y89.32 E1.28419
M204 S1000
G1 X105.757 Y89.46 F10800
;WIPE_START
M73 P4 R9
G1 F8640
G1 X111.17 Y89.311 E-1.33
;WIPE_END
G1 E-.07 F2100
G1 Z.5 F720
G1 X107.592 Y92.985 F10800
M73 Q5 S10
G1 Z.3 F720
G1 E1.4 F2100
M204 S800
M73 P5 R9
G1 F1200
G1 X107.97 Y92.941 E.01687
G1 X108.349 Y92.973 E.01687
G1 X108.714 Y93.079 E.01686
G1 X109.051 Y93.256 E.01686
G1 X109.346 Y93.496 E.01687
G1 X109.588 Y93.789 E.01687
G1 X109.766 Y94.125 E.01687
G1 X109.875 Y94.489 E.01686
G1 X109.909 Y94.868 E.01687
G1 X109.868 Y95.246 E.01687
G1 X109.753 Y95.608 E.01686
G1 X109.568 Y95.94 E.01687
G1 X109.32 Y96.229 E.01686
G1 X109.021 Y96.463 E.01685
G1 X108.696 Y96.628 E.01617
G1 X108.407 Y96.715 E.01339
G1 X108.03 Y96.759 E.01685
G1 X107.651 Y96.727 E.01686
G1 X107.286 Y96.621 E.01687
G1 X106.949 Y96.444 E.01687
G1 X106.654 Y96.204 E.01687
G1 X106.412 Y95.911 E.01687
G1 X106.234 Y95.575 E.01686
G1 X106.125 Y95.211 E.01684
G1 X106.091 Y94.879 E.01481
G1 X106.115 Y94.548 E.01475
G1 X106.212 Y94.18 E.01685
G1 X106.38 Y93.839 E.01687
G1 X106.612 Y93.538 E.01686
G1 X106.9 Y93.289 E.01686
G1 X107.231 Y93.102 E.01687
G1 X107.535 Y93.003 E.0142
M204 S1000
G1 X107.708 Y92.622 F10800
;WIPE_START
G1 F8640
G1 X107.97 Y92.941 E-.10141
G1 X108.349 Y92.973 E-.0878
G1 X108.714 Y93.079 E-.08779
G1 X109.051 Y93.256 E-.0878
G1 X109.346 Y93.496 E-.0878
G1 X109.588 Y93.789 E-.0878
G1 X109.766 Y94.125 E-.0878
G1 X109.875 Y94.489 E-.08779
G1 X109.909 Y94.868 E-.0878
G1 X109.868 Y95.246 E-.0878
G1 X109.753 Y95.608 E-.08779
G1 X109.568 Y95.94 E-.08781
G1 X109.32 Y96.229 E-.08779
G1 X109.021 Y96.463 E-.08769
G1 X108.696 Y96.628 E-.08417
G1 X108.683 Y96.632 E-.00315
;WIPE_END
G1 E-.07 F2100
G1 Z.5 F720
G1 X105.771 Y95.286 F10800
G1 Z.3 F720
G1 E1.4 F2100
M204 S800
;TYPE:Perimeter
;WIDTH:0.430283
G1 F1200
G1 X105.761 Y94.554 E.03342
;WIDTH:0.423895
G1 X105.768 Y94.459 E.00426
M204 S1000
;WIPE_START
G1 F8640
G1 X105.761 Y94.554 E-.02195
G1 X105.771 Y95.286 E-.16911
;WIPE_END
G1 E-1.20893 F2100
G1 Z.5 F720
G1 X109.346 Y116.796 F10800
G1 Z.3 F720
G1 E1.4 F2100
M204 S800
;TYPE:External perimeter
;WIDTH:0.42
G1 F1200
G1 X109.588 Y117.089 E.01687
G1 X109.766 Y117.425 E.01687
G1 X109.875 Y117.789 E.01686
G1 X109.909 Y118.168 E.01687
G1 X109.868 Y118.546 E.01687
G1 X109.753 Y118.908 E.01686
M73 Q5 S9
G1 X109.568 Y119.24 E.01687
G1 X109.321 Y119.529 E.01686
G1 X109.021 Y119.764 E.01687
G1 X108.686 Y119.932 E.01665
G1 X108.407 Y120.015 E.01289
G1 X108.03 Y120.059 E.01685
G1 X107.651 Y120.027 E.01687
G1 X107.286 Y119.921 E.01686
G1 X106.871 Y119.682 E.02126
G1 X106.603 Y119.443 E.0159
G1 X106.322 Y119.044 E.02164
G1 X106.132 Y118.546 E.02366
G1 X106.091 Y118.179 E.01636
G1 X106.115 Y117.848 E.01475
G1 X106.212 Y117.48 E.01685
G1 X106.38 Y117.139 E.01687
G1 X106.612 Y116.838 E.01686
G1 X106.9 Y116.589 E.01686
G1 X107.231 Y116.402 E.01687
G1 X107.592 Y116.285 E.01686
G1 X107.97 Y116.241 E.01687
G1 X108.349 Y116.273 E.01686
G1 X108.714 Y116.379 E.01687
G1 X109.051 Y116.556 E.01687
G1 X109.299 Y116.758 E.0142
M204 S1000
G1 X109.713 Y116.696 F10800
;WIPE_START
G1 F8640
G1 X109.588 Y117.089 E-.10141
G1 X109.766 Y117.425 E-.0878
G1 X109.875 Y117.789 E-.08779
G1 X109.909 Y118.168 E-.0878
G1 X109.868 Y118.546 E-.0878
G1 X109.753 Y118.908 E-.08779
G1 X109.568 Y119.24 E-.0878
G1 X109.321 Y119.529 E-.08779
G1 X109.021 Y119.764 E-.0878
G1 X108.686 Y119.932 E-.08669
G1 X108.407 Y120.015 E-.06711
G1 X108.03 Y120.059 E-.0877
G1 X107.651 Y120.027 E-.0878
G1 X107.286 Y119.921 E-.08779
G1 X106.877 Y119.685 E-.10911
;WIPE_END
G1 E-.07 F2100
G1 Z.5 F720
G1 X108.479 Y120.374 F10800
G1 Z.3 F720
G1 E1.4 F2100
M204 S800
;TYPE:Perimeter
;WIDTH:0.440061
G1 F1200
G1 X108.242 Y120.386 E.01113
;WIDTH:0.414626
G1 X108.004 Y120.398 E.01038
;WIDTH:0.389191
G1 X107.561 Y120.348 E.01809
;WIDTH:0.385365
G1 X107.132 Y120.222 E.01791
;WIDTH:0.392745
G1 X106.657 Y119.949 E.02241
G1 X106.341 Y119.663 E.01747
;WIDTH:0.393023
G1 X106.021 Y119.208 E.02279
G1 X105.82 Y118.689 E.0228
;WIDTH:0.390315
G1 X105.752 Y118.161 E.02166
;WIDTH:0.421111
G1 X105.77 Y117.76 E.01788
M204 S1000
;WIPE_START
G1 F8640
G1 X105.752 Y118.161 E-.09278
G1 X105.82 Y118.689 E-.123
G1 X106.021 Y119.208 E-.12845
G1 X106.341 Y119.663 E-.12836
G1 X106.657 Y119.949 E-.09849
G1 X107.132 Y120.222 E-.12636
G1 X107.561 Y120.348 E-.10327
G1 X108.004 Y120.398 E-.10312
G1 X108.242 Y120.386 E-.05486
G1 X108.479 Y120.374 E-.05486
;WIPE_END
G1 E-.38643 F2100
G1 Z.5 F720
G1 X140.247 Y117.392 F10800
G1 Z.3 F720
G1 E1.4 F2100
M204 S800
;TYPE:External perimeter
;WIDTH:0.42
G1 F1200
G1 X140.432 Y117.06 E.01687
G1 X140.68 Y116.771 E.01686
G1 X140.975 Y116.539 E.01665
G1 X141.231 Y116.402 E.01289
G1 X141.592 Y116.285 E.01685
G1 X141.97 Y116.241 E.01687
G1 X142.349 Y116.273 E.01686
G1 X142.714 Y116.379 E.01687
G1 X143.051 Y116.556 E.01687
G1 X143.346 Y116.796 E.01687
G1 X143.588 Y117.089 E.01686
G1 X143.766 Y117.425 E.01686
G1 X143.875 Y117.789 E.01684
G1 X143.909 Y118.151 E.01617
G1 X143.843 Y118.617 E.02086
G1 X143.638 Y119.13 E.02452
G1 X143.388 Y119.462 E.01843
G1 X142.983 Y119.778 E.02281
G1 X142.647 Y119.939 E.01649
G1 X142.274 Y120.032 E.01706
G1 X142.03 Y120.059 E.0109
G1 X141.651 Y120.027 E.01687
G1 X141.286 Y119.921 E.01686
G1 X140.949 Y119.744 E.01686
G1 X140.654 Y119.504 E.01687
G1 X140.412 Y119.211 E.01687
G1 X140.234 Y118.875 E.01687
G1 X140.125 Y118.511 E.01686
G1 X140.091 Y118.168 E.0153
G1 X140.132 Y117.754 E.01843
G1 X140.229 Y117.449 E.0142
M204 S1000
G1 X140.02 Y117.088 F10800
;WIPE_START
G1 F8640
G1 X140.432 Y117.06 E-.10142
G1 X140.68 Y116.771 E-.08779
G1 X140.975 Y116.539 E-.0867
G1 X141.231 Y116.402 E-.0671
G1 X141.592 Y116.285 E-.0877
G1 X141.97 Y116.241 E-.0878
G1 X142.349 Y116.273 E-.08779
G1 X142.714 Y116.379 E-.0878
G1 X143.051 Y116.556 E-.0878
G1 X143.346 Y116.796 E-.0878
G1 X143.588 Y117.089 E-.0878
G1 X143.766 Y117.425 E-.0878
G1 X143.875 Y117.789 E-.08769
G1 X143.909 Y118.151 E-.08419
G1 X143.843 Y118.617 E-.10859
G1 X143.837 Y118.634 E-.00424
;WIPE_END
G1 E-.07 F2100
G1 Z.5 F720
G1 X144.232 Y117.752 F10800
G1 Z.3 F720
G1 E1.4 F2100
M204 S800
;TYPE:Perimeter
;WIDTH:0.425699
G1 F1200
G1 X144.246 Y118.175 E.01909
;WIDTH:0.393891
G1 X144.175 Y118.702 E.02182
;WIDTH:0.394473
G1 X144.029 Y119.11 E.01785
G1 X143.803 Y119.487 E.01812
G1 X143.507 Y119.813 E.01811
;WIDTH:0.394331
G1 X143.154 Y120.075 E.01811
;WIDTH:0.394227
G1 X142.756 Y120.263 E.0181
;WIDTH:0.395505
G1 X142.317 Y120.373 E.0187
;WIDTH:0.412957
G1 X141.66 Y120.385 E.02858
M204 S1000
;WIPE_START
G1 F8640
G1 X142.317 Y120.373 E-.15178
G1 X142.756 Y120.263 E-.10456
G1 X143.154 Y120.075 E-.1016
G1 X143.507 Y119.813 E-.10161
G1 X143.803 Y119.487 E-.1016
G1 X144.029 Y119.11 E-.1016
G1 X144.175 Y118.702 E-.10009
G1 X144.246 Y118.175 E-.1226
G1 X144.232 Y117.752 E-.09781
;WIPE_END
G1 E-.41676 F2100
G1 Z.5 F720
G1 X142.349 Y92.973 F10800
G1 Z.3 F720
G1 E1.4 F2100
M204 S800
;TYPE:External perimeter
;WIDTH:0.42
G1 F1200
G1 X142.714 Y93.079 E.01686
G1 X143.051 Y93.256 E.01686
G1 X143.346 Y93.496 E.01687
G1 X143.588 Y93.789 E.01687
G1 X143.766 Y94.125 E.01687
G1 X143.875 Y94.489 E.01684
G1 X143.909 Y94.852 E.01617
G1 X143.885 Y95.152 E.01339
G1 X143.788 Y95.52 E.01685
G1 X143.62 Y95.861 E.01687
G1 X143.388 Y96.162 E.01686
G1 X143.1 Y96.411 E.01686
G1 X142.769 Y96.598 E.01687
G1 X142.408 Y96.715 E.01686
G1 X142.03 Y96.759 E.01687
G1 X141.651 Y96.727 E.01686
G1 X141.286 Y96.621 E.01687
G1 X140.949 Y96.444 E.01687
G1 X140.654 Y96.204 E.01687
M73 Q6 S9
G1 X140.412 Y95.911 E.01687
G1 X140.234 Y95.575 E.01686
G1 X140.125 Y95.211 E.01686
G1 X140.091 Y94.868 E.0153
G1 X140.132 Y94.454 E.01843
G1 X140.247 Y94.092 E.01686
G1 X140.432 Y93.76 E.01687
G1 X140.679 Y93.471 E.01686
G1 X140.979 Y93.236 E.01687
G1 X141.314 Y93.068 E.01665
G1 X141.593 Y92.985 E.01289
G1 X141.97 Y92.941 E.01685
G1 X142.289 Y92.968 E.0142
M204 S1000
G1 X142.596 Y92.684 F10800
;WIPE_START
G1 F8640
G1 X142.714 Y93.079 E-.10141
G1 X143.051 Y93.256 E-.0878
G1 X143.346 Y93.496 E-.0878
G1 X143.588 Y93.789 E-.0878
G1 X143.766 Y94.125 E-.0878
G1 X143.875 Y94.489 E-.08769
G1 X143.909 Y94.852 E-.08418
G1 X143.885 Y95.152 E-.0697
G1 X143.788 Y95.52 E-.08772
G1 X143.62 Y95.861 E-.0878
G1 X143.388 Y96.162 E-.08779
G1 X143.1 Y96.411 E-.08779
G1 X142.769 Y96.598 E-.0878
G1 X142.408 Y96.715 E-.08779
G1 X142.03 Y96.759 E-.0878
G1 X141.938 Y96.751 E-.02132
;WIPE_END
G1 E-.07 F2100
M73 P6 R9
G1 Z.5 F720
G1 X144.232 Y94.452 F10800
G1 Z.3 F720
G1 E1.4 F2100
M204 S800
;TYPE:Perimeter
;WIDTH:0.425695
G1 F1200
G1 X144.24 Y95.146 E.03127
;WIDTH:0.415963
G1 X144.236 Y95.2 E.00239
M204 S1000
;WIPE_START
G1 F8640
G1 X144.24 Y95.146 E-.0126
G1 X144.232 Y94.452 E-.16023
;WIPE_END
G1 E-1.22718 F2100
G1 Z.5 F720
G1 X144.128 Y90.444 F10800
G1 Z.3 F720
G1 E1.4 F2100
M204 S800
;TYPE:Solid infill
;WIDTH:0.421425
G1 F1200
G1 X143.566 Y89.882 E.03538
G1 X143.061 Y89.882 E.02249
G1 X143.968 Y90.789 E.0571
G1 X143.968 Y91.294 E.02248
G1 X142.556 Y89.882 E.0889
G1 X142.051 Y89.882 E.02249
G1 X143.968 Y91.799 E.1207
G1 X143.967 Y92.304 E.02248
G1 X141.546 Y89.882 E.1525
G1 X141.041 Y89.882 E.02249
G1 X143.967 Y92.809 E.18429
G1 X143.967 Y93.24 E.01921
G1 X143.944 Y93.248 E.00113
G1 X143.712 Y92.987 E.01554
G1 X143.401 Y92.747 E.01752
G1 X140.536 Y89.882 E.18039
G1 X140.031 Y89.882 E.02249
