; generated by PrusaSlicer 2.5.0 on 2022-09-24 at 15:52:34 UTC

; 

; external perimeters extrusion width = 0.60mm
; perimeters extrusion width = 0.50mm
; infill extrusion width = 0.50mm
; solid infill extrusion width = 0.50mm
; top infill extrusion width = 0.45mm
; support material extrusion width = 0.38mm
; first layer extrusion width = 0.42mm

M73 P0 R21
M73 Q0 S21
M201 X1000 Y1000 Z200 E5000 ; sets maximum accelerations, mm/sec^2
M203 X200 Y200 Z12 E120 ; sets maximum feedrates, mm / sec
M204 P1250 R1250 T1250 ; sets acceleration (P, T) and retract acceleration (R), mm/sec^2
M205 X8.00 Y8.00 Z0.40 E4.50 ; sets the jerk limits, mm/sec
M205 S0 T0 ; sets the minimum extruding and travel feed rate, mm/sec
M107
;TYPE:Custom
M862.3 P "MK3S" ; printer model check
M862.1 P0.4 ; nozzle diameter check
M115 U3.10.1 ; tell printer latest fw version
G90 ; use absolute coordinates
M83 ; extruder relative mode
M104 S240 ; set extruder temp
M140 S95 ; set bed temp
M190 S95 ; wait for bed temp
M109 S240 ; wait for extruder temp
G28 W ; home all without mesh bed level
G80 ; mesh bed leveling
G1 Z0.2 F720
G1 Y-3 F1000 ; go outside print area
G92 E0
G1 X60 E9 F1000 ; intro line
G1 X100 E12.5 F1000 ; intro line
G92 E0
M221 S95

; Don't change E values below. Excessive value can damage the printer.

M907 E538 ; set extruder motor current
G21 ; set units to millimeters
G90 ; use absolute coordinates
M83 ; use relative distances for extrusion
M900 K0.08 ; Filament gcode LA 1.5
M900 K45 ; Filament gcode LA 1.0
M107
;LAYER_CHANGE
;Z:0.3
;HEIGHT:0.3
;BEFORE_LAYER_CHANGE
G92 E0.0
;0.3


G1 E-1.4 F2100
G1 Z.2 F720
G1 Z.3
;AFTER_LAYER_CHANGE
;0.3
G1 Z.5
G1 X81.036 Y91.2 F10800
G1 Z.3 F720
G1 E1.4 F2100
M204 S800
;TYPE:Skirt/Brim
;WIDTH:0.42
G1 F1200
G1 X82.08 Y90.331 E.06024
G1 X83 Y90.144 E.04163
G1 X167 Y90.144 E3.7258
G1 X168.3 Y90.536 E.06024
G1 X169.169 Y91.58 E.06024
G1 X169.356 Y92.5 E.04163
G1 X169.356 Y117.5 E1.10887
G1 X168.964 Y118.8 E.06024
M73 P1 R21
M73 Q1 S21
G1 X167.92 Y119.669 E.06024
G1 X167 Y119.856 E.04163
G1 X83 Y119.856 E3.7258
G1 X81.7 Y119.464 E.06024
M73 P1 R20
G1 X80.831 Y118.42 E.06024
G1 X80.644 Y117.5 E.04163
G1 X80.644 Y92.5 E1.10887
G1 X81.019 Y91.257 E.05758
M204 S1000
; printing object 6F_hipfront-Body.stl id:0 copy 0
;WIPE_START
M73 Q1 S20
G1 F8640
G1 X82.08 Y90.331 E-.32524
G1 X83 Y90.144 E-.21671
G1 X86.413 Y90.144 E-.78805
;WIPE_END
G1 E-.07 F2100
G1 Z.5 F720
G1 X83.766 Y93.266 F10800
G1 Z.3 F720
G1 E1.4 F2100
M204 S800
;TYPE:Perimeter
;WIDTH:0.42
G1 F1200
G1 X114.234 Y93.266 E1.35143
G1 X114.234 Y102.732 E.41989
G1 X114.308 Y103.003 E.01245
G1 X114.498 Y103.192 E.01189
G1 X114.768 Y103.266 E.0124
G1 X134.614 Y103.266 E.88027
G1 X135.256 Y103.265 E.0285
G1 X135.517 Y103.183 E.01211
G1 X135.706 Y102.977 E.01244
G1 X135.766 Y102.732 E.01116
G1 X135.766 Y93.266 E.41989
G1 X166.234 Y93.266 E1.35143
G1 X166.234 Y116.734 E1.04095
G1 X83.766 Y116.734 E3.65788
M73 P2 R20
M73 Q2 S20
G1 X83.766 Y93.326 E1.03829
M204 S1000
G1 X83.41 Y92.91 F10800
M204 S800
;TYPE:External perimeter
G1 F1200
G1 X114.59 Y92.91 E1.38298
G1 X114.59 Y102.667 E.43276
G1 X114.628 Y102.842 E.00794
G1 X114.768 Y102.91 E.0069
G1 X135.232 Y102.91 E.90769
G1 X135.352 Y102.864 E.00569
G1 X135.41 Y102.732 E.00638
G1 X135.41 Y92.91 E.43566
G1 X166.59 Y92.91 E1.38298
G1 X166.59 Y117.09 E1.0725
G1 X83.41 Y117.09 E3.68943
G1 X83.41 Y92.97 E1.06984
M204 S1000
M73 P3 R20
M73 Q3 S20
G1 X83.808 Y92.948 F10800
;WIPE_START
G1 F8640
G1 X89.17 Y92.959 E-1.33
;WIPE_END
G1 E-.07 F2100
G1 Z.5 F720
G1 X106.07 Y97.576 F10800
G1 Z.3 F720
G1 E1.4 F2100
M204 S800
;TYPE:Perimeter
G1 F1200
G1 X106.377 Y97.172 E.02252
G1 X106.722 Y96.881 E.01999
G1 X107.118 Y96.665 E.02
G1 X107.548 Y96.532 E.02
G1 X107.997 Y96.486 E.02
G1 X108.445 Y96.53 E.02
G1 X108.876 Y96.663 E.02
G1 X109.272 Y96.878 E.02
G1 X109.618 Y97.167 E.02
G1 X109.9 Y97.519 E.02
G1 X110.106 Y97.92 E.02
G1 X110.229 Y98.354 E.01999
G1 X110.263 Y98.803 E.02
G1 X110.208 Y99.251 E.02
G1 X110.065 Y99.678 E.02
G1 X109.84 Y100.069 E.02
G1 X109.491 Y100.448 E.02285
G1 X109.183 Y100.68 E.0171
G1 X108.675 Y100.908 E.02471
G1 X108.141 Y101.007 E.02409
G1 X107.623 Y100.984 E.023
G1 X107.124 Y100.837 E.02308
G1 X106.728 Y100.622 E.02
G1 X106.382 Y100.333 E.02
G1 X106.1 Y99.981 E.02
G1 X105.894 Y99.58 E.01999
G1 X105.771 Y99.148 E.01994
G1 X105.736 Y98.723 E.01889
G1 X105.77 Y98.36 E.01619
G1 X105.891 Y97.926 E.01998
G1 X106.043 Y97.63 E.01476
M204 S1000
G1 X106.38 Y97.739 F10800
M204 S800
;TYPE:External perimeter
G1 F1200
G1 X106.612 Y97.438 E.01687
G1 X106.9 Y97.189 E.01686
G1 X107.231 Y97.002 E.01687
G1 X107.592 Y96.885 E.01686
G1 X107.97 Y96.841 E.01687
G1 X108.349 Y96.873 E.01687
G1 X108.714 Y96.979 E.01687
G1 X109.051 Y97.156 E.01686
G1 X109.346 Y97.396 E.01687
G1 X109.588 Y97.689 E.01686
G1 X109.766 Y98.025 E.01687
G1 X109.875 Y98.389 E.01686
G1 X109.909 Y98.768 E.01687
G1 X109.868 Y99.146 E.01687
G1 X109.753 Y99.508 E.01686
G1 X109.568 Y99.84 E.01687
G1 X109.269 Y100.17 E.01972
G1 X109.021 Y100.364 E.01397
G1 X108.57 Y100.568 E.02196
G1 X108.065 Y100.658 E.02274
G1 X107.651 Y100.627 E.01843
G1 X107.286 Y100.521 E.01686
G1 X106.949 Y100.344 E.01687
G1 X106.654 Y100.104 E.01687
G1 X106.412 Y99.811 E.01687
G1 X106.234 Y99.475 E.01686
G1 X106.125 Y99.111 E.01684
G1 X106.091 Y98.749 E.01617
G1 X106.115 Y98.448 E.01339
G1 X106.212 Y98.08 E.01685
G1 X106.353 Y97.793 E.0142
M204 S1000
G1 X106.201 Y97.404 F10800
;WIPE_START
G1 F8640
G1 X106.612 Y97.438 E-.10141
G1 X106.9 Y97.189 E-.08779
G1 X107.231 Y97.002 E-.0878
G1 X107.592 Y96.885 E-.0878
G1 X107.97 Y96.841 E-.0878
G1 X108.349 Y96.873 E-.0878
G1 X108.714 Y96.979 E-.0878
G1 X109.051 Y97.156 E-.08779
G1 X109.346 Y97.396 E-.0878
G1 X109.588 Y97.689 E-.0878
G1 X109.766 Y98.025 E-.0878
G1 X109.875 Y98.389 E-.08779
G1 X109.909 Y98.768 E-.0878
G1 X109.868 Y99.146 E-.0878
G1 X109.753 Y99.506 E-.08722
;WIPE_END
G1 E-.07 F2100
G1 Z.5 F720
G1 X108.388 Y109.025 F10800
G1 Z.3 F720
G1 E1.4 F2100
M204 S800
;TYPE:Perimeter
G1 F1200
G1 X108.876 Y109.163 E.02252
G1 X109.272 Y109.378 E.02
G1 X109.618 Y109.667 E.02
G1 X109.9 Y110.019 E.02
G1 X110.106 Y110.42 E.02
G1 X110.229 Y110.854 E.01999
G1 X110.263 Y111.303 E.02
G1 X110.208 Y111.751 E.02
G1 X110.065 Y112.178 E.02
G1 X109.84 Y112.569 E.02
G1 X109.542 Y112.907 E.01999
G1 X109.183 Y113.18 E.02
G1 X108.791 Y113.372 E.0194
G1 X108.451 Y113.468 E.01563
G1 X108.003 Y113.514 E.01998
G1 X107.555 Y113.47 E.02
G1 X107.124 Y113.337 E.01999
G1 X106.728 Y113.122 E.02
G1 X106.382 Y112.833 E.02
G1 X106.1 Y112.481 E.02
G1 X105.894 Y112.08 E.01999
G1 X105.771 Y111.648 E.01994
G1 X105.737 Y111.315 E.01481
G1 X105.77 Y110.86 E.02026
G1 X105.891 Y110.426 E.01998
G1 X106.097 Y110.025 E.02
G1 X106.377 Y109.672 E.02
G1 X106.722 Y109.381 E.01999
G1 X107.118 Y109.165 E.02
G1 X107.548 Y109.032 E.01999
G1 X107.997 Y108.986 E.02
G1 X108.328 Y109.019 E.01476
M204 S1000
G1 X108.349 Y109.373 F10800
M204 S800
;TYPE:External perimeter
G1 F1200
G1 X108.714 Y109.479 E.01687
G1 X109.17 Y109.751 E.02356
G1 X109.346 Y109.896 E.01008
G1 X109.588 Y110.189 E.01686
G1 X109.766 Y110.525 E.01687
G1 X109.875 Y110.889 E.01686
G1 X109.909 Y111.268 E.01687
G1 X109.868 Y111.646 E.01687
G1 X109.753 Y112.008 E.01686
G1 X109.568 Y112.34 E.01687
G1 X109.32 Y112.629 E.01686
G1 X109.021 Y112.864 E.01687
G1 X108.686 Y113.032 E.01665
G1 X108.407 Y113.115 E.01289
G1 X108.03 Y113.159 E.01685
G1 X107.651 Y113.127 E.01687
G1 X107.286 Y113.021 E.01686
G1 X106.949 Y112.844 E.01687
G1 X106.654 Y112.604 E.01687
G1 X106.412 Y112.311 E.01687
G1 X106.234 Y111.975 E.01686
G1 X106.125 Y111.611 E.01684
G1 X106.091 Y111.279 E.01481
G1 X106.115 Y110.948 E.01475
G1 X106.212 Y110.58 E.01685
G1 X106.38 Y110.239 E.01687
G1 X106.612 Y109.938 E.01687
G1 X106.9 Y109.689 E.01686
G1 X107.231 Y109.502 E.01687
G1 X107.592 Y109.385 E.01686
G1 X107.97 Y109.341 E.01687
G1 X108.289 Y109.368 E.0142
M204 S1000
G1 X108.596 Y109.084 F10800
;WIPE_START
G1 F8640
G1 X108.714 Y109.479 E-.10141
G1 X109.17 Y109.751 E-.12267
G1 X109.346 Y109.896 E-.05248
G1 X109.588 Y110.189 E-.0878
G1 X109.766 Y110.525 E-.0878
G1 X109.875 Y110.889 E-.08779
G1 X109.909 Y111.268 E-.0878
G1 X109.868 Y111.646 E-.0878
G1 X109.753 Y112.008 E-.08779
G1 X109.568 Y112.34 E-.0878
G1 X109.32 Y112.629 E-.08779
G1 X109.021 Y112.864 E-.0878
G1 X108.686 Y113.032 E-.08669
G1 X108.407 Y113.115 E-.0671
G1 X108.03 Y113.159 E-.08771
G1 X107.936 Y113.151 E-.02176
;WIPE_END
G1 E-.07 F2100
G1 Z.5 F720
G1 X141.067 Y109.193 F10800
G1 Z.3 F720
G1 E1.4 F2100
M204 S800
;TYPE:Perimeter
G1 F1200
G1 X141.548 Y109.032 E.02252
G1 X141.997 Y108.986 E.02
G1 X142.445 Y109.03 E.02
G1 X142.876 Y109.163 E.02
G1 X143.272 Y109.378 E.02
G1 X143.618 Y109.667 E.02
G1 X143.9 Y110.019 E.02
G1 X144.106 Y110.42 E.02
G1 X144.229 Y110.852 E.01994
G1 X144.264 Y111.277 E.01889
G1 X144.23 Y111.64 E.01619
G1 X144.109 Y112.074 E.01998
G1 X143.903 Y112.475 E.02
G1 X143.623 Y112.828 E.01999
G1 X143.278 Y113.119 E.01999
G1 X142.882 Y113.335 E.02
G1 X142.452 Y113.468 E.01999
G1 X142.003 Y113.514 E.02
G1 X141.555 Y113.47 E.02
G1 X141.124 Y113.337 E.01999
G1 X140.728 Y113.122 E.02
G1 X140.382 Y112.833 E.02
G1 X140.1 Y112.481 E.02
G1 X139.894 Y112.08 E.02
G1 X139.771 Y111.646 E.01999
G1 X139.737 Y111.303 E.0153
G1 X139.792 Y110.749 E.02468
G1 X139.935 Y110.322 E.01999
G1 X140.151 Y109.942 E.0194
G1 X140.377 Y109.671 E.01563
G1 X140.722 Y109.381 E.01998
G1 X141.014 Y109.222 E.01476
M204 S1000
G1 X141.231 Y109.502 F10800
M204 S800
;TYPE:External perimeter
G1 F1200
G1 X141.592 Y109.385 E.01686
G1 X141.97 Y109.341 E.01687
G1 X142.349 Y109.373 E.01687
G1 X142.714 Y109.479 E.01687
G1 X143.051 Y109.656 E.01686
G1 X143.346 Y109.896 E.01687
G1 X143.588 Y110.189 E.01687
G1 X143.766 Y110.525 E.01687
G1 X143.875 Y110.889 E.01684
G1 X143.909 Y111.251 E.01617
G1 X143.885 Y111.552 E.01339
G1 X143.788 Y111.92 E.01685
G1 X143.62 Y112.261 E.01687
G1 X143.388 Y112.562 E.01686
G1 X143.1 Y112.811 E.01686
G1 X142.769 Y112.998 E.01687
G1 X142.408 Y113.115 E.01686
G1 X142.03 Y113.159 E.01687
G1 X141.651 Y113.127 E.01687
G1 X141.286 Y113.021 E.01686
G1 X140.949 Y112.844 E.01687
G1 X140.654 Y112.604 E.01687
G1 X140.412 Y112.311 E.01686
G1 X140.234 Y111.975 E.01687
G1 X140.125 Y111.611 E.01686
G1 X140.091 Y111.268 E.0153
G1 X140.132 Y110.854 E.01843
G1 X140.247 Y110.492 E.01686
G1 X140.429 Y110.164 E.01665
G1 X140.613 Y109.938 E.01289
G1 X140.9 Y109.689 E.01685
G1 X141.179 Y109.532 E.0142
M204 S1000
G1 X141.272 Y109.124 F10800
;WIPE_START
G1 F8640
G1 X141.592 Y109.385 E-.10141
G1 X141.97 Y109.341 E-.0878
G1 X142.349 Y109.373 E-.0878
G1 X142.714 Y109.479 E-.0878
G1 X143.051 Y109.656 E-.0878
G1 X143.346 Y109.896 E-.0878
G1 X143.588 Y110.189 E-.0878
G1 X143.766 Y110.525 E-.0878
G1 X143.875 Y110.889 E-.08769
G1 X143.909 Y111.251 E-.08418
G1 X143.885 Y111.552 E-.0697
G1 X143.788 Y111.92 E-.08772
G1 X143.62 Y112.261 E-.0878
G1 X143.388 Y112.562 E-.08779
G1 X143.1 Y112.811 E-.08779
G1 X143.02 Y112.856 E-.02132
;WIPE_END
G1 E-.07 F2100
G1 Z.5 F720
G1 X143.659 Y100.283 F10800
G1 Z.3 F720
G1 E1.4 F2100
M204 S800
;TYPE:Perimeter
G1 F1200
G1 X143.278 Y100.619 E.02252
G1 X142.882 Y100.835 E.02
G1 X142.452 Y100.968 E.01999
G1 X142.003 Y101.014 E.02
G1 X141.555 Y100.97 E.02
G1 X141.124 Y100.837 E.01999
G1 X140.728 Y100.622 E.02
G1 X140.382 Y100.333 E.02
G1 X140.1 Y99.981 E.02
G1 X139.894 Y99.58 E.02
G1 X139.771 Y99.146 E.01999
G1 X139.737 Y98.803 E.0153
G1 X139.792 Y98.249 E.02468
G1 X139.935 Y97.822 E.01999
G1 X140.235 Y97.337 E.02526
G1 X140.636 Y96.943 E.02494
G1 X141.118 Y96.665 E.02468
G1 X141.548 Y96.532 E.01999
G1 X141.997 Y96.486 E.02
G1 X142.445 Y96.53 E.02
G1 X142.876 Y96.663 E.02
G1 X143.272 Y96.878 E.02
G1 X143.618 Y97.167 E.02
G1 X143.9 Y97.519 E.02
G1 X144.106 Y97.92 E.02
G1 X144.229 Y98.352 E.01994
G1 X144.264 Y98.777 E.01889
G1 X144.23 Y99.14 E.01619
G1 X144.109 Y99.574 E.01998
G1 X143.903 Y99.975 E.02
G1 X143.696 Y100.236 E.01476
M204 S1000
G1 X143.388 Y100.062 F10800
M204 S800
;TYPE:External perimeter
G1 F1200
G1 X143.1 Y100.311 E.01686
G1 X142.769 Y100.498 E.01687
G1 X142.408 Y100.615 E.01686
G1 X142.03 Y100.659 E.01687
G1 X141.651 Y100.627 E.01687
G1 X141.286 Y100.521 E.01686
G1 X140.949 Y100.344 E.01687
G1 X140.654 Y100.104 E.01687
G1 X140.412 Y99.811 E.01687
G1 X140.234 Y99.475 E.01687
G1 X140.125 Y99.111 E.01686
G1 X140.091 Y98.768 E.0153
G1 X140.132 Y98.354 E.01843
G1 X140.247 Y97.992 E.01686
G1 X140.513 Y97.559 E.02251
G1 X140.871 Y97.21 E.02219
G1 X141.231 Y97.002 E.01843
G1 X141.592 Y96.885 E.01686
G1 X141.97 Y96.841 E.01687
G1 X142.349 Y96.873 E.01687
G1 X142.714 Y96.979 E.01687
G1 X143.051 Y97.156 E.01686
G1 X143.346 Y97.396 E.01687
G1 X143.588 Y97.689 E.01687
G1 X143.766 Y98.025 E.01687
G1 X143.875 Y98.389 E.01684
G1 X143.909 Y98.751 E.01617
G1 X143.885 Y99.052 E.01339
G1 X143.788 Y99.42 E.01685
G1 X143.62 Y99.761 E.01687
G1 X143.424 Y100.014 E.0142
M204 S1000
G1 X143.496 Y100.426 F10800
;WIPE_START
G1 F8640
G1 X143.1 Y100.311 E-.10141
G1 X142.769 Y100.498 E-.0878
G1 X142.408 Y100.615 E-.08779
G1 X142.03 Y100.659 E-.0878
G1 X141.651 Y100.627 E-.0878
G1 X141.286 Y100.521 E-.08779
G1 X140.949 Y100.344 E-.0878
M73 Q4 S20
G1 X140.654 Y100.104 E-.0878
G1 X140.412 Y99.811 E-.0878
G1 X140.234 Y99.475 E-.0878
G1 X140.125 Y99.111 E-.08779
G1 X140.091 Y98.768 E-.07966
G1 X140.132 Y98.354 E-.09593
G1 X140.247 Y97.992 E-.08779
G1 X140.445 Y97.67 E-.08723
;WIPE_END
G1 E-.07 F2100
G1 Z.5 F720
G1 X166.128 Y94.095 F10800
G1 Z.3 F720
M73 P4 R20
G1 E1.4 F2100
M204 S800
;TYPE:Solid infill
;WIDTH:0.421594
G1 F1200
G1 X165.565 Y93.532 E.03543
G1 X165.06 Y93.532 E.02251
G1 X165.968 Y94.44 E.05717
G1 X165.968 Y94.945 E.02251
G1 X164.555 Y93.532 E.089
G1 X164.05 Y93.532 E.02251
G1 X165.968 Y95.45 E.12083
G1 X165.968 Y95.955 E.02251
G1 X163.545 Y93.532 E.15266
G1 X163.04 Y93.532 E.02251
G1 X165.968 Y96.46 E.18449
G1 X165.968 Y96.966 E.02251
G1 X162.534 Y93.532 E.21632
G1 X162.029 Y93.532 E.02251
G1 X165.968 Y97.471 E.24815
G1 X165.968 Y97.976 E.02251
G1 X161.524 Y93.532 E.27998
G1 X161.019 Y93.532 E.02251
G1 X165.968 Y98.481 E.31181
G1 X165.968 Y98.986 E.02251
G1 X160.514 Y93.532 E.34365
G1 X160.009 Y93.532 E.02251
G1 X165.968 Y99.491 E.37548
G1 X165.968 Y99.997 E.02251
G1 X159.503 Y93.532 E.40731
G1 X158.998 Y93.532 E.02251
G1 X165.968 Y100.502 E.43914
G1 X165.968 Y101.007 E.02251
G1 X158.493 Y93.532 E.47097
G1 X157.988 Y93.532 E.02251
G1 X165.968 Y101.512 E.5028
G1 X165.968 Y102.017 E.02251
G1 X157.483 Y93.532 E.53463
G1 X156.977 Y93.532 E.02251
G1 X165.968 Y102.523 E.56646
G1 X165.968 Y103.028 E.02251
G1 X156.472 Y93.532 E.59829
G1 X155.967 Y93.532 E.02251
G1 X165.968 Y103.533 E.63012
G1 X165.968 Y104.038 E.02251
G1 X155.462 Y93.532 E.66195
G1 X154.957 Y93.532 E.02251
G1 X165.968 Y104.543 E.69378
G1 X165.968 Y105.048 E.02251
G1 X154.452 Y93.532 E.72561
G1 X153.946 Y93.532 E.02251
G1 X165.968 Y105.554 E.75744
G1 X165.968 Y106.059 E.02251
G1 X153.441 Y93.532 E.78927
G1 X152.936 Y93.532 E.02251
M73 Q5 S20
G1 X165.968 Y106.564 E.8211
G1 X165.968 Y107.069 E.02251
M73 P5 R20
G1 X152.431 Y93.532 E.85293
G1 X151.926 Y93.532 E.02251
G1 X165.968 Y107.574 E.88476
G1 X165.968 Y108.079 E.02251
G1 X151.421 Y93.532 E.91659
G1 X150.915 Y93.532 E.02251
G1 X165.968 Y108.585 E.94842
G1 X165.968 Y109.09 E.02251
G1 X150.41 Y93.532 E.98025
G1 X149.905 Y93.532 E.02251
G1 X165.968 Y109.595 E1.01208
G1 X165.968 Y110.1 E.02251
G1 X149.4 Y93.532 E1.04391
G1 X148.895 Y93.532 E.02251
G1 X165.968 Y110.605 E1.07574
G1 X165.968 Y111.111 E.02251
G1 X148.389 Y93.532 E1.10757
G1 X147.884 Y93.532 E.02251
M73 P5 R19
G1 X165.968 Y111.616 E1.1394
G1 X165.968 Y112.121 E.02251
G1 X147.379 Y93.532 E1.17123
M73 Q6 S20
G1 X146.874 Y93.532 E.02251
M73 P6 R19
G1 X165.968 Y112.626 E1.20306
G1 X165.968 Y113.131 E.02251
M73 Q6 S19
G1 X146.369 Y93.532 E1.23489
G1 X145.864 Y93.532 E.02251
G1 X165.968 Y113.636 E1.26672
G1 X165.968 Y114.142 E.02251
G1 X145.358 Y93.532 E1.29855
G1 X144.853 Y93.532 E.02251
G1 X165.968 Y114.647 E1.33038
G1 X165.968 Y115.152 E.02251
G1 X144.348 Y93.532 E1.36221
G1 X143.843 Y93.532 E.02251
G1 X165.968 Y115.657 E1.39404
