; generated by PrusaSlicer 2.5.0 on 2023-03-01 at 21:32:28 UTC


;
;
; 

; external perimeters extrusion width = 0.60mm
; perimeters extrusion width = 0.50mm
; infill extrusion width = 0.50mm
; solid infill extrusion width = 0.50mm
; top infill extrusion width = 0.45mm
; first layer extrusion width = 0.42mm

; external perimeters extrusion width = 0.60mm
; perimeters extrusion width = 0.50mm
; infill extrusion width = 0.50mm
; solid infill extrusion width = 0.50mm
; top infill extrusion width = 0.45mm
; first layer extrusion width = 0.42mm

M73 P0 R39
M73 Q0 S39
M201 X1000 Y1000 Z200 E5000 ; sets maximum accelerations, mm/sec^2
M203 X200 Y200 Z12 E120 ; sets maximum feedrates, mm / sec
M204 P1250 R1250 T1250 ; sets acceleration (P, T) and retract acceleration (R), mm/sec^2
M205 X8.00 Y8.00 Z0.40 E4.50 ; sets the jerk limits, mm/sec
M205 S0 T0 ; sets the minimum extruding and travel feed rate, mm/sec
M107 ; disable fan
;TYPE:Custom
M862.3 P "MK3S" ; printer model check
M862.1 P0.4 ; nozzle diameter check
M115 U3.11.0 ; tell printer latest fw version
G90 ; use absolute coordinates
M83 ; extruder relative mode
M104 S240 ; set extruder temp
M140 S95 ; set bed temp
M190 S95 ; wait for bed temp
M109 S240 ; wait for extruder temp
G28 W ; home all without mesh bed level
G80 ; mesh bed leveling

G1 Z0.2 F720
G1 Y-3 F1000 ; go outside print area
G92 E0
G1 X60 E9 F1000 ; intro line
G1 X100 E12.5 F1000 ; intro line

G92 E0
M221 S95

; Don't change E values below. Excessive value can damage the printer.

M907 E538 ; set extruder motor current
G21 ; set units to millimeters
G90 ; use absolute coordinates
M83 ; use relative distances for extrusion
M900 K0.08 ; Filament gcode LA 1.5
M900 K45 ; Filament gcode LA 1.0
M107 ; disable fan
;LAYER_CHANGE
;Z:0.3
;HEIGHT:0.3
;BEFORE_LAYER_CHANGE
G92 E0.0
;0.3


G1 E-1.4 F2100 ; retract
G1 Z.2 F720 ; lift Z
G1 Z.3 ; move to next layer (0)
;AFTER_LAYER_CHANGE
;0.3
G1 Z.5 ; lift Z
G1 X81.633 Y65.113 F10800 ; move to first skirt point
G1 Z.3 F720 ; restore layer Z
G1 E1.4 F2100 ;  ; unretract
M204 S800 ; adjust acceleration
;TYPE:Skirt/Brim
;WIDTH:0.42
G1 F1200
G1 X82.265 Y64.587 E.03644 ; skirt
G1 X83.162 Y64.182 E.04368 ; skirt
G1 X84.08 Y64.053 E.04114 ; skirt
G1 X166.138 Y64.054 E3.63966 ; skirt
G1 X166.678 Y64.107 E.02407 ; skirt
G1 X167.311 Y64.287 E.02918 ; skirt
G1 X167.896 Y64.587 E.02918 ; skirt
G1 X168.412 Y64.996 E.02917 ; skirt
G1 X168.838 Y65.497 E.02917 ; skirt
G1 X169.138 Y66.027 E.02702 ; skirt
G1 X169.349 Y66.65 E.02917 ; skirt
G1 X169.434 Y67.302 E.02917 ; skirt
G1 X169.356 Y117.507 E2.22685 ; skirt
G1 X168.96 Y118.807 E.06024 ; skirt
G1 X167.913 Y119.671 E.06024 ; skirt
G1 X167 Y119.856 E.04131 ; skirt
G1 X83 Y119.856 E3.7258 ; skirt
G1 X81.7 Y119.464 E.06024 ; skirt
G1 X80.831 Y118.42 E.06024 ; skirt
G1 X80.644 Y117.5 E.04163 ; skirt
G1 X80.727 Y67.302 E2.22653 ; skirt
G1 X80.846 Y66.516 E.03526 ; skirt
G1 X81.149 Y65.776 E.03546 ; skirt
G1 X81.598 Y65.161 E.03377 ; skirt
M204 S1000 ; adjust acceleration
; printing object 6F_NEW_hipfront-Body.stl id:0 copy 0
;WIPE_START
G1 F8640
G1 X82.265 Y64.587 E-.20316 ; wipe and retract
G1 X83.162 Y64.182 E-.22738 ; wipe and retract
G1 X84.08 Y64.053 E-.21415 ; wipe and retract
G1 X87.048 Y64.053 E-.68531 ; wipe and retract
;WIPE_END
G1 E-.07 F2100 ; retract
G1 Z.5 F720 ; lift Z
G1 X136.261 Y105.244 F10800 ; move to first perimeter point
G1 Z.3 F720 ; restore layer Z
G1 E1.4 F2100 ;  ; unretract
M204 S800 ; adjust acceleration
;TYPE:Perimeter
;WIDTH:0.42
G1 F1200
G1 X136.261 Y105.195 E.00217 ; perimeter
G1 X136.166 Y104.957 E.01139 ; perimeter
G1 X135.969 Y104.79 E.01145 ; perimeter
G1 X135.734 Y104.734 E.01073 ; perimeter
G1 X114.268 Y104.734 E.95211 ; perimeter
G1 X113.983 Y104.817 E.01313 ; perimeter
G1 X113.805 Y105.003 E.01144 ; perimeter
G1 X113.734 Y105.267 E.01214 ; perimeter
G1 X113.726 Y115.544 E.45581 ; perimeter
G1 X113.663 Y115.889 E.01556 ; perimeter
M73 P1 R38
M73 Q1 S39
G1 X113.41 Y116.325 E.02235 ; perimeter
G1 X113.132 Y116.554 E.01599 ; perimeter
G1 X112.792 Y116.694 E.01628 ; perimeter
G1 X112.464 Y116.734 E.01467 ; perimeter
G1 X83.766 Y116.734 E1.27292 ; perimeter
G1 X83.766 Y93.544 E1.02861 ; perimeter
G1 X83.84 Y93.34 E.00961 ; perimeter
G1 X84.044 Y93.266 E.00961 ; perimeter
G1 X165.948 Y93.266 E3.63284 ; perimeter
G1 X166.163 Y93.345 E.01016 ; perimeter
G1 X166.233 Y93.529 E.00873 ; perimeter
G1 X166.234 Y116.734 E1.02928 ; perimeter
G1 X137.595 Y116.734 E1.27031 ; perimeter
G1 X137.273 Y116.709 E.01432 ; perimeter
M73 Q1 S38
G1 X136.921 Y116.584 E.01656 ; perimeter
G1 X136.631 Y116.369 E.016 ; perimeter
G1 X136.412 Y116.073 E.0163 ; perimeter
G1 X136.274 Y115.627 E.02071 ; perimeter
G1 X136.261 Y105.304 E.45788 ; perimeter
M204 S1000 ; adjust acceleration
G1 X135.91 Y105.268 F10800 ; move to first perimeter point
M204 S800 ; adjust acceleration
;TYPE:External perimeter
G1 F1200
G1 X135.866 Y105.151 E.00552 ; perimeter
G1 X135.733 Y105.09 E.00652 ; perimeter
G1 X114.268 Y105.09 E.95207 ; perimeter
G1 X114.159 Y105.127 E.00508 ; perimeter
G1 X114.09 Y105.268 E.00696 ; perimeter
G1 X114.081 Y115.658 E.46087 ; perimeter
G1 X113.938 Y116.176 E.02381 ; perimeter
G1 X113.677 Y116.566 E.02085 ; perimeter
G1 X113.316 Y116.862 E.02067 ; perimeter
G1 X112.884 Y117.041 E.02077 ; perimeter
G1 X112.486 Y117.09 E.01778 ; perimeter
G1 X83.41 Y117.09 E1.28965 ; perimeter
G1 X83.41 Y93.518 E1.04554 ; perimeter
G1 X83.423 Y93.427 E.00405 ; perimeter
G1 X83.53 Y93.148 E.01326 ; perimeter
G1 X83.723 Y92.992 E.011 ; perimeter
G1 X84.018 Y92.91 E.01359 ; perimeter
G1 X165.917 Y92.91 E3.63261 ; perimeter
G1 X166.112 Y92.936 E.00876 ; perimeter
G1 X166.333 Y93.031 E.01065 ; perimeter
G1 X166.53 Y93.248 E.013 ; perimeter
G1 X166.589 Y93.485 E.01083 ; perimeter
G1 X166.59 Y117.09 E1.04699 ; perimeter
G1 X137.595 Y117.09 E1.28608 ; perimeter
G1 X137.194 Y117.059 E.01781 ; perimeter
G1 X136.752 Y116.901 E.02085 ; perimeter
G1 X136.377 Y116.623 E.02069 ; perimeter
G1 X136.098 Y116.246 E.02078 ; perimeter
G1 X136.022 Y116.05 E.00934 ; perimeter
G1 X135.919 Y115.658 E.01797 ; perimeter
G1 X135.91 Y105.328 E.45821 ; perimeter
M204 S1000 ; adjust acceleration
G1 X136 Y105.181 F10800 ; move inwards before travel
;WIPE_START
G1 F8640
G1 X135.866 Y105.151 E-.04199 ; wipe and retract
G1 X135.733 Y105.09 E-.03395 ; wipe and retract
G1 X130.302 Y105.09 E-1.25406 ; wipe and retract
;WIPE_END
G1 E-.07 F2100 ; retract
G1 Z.5 F720 ; lift Z
G1 X110.213 Y98.298 F10800 ; move to first perimeter point
G1 Z.3 F720 ; restore layer Z
G1 E1.4 F2100 ;  ; unretract
M204 S800 ; adjust acceleration
;TYPE:Perimeter
G1 F1200
G1 X110.263 Y98.803 E.02252 ; perimeter
G1 X110.208 Y99.251 E.02 ; perimeter
G1 X110.065 Y99.678 E.01999 ; perimeter
G1 X109.84 Y100.069 E.02 ; perimeter
G1 X109.542 Y100.407 E.01999 ; perimeter
G1 X109.183 Y100.68 E.02 ; perimeter
G1 X108.791 Y100.872 E.0194 ; perimeter
G1 X108.451 Y100.968 E.01563 ; perimeter
G1 X108.003 Y101.014 E.01998 ; perimeter
G1 X107.555 Y100.97 E.02 ; perimeter
G1 X107.124 Y100.837 E.01999 ; perimeter
G1 X106.728 Y100.622 E.02 ; perimeter
G1 X106.382 Y100.333 E.02 ; perimeter
G1 X106.1 Y99.981 E.02 ; perimeter
G1 X105.894 Y99.58 E.01999 ; perimeter
G1 X105.771 Y99.148 E.01994 ; perimeter
G1 X105.737 Y98.815 E.01481 ; perimeter
G1 X105.77 Y98.36 E.02026 ; perimeter
G1 X105.891 Y97.926 E.01998 ; perimeter
G1 X106.097 Y97.525 E.02 ; perimeter
G1 X106.377 Y97.172 E.02 ; perimeter
G1 X106.722 Y96.881 E.01999 ; perimeter
G1 X107.118 Y96.665 E.02 ; perimeter
G1 X107.548 Y96.532 E.01999 ; perimeter
G1 X107.997 Y96.486 E.02 ; perimeter
G1 X108.445 Y96.53 E.01999 ; perimeter
G1 X108.876 Y96.663 E.02 ; perimeter
G1 X109.272 Y96.878 E.02 ; perimeter
G1 X109.618 Y97.167 E.02 ; perimeter
G1 X109.9 Y97.519 E.02 ; perimeter
G1 X110.106 Y97.92 E.02 ; perimeter
G1 X110.197 Y98.24 E.01476 ; perimeter
M204 S1000 ; adjust acceleration
G1 X109.875 Y98.389 F10800 ; move to first perimeter point
M204 S800 ; adjust acceleration
;TYPE:External perimeter
G1 F1200
G1 X109.909 Y98.768 E.01687 ; perimeter
G1 X109.868 Y99.146 E.01687 ; perimeter
G1 X109.753 Y99.508 E.01686 ; perimeter
G1 X109.568 Y99.84 E.01687 ; perimeter
G1 X109.321 Y100.129 E.01686 ; perimeter
M73 Q2 S38
G1 X109.021 Y100.364 E.01687 ; perimeter
G1 X108.686 Y100.532 E.01665 ; perimeter
G1 X108.407 Y100.615 E.01289 ; perimeter
G1 X108.03 Y100.659 E.01685 ; perimeter
G1 X107.651 Y100.627 E.01687 ; perimeter
G1 X107.286 Y100.521 E.01686 ; perimeter
G1 X106.949 Y100.344 E.01687 ; perimeter
G1 X106.654 Y100.104 E.01687 ; perimeter
M73 P2 R38
G1 X106.412 Y99.811 E.01687 ; perimeter
G1 X106.234 Y99.475 E.01686 ; perimeter
G1 X106.125 Y99.111 E.01684 ; perimeter
G1 X106.091 Y98.779 E.01481 ; perimeter
G1 X106.115 Y98.448 E.01475 ; perimeter
G1 X106.212 Y98.08 E.01685 ; perimeter
G1 X106.38 Y97.739 E.01687 ; perimeter
G1 X106.612 Y97.438 E.01687 ; perimeter
G1 X106.9 Y97.189 E.01686 ; perimeter
G1 X107.231 Y97.002 E.01687 ; perimeter
G1 X107.592 Y96.885 E.01686 ; perimeter
G1 X107.97 Y96.841 E.01687 ; perimeter
G1 X108.349 Y96.873 E.01686 ; perimeter
G1 X108.714 Y96.979 E.01687 ; perimeter
G1 X109.051 Y97.156 E.01686 ; perimeter
G1 X109.346 Y97.396 E.01687 ; perimeter
G1 X109.588 Y97.689 E.01686 ; perimeter
G1 X109.766 Y98.025 E.01687 ; perimeter
G1 X109.858 Y98.332 E.0142 ; perimeter
M204 S1000 ; adjust acceleration
G1 X110.234 Y98.513 F10800 ; move inwards before travel
;WIPE_START
G1 F8640
G1 X109.909 Y98.768 E-.10142 ; wipe and retract
G1 X109.868 Y99.146 E-.0878 ; wipe and retract
G1 X109.753 Y99.508 E-.08779 ; wipe and retract
G1 X109.568 Y99.84 E-.0878 ; wipe and retract
G1 X109.321 Y100.129 E-.08779 ; wipe and retract
G1 X109.021 Y100.364 E-.0878 ; wipe and retract
G1 X108.686 Y100.532 E-.08669 ; wipe and retract
G1 X108.407 Y100.615 E-.0671 ; wipe and retract
G1 X108.03 Y100.659 E-.08771 ; wipe and retract
G1 X107.651 Y100.627 E-.0878 ; wipe and retract
G1 X107.286 Y100.521 E-.08779 ; wipe and retract
G1 X106.949 Y100.344 E-.0878 ; wipe and retract
G1 X106.654 Y100.104 E-.0878 ; wipe and retract
G1 X106.412 Y99.811 E-.0878 ; wipe and retract
G1 X106.234 Y99.475 E-.08779 ; wipe and retract
G1 X106.207 Y99.387 E-.02131 ; wipe and retract
;WIPE_END
G1 E-.07 F2100 ; retract
G1 Z.5 F720 ; lift Z
G1 X108.821 Y109.146 F10800 ; move to first perimeter point
G1 Z.3 F720 ; restore layer Z
G1 E1.4 F2100 ;  ; unretract
M204 S800 ; adjust acceleration
;TYPE:Perimeter
G1 F1200
G1 X109.272 Y109.378 E.02252 ; perimeter
G1 X109.618 Y109.667 E.02 ; perimeter
G1 X109.9 Y110.019 E.02 ; perimeter
G1 X110.106 Y110.42 E.02 ; perimeter
G1 X110.229 Y110.854 E.01999 ; perimeter
G1 X110.263 Y111.303 E.02 ; perimeter
G1 X110.208 Y111.751 E.02 ; perimeter
G1 X110.065 Y112.178 E.01999 ; perimeter
G1 X109.84 Y112.569 E.02 ; perimeter
G1 X109.542 Y112.907 E.01999 ; perimeter
G1 X109.183 Y113.18 E.02 ; perimeter
G1 X108.791 Y113.372 E.0194 ; perimeter
G1 X108.451 Y113.468 E.01563 ; perimeter
G1 X108.003 Y113.514 E.01998 ; perimeter
G1 X107.555 Y113.47 E.02 ; perimeter
G1 X107.124 Y113.337 E.01999 ; perimeter
G1 X106.728 Y113.122 E.02 ; perimeter
G1 X106.382 Y112.833 E.02 ; perimeter
G1 X106.1 Y112.481 E.02 ; perimeter
G1 X105.894 Y112.08 E.01999 ; perimeter
G1 X105.771 Y111.648 E.01994 ; perimeter
G1 X105.736 Y111.223 E.01889 ; perimeter
G1 X105.77 Y110.86 E.01619 ; perimeter
G1 X105.891 Y110.426 E.01998 ; perimeter
G1 X106.097 Y110.025 E.02 ; perimeter
G1 X106.377 Y109.672 E.02 ; perimeter
G1 X106.722 Y109.381 E.01999 ; perimeter
G1 X107.118 Y109.165 E.02 ; perimeter
G1 X107.548 Y109.032 E.01999 ; perimeter
G1 X107.997 Y108.986 E.02 ; perimeter
G1 X108.445 Y109.03 E.01999 ; perimeter
G1 X108.763 Y109.128 E.01476 ; perimeter
M204 S1000 ; adjust acceleration
G1 X108.714 Y109.479 F10800 ; move to first perimeter point
M204 S800 ; adjust acceleration
;TYPE:External perimeter
G1 F1200
G1 X109.051 Y109.656 E.01686 ; perimeter
G1 X109.346 Y109.896 E.01687 ; perimeter
G1 X109.588 Y110.189 E.01686 ; perimeter
G1 X109.766 Y110.525 E.01687 ; perimeter
G1 X109.875 Y110.889 E.01686 ; perimeter
G1 X109.909 Y111.268 E.01687 ; perimeter
G1 X109.868 Y111.646 E.01687 ; perimeter
G1 X109.753 Y112.008 E.01686 ; perimeter
G1 X109.568 Y112.34 E.01687 ; perimeter
G1 X109.32 Y112.629 E.01686 ; perimeter
G1 X109.021 Y112.864 E.01687 ; perimeter
G1 X108.686 Y113.032 E.01665 ; perimeter
G1 X108.407 Y113.115 E.01289 ; perimeter
G1 X108.03 Y113.159 E.01685 ; perimeter
G1 X107.651 Y113.127 E.01687 ; perimeter
G1 X107.286 Y113.021 E.01686 ; perimeter
G1 X106.949 Y112.844 E.01687 ; perimeter
G1 X106.654 Y112.604 E.01687 ; perimeter
G1 X106.412 Y112.311 E.01687 ; perimeter
G1 X106.234 Y111.975 E.01686 ; perimeter
G1 X106.125 Y111.611 E.01684 ; perimeter
G1 X106.091 Y111.249 E.01617 ; perimeter
G1 X106.115 Y110.948 E.01339 ; perimeter
G1 X106.212 Y110.58 E.01685 ; perimeter
G1 X106.38 Y110.239 E.01687 ; perimeter
G1 X106.612 Y109.938 E.01687 ; perimeter
G1 X106.9 Y109.689 E.01686 ; perimeter
G1 X107.231 Y109.502 E.01687 ; perimeter
G1 X107.592 Y109.385 E.01686 ; perimeter
G1 X107.97 Y109.341 E.01687 ; perimeter
G1 X108.349 Y109.373 E.01686 ; perimeter
G1 X108.656 Y109.462 E.0142 ; perimeter
M204 S1000 ; adjust acceleration
G1 X109.013 Y109.245 F10800 ; move inwards before travel
;WIPE_START
G1 F8640
G1 X109.051 Y109.656 E-.10141 ; wipe and retract
G1 X109.346 Y109.896 E-.0878 ; wipe and retract
G1 X109.588 Y110.189 E-.0878 ; wipe and retract
G1 X109.766 Y110.525 E-.0878 ; wipe and retract
G1 X109.875 Y110.889 E-.08779 ; wipe and retract
G1 X109.909 Y111.268 E-.0878 ; wipe and retract
G1 X109.868 Y111.646 E-.0878 ; wipe and retract
G1 X109.753 Y112.008 E-.08779 ; wipe and retract
G1 X109.568 Y112.34 E-.0878 ; wipe and retract
G1 X109.32 Y112.629 E-.08779 ; wipe and retract
G1 X109.021 Y112.864 E-.0878 ; wipe and retract
G1 X108.686 Y113.032 E-.08669 ; wipe and retract
G1 X108.407 Y113.115 E-.0671 ; wipe and retract
G1 X108.03 Y113.159 E-.08771 ; wipe and retract
G1 X107.651 Y113.127 E-.0878 ; wipe and retract
G1 X107.562 Y113.101 E-.02131 ; wipe and retract
;WIPE_END
G1 E-.07 F2100 ; retract
G1 Z.5 F720 ; lift Z
G1 X142.933 Y113.307 F10800 ; move to first perimeter point
G1 Z.3 F720 ; restore layer Z
G1 E1.4 F2100 ;  ; unretract
M204 S800 ; adjust acceleration
;TYPE:Perimeter
G1 F1200
G1 X142.452 Y113.468 E.02252 ; perimeter
G1 X142.003 Y113.514 E.02 ; perimeter
G1 X141.555 Y113.47 E.02 ; perimeter
G1 X141.124 Y113.337 E.01999 ; perimeter
G1 X140.728 Y113.122 E.02 ; perimeter
G1 X140.382 Y112.833 E.02 ; perimeter
G1 X140.1 Y112.481 E.02 ; perimeter
G1 X139.894 Y112.08 E.02 ; perimeter
G1 X139.771 Y111.646 E.01999 ; perimeter
G1 X139.737 Y111.303 E.0153 ; perimeter
G1 X139.792 Y110.749 E.02468 ; perimeter
G1 X139.935 Y110.322 E.01999 ; perimeter
G1 X140.151 Y109.942 E.0194 ; perimeter
G1 X140.377 Y109.671 E.01563 ; perimeter
G1 X140.722 Y109.381 E.01998 ; perimeter
G1 X141.118 Y109.165 E.02 ; perimeter
G1 X141.548 Y109.032 E.01999 ; perimeter
G1 X141.997 Y108.986 E.02 ; perimeter
G1 X142.445 Y109.03 E.02 ; perimeter
G1 X142.876 Y109.163 E.02 ; perimeter
G1 X143.272 Y109.378 E.02 ; perimeter
G1 X143.618 Y109.667 E.02 ; perimeter
G1 X143.9 Y110.019 E.02 ; perimeter
G1 X144.106 Y110.42 E.02 ; perimeter
G1 X144.229 Y110.852 E.01994 ; perimeter
G1 X144.264 Y111.277 E.01889 ; perimeter
G1 X144.23 Y111.64 E.01619 ; perimeter
G1 X144.109 Y112.074 E.01998 ; perimeter
G1 X143.903 Y112.475 E.02 ; perimeter
G1 X143.623 Y112.828 E.01999 ; perimeter
G1 X143.278 Y113.119 E.01999 ; perimeter
G1 X142.986 Y113.278 E.01476 ; perimeter
M204 S1000 ; adjust acceleration
G1 X142.769 Y112.998 F10800 ; move to first perimeter point
M204 S800 ; adjust acceleration
;TYPE:External perimeter
G1 F1200
G1 X142.408 Y113.115 E.01686 ; perimeter
G1 X142.03 Y113.159 E.01687 ; perimeter
G1 X141.651 Y113.127 E.01687 ; perimeter
G1 X141.286 Y113.021 E.01686 ; perimeter
G1 X140.949 Y112.844 E.01687 ; perimeter
G1 X140.654 Y112.604 E.01687 ; perimeter
G1 X140.412 Y112.311 E.01687 ; perimeter
G1 X140.234 Y111.975 E.01687 ; perimeter
