; generated by PrusaSlicer 2.5.0 on 2022-12-10 at 19:58:38 UTC


;
;
; 

; external perimeters extrusion width = 0.60mm
; perimeters extrusion width = 0.50mm
; infill extrusion width = 0.50mm
; solid infill extrusion width = 0.50mm
; top infill extrusion width = 0.45mm
; support material extrusion width = 0.38mm
; first layer extrusion width = 0.42mm

; external perimeters extrusion width = 0.60mm
; perimeters extrusion width = 0.50mm
; infill extrusion width = 0.50mm
; solid infill extrusion width = 0.50mm
; top infill extrusion width = 0.45mm
; support material extrusion width = 0.38mm
; first layer extrusion width = 0.42mm

M73 P0 R110
M73 Q0 S112
M201 X1000 Y1000 Z200 E5000 ; sets maximum accelerations, mm/sec^2
M203 X200 Y200 Z12 E120 ; sets maximum feedrates, mm / sec
M204 P1250 R1250 T1250 ; sets acceleration (P, T) and retract acceleration (R), mm/sec^2
M205 X8.00 Y8.00 Z0.40 E4.50 ; sets the jerk limits, mm/sec
M205 S0 T0 ; sets the minimum extruding and travel feed rate, mm/sec
M107
;TYPE:Custom
M862.3 P "MK3S" ; printer model check
M862.1 P0.4 ; nozzle diameter check
M115 U3.11.0 ; tell printer latest fw version
G90 ; use absolute coordinates
M83 ; extruder relative mode
M104 S240 ; set extruder temp
M140 S95 ; set bed temp
M190 S95 ; wait for bed temp
M109 S240 ; wait for extruder temp
G28 W ; home all without mesh bed level
G80 ; mesh bed leveling

G1 Z0.2 F720
G1 Y-3 F1000 ; go outside print area
G92 E0
G1 X60 E9 F1000 ; intro line
G1 X100 E12.5 F1000 ; intro line

G92 E0
M221 S95

; Don't change E values below. Excessive value can damage the printer.

M907 E538 ; set extruder motor current
G21 ; set units to millimeters
G90 ; use absolute coordinates
M83 ; use relative distances for extrusion
M900 K0.08 ; Filament gcode LA 1.5
M900 K45 ; Filament gcode LA 1.0
M107
;LAYER_CHANGE
;Z:0.3
;HEIGHT:0.3
;BEFORE_LAYER_CHANGE
G92 E0.0
;0.3


G1 E-1.4 F2100
G1 Z.2 F720
G1 Z.3
;AFTER_LAYER_CHANGE
;0.3
G1 Z.5
G1 X66.705 Y62.57 F10800
G1 Z.3 F720
G1 E1.4 F2100
M204 S800
;TYPE:Skirt/Brim
;WIDTH:0.42
G1 F1200
G1 X75.727 Y52.953 E.58488
G1 X77.445 Y52.209 E.08304
G1 X117.949 Y52.209 E1.79655
G1 X163.552 Y52.286 E2.02273
G1 X165.266 Y53.03 E.08288
G1 X174.936 Y63.339 E.62691
G1 X175.573 Y64.951 E.07687
G1 X175.573 Y77.793 E.56962
G1 X175.467 Y78.491 E.03133
G1 X165.798 Y109.64 E1.44665
G1 X165.038 Y110.766 E.06024
G1 X163.548 Y111.298 E.07018
G1 X77.441 Y111.22 E3.81928
G1 X76.141 Y110.826 E.06024
G1 X75.195 Y109.563 E.07
G1 X65.526 Y78.414 E1.44665
G1 X65.42 Y77.715 E.03133
G1 X65.42 Y64.873 E.56962
G1 X66.057 Y63.261 E.07687
G1 X66.664 Y62.614 E.03937
M204 S1000
; printing object 6L_hip-Body.stl id:0 copy 0
;WIPE_START
G1 F8640
G1 X70.605 Y58.413 E-1.33
;WIPE_END
G1 E-.07 F2100
G1 Z.5 F720
G1 X173.218 Y77.793 F10800
G1 Z.3 F720
G1 E1.4 F2100
M204 S800
;TYPE:Support material
G1 F1200
G1 X164.118 Y77.793 E.40361
G1 X164.118 Y64.951 E.56962
G1 X173.218 Y64.951 E.40361
G1 X173.218 Y77.74 E.56725
M204 S1000
G1 X172.852 Y77.633 F10800
M204 S800
M73 Q0 S111
G1 F1200
G1 X172.852 Y65.271 E.54832
G1 X172.457 Y65.271 E.01753
G1 X172.457 Y77.473 E.54123
G1 X172.062 Y77.473 E.01753
G1 X172.062 Y65.271 E.54123
G1 X171.667 Y65.271 E.01753
G1 X171.667 Y77.473 E.54123
G1 X171.272 Y77.473 E.01753
G1 X171.272 Y65.271 E.54123
G1 X170.877 Y65.271 E.01753
G1 X170.877 Y77.473 E.54123
G1 X170.482 Y77.473 E.01753
G1 X170.482 Y65.271 E.54123
G1 X170.087 Y65.271 E.01753
G1 X170.087 Y77.473 E.54123
G1 X169.691 Y77.473 E.01753
G1 X169.691 Y65.271 E.54123
G1 X169.296 Y65.271 E.01753
G1 X169.296 Y77.473 E.54123
G1 X168.901 Y77.473 E.01753
G1 X168.901 Y65.271 E.54123
G1 X168.506 Y65.271 E.01753
G1 X168.506 Y77.473 E.54123
G1 X168.111 Y77.473 E.01753
G1 X168.111 Y65.271 E.54123
G1 X167.716 Y65.271 E.01753
G1 X167.716 Y77.473 E.54123
G1 X167.321 Y77.473 E.01753
G1 X167.321 Y65.271 E.54123
G1 X166.926 Y65.271 E.01753
G1 X166.925 Y77.473 E.54123
G1 X166.53 Y77.473 E.01753
G1 X166.53 Y65.271 E.54123
G1 X166.135 Y65.271 E.01753
G1 X166.135 Y77.473 E.54123
G1 X165.74 Y77.473 E.01753
G1 X165.74 Y65.271 E.54123
G1 X165.345 Y65.271 E.01753
G1 X165.345 Y77.473 E.54123
G1 X164.95 Y77.473 E.01753
G1 X164.95 Y65.271 E.54123
G1 X164.555 Y65.271 E.01753
G1 X164.555 Y77.633 E.54832
M204 S1000
;WIPE_START
G1 F8640
G1 X164.555 Y71.873 E-1.33
;WIPE_END
G1 E-.07 F2100
G1 Z.5 F720
G1 X123.365 Y84.683 F10800
G1 Z.3 F720
G1 E1.4 F2100
M204 S800
;TYPE:Perimeter
;WIDTH:0.42
G1 F1200
G1 X123.571 Y84.621 E.00955
G1 X123.75 Y84.428 E.01167
G1 X123.814 Y84.174 E.0116
G1 X123.814 Y55.408 E1.27593
G1 X162.782 Y55.408 E1.72845
G1 X162.782 Y108.176 E2.34055
M73 P0 R109
G1 X121.814 Y108.176 E1.81716
G1 X121.814 Y84.708 E1.04095
G1 X123.307 Y84.7 E.06625
M204 S1000
G1 X123.28 Y84.352 F10800
M204 S800
;TYPE:External perimeter
G1 F1200
G1 X123.4 Y84.306 E.0057
G1 X123.458 Y84.174 E.00637
G1 X123.458 Y55.052 E1.29171
G1 X163.138 Y55.052 E1.76
G1 X163.138 Y108.532 E2.37209
G1 X121.458 Y108.532 E1.84871
G1 X121.458 Y84.352 E1.0725
G1 X123.22 Y84.352 E.07816
M204 S1000
G1 X123.403 Y84.39 F10800
;WIPE_START
G1 F8640
G1 X123.4 Y84.306 E-.04289
G1 X123.458 Y84.174 E-.03316
G1 X123.458 Y78.744 E-1.25396
;WIPE_END
G1 E-.07 F2100
G1 Z.5 F720
G1 X162.676 Y56.236 F10800
G1 Z.3 F720
G1 E1.4 F2100
M204 S800
;TYPE:Solid infill
;WIDTH:0.421305
G1 F1200
G1 X162.114 Y55.674 E.03536
G1 X161.609 Y55.674 E.02247
G1 X162.516 Y56.581 E.05706
G1 X162.516 Y57.085 E.02247
G1 X161.105 Y55.674 E.08884
G1 X160.6 Y55.674 E.02247
G1 X162.516 Y57.59 E.12062
G1 X162.516 Y58.095 E.02247
G1 X160.095 Y55.674 E.1524
G1 X159.59 Y55.674 E.02247
G1 X162.516 Y58.6 E.18418
G1 X162.516 Y59.105 E.02247
G1 X159.086 Y55.674 E.21596
G1 X158.581 Y55.674 E.02247
G1 X162.516 Y59.609 E.24774
G1 X162.516 Y60.114 E.02247
G1 X158.076 Y55.674 E.27951
G1 X157.571 Y55.674 E.02247
G1 X162.516 Y60.619 E.31129
G1 X162.516 Y61.124 E.02247
G1 X157.067 Y55.674 E.34307
G1 X156.562 Y55.674 E.02247
G1 X162.516 Y61.628 E.37485
G1 X162.516 Y62.133 E.02247
G1 X156.057 Y55.674 E.40663
G1 X155.552 Y55.674 E.02247
G1 X162.516 Y62.638 E.43841
G1 X162.516 Y63.143 E.02247
G1 X155.047 Y55.674 E.47019
G1 X154.543 Y55.674 E.02247
G1 X162.516 Y63.647 E.50197
G1 X162.516 Y64.152 E.02247
G1 X154.038 Y55.674 E.53374
G1 X153.533 Y55.674 E.02247
G1 X162.516 Y64.657 E.56552
G1 X162.516 Y65.162 E.02247
M73 P1 R109
M73 Q1 S111
G1 X153.028 Y55.674 E.5973
G1 X152.524 Y55.674 E.02247
G1 X162.516 Y65.667 E.62908
G1 X162.516 Y66.171 E.02247
G1 X152.019 Y55.674 E.66086
G1 X151.514 Y55.674 E.02247
G1 X162.516 Y66.676 E.69264
G1 X162.516 Y67.181 E.02247
G1 X151.009 Y55.674 E.72442
G1 X150.505 Y55.674 E.02247
G1 X162.516 Y67.686 E.7562
G1 X162.516 Y68.19 E.02247
G1 X150 Y55.674 E.78797
G1 X149.495 Y55.674 E.02247
G1 X162.516 Y68.695 E.81975
G1 X162.516 Y69.2 E.02247
G1 X148.99 Y55.674 E.85153
G1 X148.485 Y55.674 E.02247
G1 X162.516 Y69.705 E.88331
G1 X162.516 Y70.209 E.02247
G1 X147.981 Y55.674 E.91509
G1 X147.476 Y55.674 E.02247
G1 X162.516 Y70.714 E.94687
G1 X162.516 Y71.219 E.02247
G1 X146.971 Y55.674 E.97865
G1 X146.466 Y55.674 E.02247
G1 X162.516 Y71.724 E1.01043
G1 X162.516 Y72.228 E.02247
G1 X145.962 Y55.674 E1.0422
G1 X145.457 Y55.674 E.02247
G1 X162.516 Y72.733 E1.07398
G1 X162.516 Y73.238 E.02247
G1 X144.952 Y55.674 E1.10576
G1 X144.447 Y55.674 E.02247
G1 X162.516 Y73.743 E1.13754
G1 X162.516 Y74.248 E.02247
M73 Q1 S110
G1 X143.943 Y55.674 E1.16932
G1 X143.438 Y55.674 E.02247
G1 X162.516 Y74.752 E1.2011
G1 X162.516 Y75.257 E.02247
G1 X142.933 Y55.674 E1.23288
G1 X142.428 Y55.674 E.02247
G1 X162.516 Y75.762 E1.26465
G1 X162.516 Y76.267 E.02247
G1 X141.924 Y55.674 E1.29643
G1 X141.419 Y55.674 E.02247
G1 X162.516 Y76.771 E1.32821
G1 X162.516 Y77.276 E.02247
G1 X140.914 Y55.674 E1.35999
G1 X140.409 Y55.674 E.02247
G1 X162.516 Y77.781 E1.39177
G1 X162.516 Y78.286 E.02247
G1 X139.904 Y55.674 E1.42355
G1 X139.4 Y55.674 E.02247
G1 X162.516 Y78.79 E1.45533
G1 X162.516 Y79.295 E.02247
G1 X138.895 Y55.674 E1.48711
G1 X138.39 Y55.674 E.02247
G1 X162.516 Y79.8 E1.51888
G1 X162.516 Y80.305 E.02247
M73 P1 R108
G1 X137.885 Y55.674 E1.55066
G1 X137.381 Y55.674 E.02247
G1 X162.516 Y80.81 E1.58244
G1 X162.516 Y81.314 E.02247
G1 X136.876 Y55.674 E1.61422
G1 X136.371 Y55.674 E.02247
G1 X162.516 Y81.819 E1.646
G1 X162.516 Y82.324 E.02247
G1 X135.866 Y55.674 E1.67778
G1 X135.362 Y55.674 E.02247
G1 X162.516 Y82.829 E1.70956
G1 X162.516 Y83.333 E.02247
G1 X134.857 Y55.674 E1.74134
G1 X134.352 Y55.674 E.02247
G1 X162.516 Y83.838 E1.77311
G1 X162.516 Y84.343 E.02247
G1 X133.847 Y55.674 E1.80489
G1 X133.342 Y55.674 E.02247
G1 X162.516 Y84.848 E1.83667
G1 X162.516 Y85.352 E.02247
G1 X132.838 Y55.674 E1.86845
G1 X132.333 Y55.674 E.02247
G1 X162.516 Y85.857 E1.90023
G1 X162.516 Y86.362 E.02247
G1 X131.828 Y55.674 E1.93201
G1 X131.323 Y55.674 E.02247
G1 X162.516 Y86.867 E1.96379
G1 X162.516 Y87.371 E.02247
G1 X130.819 Y55.674 E1.99557
G1 X130.314 Y55.674 E.02247
M73 P2 R108
M73 Q2 S110
G1 X162.516 Y87.876 E2.02734
G1 X162.516 Y88.381 E.02247
G1 X129.809 Y55.674 E2.05912
G1 X129.304 Y55.674 E.02247
G1 X162.516 Y88.886 E2.0909
G1 X162.516 Y89.391 E.02247
G1 X128.8 Y55.674 E2.12268
G1 X128.295 Y55.674 E.02247
G1 X162.516 Y89.895 E2.15446
G1 X162.516 Y90.4 E.02247
M73 Q2 S109
G1 X127.79 Y55.674 E2.18624
G1 X127.285 Y55.674 E.02247
G1 X162.516 Y90.905 E2.21802
G1 X162.516 Y91.41 E.02247
G1 X126.781 Y55.674 E2.2498
G1 X126.276 Y55.674 E.02247
G1 X162.516 Y91.914 E2.28157
G1 X162.516 Y92.419 E.02247
G1 X125.771 Y55.674 E2.31335
G1 X125.266 Y55.674 E.02247
G1 X162.516 Y92.924 E2.34513
G1 X162.516 Y93.429 E.02247
G1 X124.761 Y55.674 E2.37691
G1 X124.257 Y55.674 E.02247
M73 P2 R107
G1 X162.516 Y93.933 E2.40869
G1 X162.516 Y94.438 E.02247
G1 X124.08 Y56.003 E2.41979
G1 X124.08 Y56.508 E.02247
G1 X162.516 Y94.943 E2.41979
G1 X162.516 Y95.448 E.02247
G1 X124.08 Y57.012 E2.41979
G1 X124.08 Y57.517 E.02247
G1 X162.516 Y95.953 E2.41979
G1 X162.516 Y96.457 E.02247
G1 X124.08 Y58.022 E2.41979
G1 X124.08 Y58.527 E.02247
G1 X162.516 Y96.962 E2.41979
G1 X162.516 Y97.467 E.02247
G1 X124.08 Y59.031 E2.41979
G1 X124.08 Y59.536 E.02247
G1 X162.516 Y97.972 E2.41979
G1 X162.516 Y98.476 E.02247
G1 X124.08 Y60.041 E2.41979
G1 X124.08 Y60.546 E.02247
G1 X162.516 Y98.981 E2.41979
G1 X162.516 Y99.486 E.02247
G1 X124.08 Y61.05 E2.41979
G1 X124.08 Y61.555 E.02247
G1 X162.516 Y99.991 E2.41979
G1 X162.516 Y100.495 E.02247
M73 P3 R107
G1 X124.08 Y62.06 E2.4198
G1 X124.08 Y62.565 E.02247
M73 Q3 S109
G1 X162.516 Y101 E2.4198
G1 X162.516 Y101.505 E.02247
M73 Q3 S108
G1 X124.08 Y63.069 E2.4198
G1 X124.08 Y63.574 E.02247
G1 X162.516 Y102.01 E2.4198
G1 X162.516 Y102.514 E.02247
G1 X124.08 Y64.079 E2.4198
G1 X124.08 Y64.584 E.02247
G1 X162.516 Y103.019 E2.4198
G1 X162.516 Y103.524 E.02247
G1 X124.08 Y65.088 E2.4198
G1 X124.08 Y65.593 E.02247
G1 X162.516 Y104.029 E2.4198
G1 X162.516 Y104.534 E.02247
G1 X124.08 Y66.098 E2.4198
G1 X124.08 Y66.603 E.02247
M73 P3 R106
G1 X162.516 Y105.038 E2.4198
G1 X162.516 Y105.543 E.02247
G1 X124.08 Y67.107 E2.4198
G1 X124.08 Y67.612 E.02247
G1 X162.516 Y106.048 E2.4198
G1 X162.516 Y106.553 E.02247
G1 X124.08 Y68.117 E2.4198
G1 X124.08 Y68.622 E.02247
G1 X162.516 Y107.057 E2.4198
G1 X162.516 Y107.562 E.02247
G1 X124.08 Y69.126 E2.41981
G1 X124.08 Y69.631 E.02247
G1 X162.359 Y107.91 E2.40991
G1 X161.854 Y107.91 E.02247
G1 X124.08 Y70.136 E2.37813
G1 X124.08 Y70.641 E.02247
G1 X161.349 Y107.91 E2.34635
G1 X160.844 Y107.91 E.02247
G1 X124.08 Y71.146 E2.31457
G1 X124.08 Y71.65 E.02247
G1 X160.339 Y107.91 E2.2828
G1 X159.835 Y107.91 E.02247
G1 X124.08 Y72.155 E2.25102
G1 X124.08 Y72.66 E.02247
G1 X159.33 Y107.91 E2.21924
G1 X158.825 Y107.91 E.02247
G1 X124.08 Y73.165 E2.18746
G1 X124.08 Y73.669 E.02247
G1 X158.32 Y107.91 E2.15568
G1 X157.816 Y107.91 E.02247
M73 Q3 S107
G1 X124.08 Y74.174 E2.12391
G1 X124.08 Y74.679 E.02247
M73 P4 R106
G1 X157.311 Y107.91 E2.09213
G1 X156.806 Y107.91 E.02247
M73 Q4 S107
G1 X124.08 Y75.184 E2.06035
G1 X124.08 Y75.688 E.02247
G1 X156.301 Y107.91 E2.02857
G1 X155.797 Y107.91 E.02247
G1 X124.08 Y76.193 E1.99679
G1 X124.08 Y76.698 E.02247
G1 X155.292 Y107.91 E1.96502
G1 X154.787 Y107.91 E.02247
G1 X124.08 Y77.203 E1.93324
G1 X124.08 Y77.707 E.02247
G1 X154.282 Y107.91 E1.90146
G1 X153.778 Y107.91 E.02247
M73 P4 R105
G1 X124.08 Y78.212 E1.86968
G1 X124.08 Y78.717 E.02247
G1 X153.273 Y107.91 E1.8379
G1 X152.768 Y107.91 E.02247
G1 X124.08 Y79.222 E1.80613
G1 X124.08 Y79.726 E.02247
G1 X152.263 Y107.91 E1.77435
G1 X151.758 Y107.91 E.02247
G1 X124.08 Y80.231 E1.74257
G1 X124.08 Y80.736 E.02247
G1 X151.254 Y107.91 E1.71079
G1 X150.749 Y107.91 E.02247
G1 X124.08 Y81.241 E1.67901
G1 X124.08 Y81.745 E.02247
G1 X150.244 Y107.91 E1.64724
G1 X149.739 Y107.91 E.02247
G1 X124.08 Y82.25 E1.61546
G1 X124.08 Y82.755 E.02247
G1 X149.235 Y107.91 E1.58368
G1 X148.73 Y107.91 E.02247
G1 X124.08 Y83.26 E1.5519
G1 X124.08 Y83.764 E.02247
G1 X148.225 Y107.91 E1.52012
G1 X147.72 Y107.91 E.02247
G1 X124.071 Y84.26 E1.48892
G1 X124.034 Y84.446 E.00846
G1 X123.937 Y84.631 E.00928
G1 X147.216 Y107.91 E1.46558
G1 X146.711 Y107.91 E.02247
G1 X123.67 Y84.869 E1.45059
G1 X123.549 Y84.929 E.00602
G1 X123.271 Y84.974 E.01254
G1 X146.206 Y107.91 E1.44395
G1 X145.701 Y107.91 E.02247
G1 X122.766 Y84.974 E1.44395
G1 X122.261 Y84.974 E.02247
G1 X145.196 Y107.91 E1.44395
G1 X144.692 Y107.91 E.02247
G1 X122.08 Y85.298 E1.42355
G1 X122.08 Y85.803 E.02247
G1 X144.187 Y107.91 E1.39177
G1 X143.682 Y107.91 E.02247
G1 X122.08 Y86.308 E1.35999
G1 X122.08 Y86.813 E.02247
G1 X143.177 Y107.91 E1.32821
G1 X142.673 Y107.91 E.02247
G1 X122.08 Y87.317 E1.29643
G1 X122.08 Y87.822 E.02247
G1 X142.168 Y107.91 E1.26465
G1 X141.663 Y107.91 E.02247
M73 Q4 S106
G1 X122.08 Y88.327 E1.23287
G1 X122.08 Y88.832 E.02247
G1 X141.158 Y107.91 E1.2011
G1 X140.654 Y107.91 E.02247
G1 X122.08 Y89.337 E1.16932
G1 X122.08 Y89.841 E.02247
G1 X140.149 Y107.91 E1.13754
G1 X139.644 Y107.91 E.02247
G1 X122.08 Y90.346 E1.10576
G1 X122.08 Y90.851 E.02247
M73 P5 R105
G1 X139.139 Y107.91 E1.07398
G1 X138.635 Y107.91 E.02247
G1 X122.08 Y91.356 E1.0422
G1 X122.08 Y91.86 E.02247
G1 X138.13 Y107.91 E1.01042
G1 X137.625 Y107.91 E.02247
G1 X122.08 Y92.365 E.97864
G1 X122.08 Y92.87 E.02247
M73 Q5 S106
G1 X137.12 Y107.91 E.94687
G1 X136.615 Y107.91 E.02247
G1 X122.08 Y93.375 E.91509
G1 X122.08 Y93.879 E.02247
G1 X136.111 Y107.91 E.88331
G1 X135.606 Y107.91 E.02247
G1 X122.08 Y94.384 E.85153
G1 X122.08 Y94.889 E.02247
G1 X135.101 Y107.91 E.81975
G1 X134.596 Y107.91 E.02247
G1 X122.08 Y95.394 E.78797
G1 X122.08 Y95.899 E.02247
M73 P5 R104
G1 X134.092 Y107.91 E.75619
G1 X133.587 Y107.91 E.02247
G1 X122.08 Y96.403 E.72441
G1 X122.08 Y96.908 E.02247
G1 X133.082 Y107.91 E.69264
G1 X132.577 Y107.91 E.02247
G1 X122.08 Y97.413 E.66086
G1 X122.08 Y97.918 E.02247
G1 X132.073 Y107.91 E.62908
G1 X131.568 Y107.91 E.02247
G1 X122.08 Y98.422 E.5973
G1 X122.08 Y98.927 E.02247
G1 X131.063 Y107.91 E.56552
G1 X130.558 Y107.91 E.02247
G1 X122.08 Y99.432 E.53374
G1 X122.08 Y99.937 E.02247
G1 X130.053 Y107.91 E.50196
G1 X129.549 Y107.91 E.02247
G1 X122.08 Y100.441 E.47018
G1 X122.08 Y100.946 E.02247
G1 X129.044 Y107.91 E.43841
G1 X128.539 Y107.91 E.02247
G1 X122.08 Y101.451 E.40663
G1 X122.08 Y101.956 E.02247
G1 X128.034 Y107.91 E.37485
G1 X127.53 Y107.91 E.02247
G1 X122.08 Y102.46 E.34307
G1 X122.08 Y102.965 E.02247
G1 X127.025 Y107.91 E.31129
G1 X126.52 Y107.91 E.02247
G1 X122.08 Y103.47 E.27951
G1 X122.08 Y103.975 E.02247
G1 X126.015 Y107.91 E.24773
G1 X125.511 Y107.91 E.02247
G1 X122.08 Y104.48 E.21595
G1 X122.08 Y104.984 E.02247
G1 X125.006 Y107.91 E.18418
G1 X124.501 Y107.91 E.02247
G1 X122.08 Y105.489 E.1524
G1 X122.08 Y105.994 E.02247
G1 X123.996 Y107.91 E.12062
G1 X123.492 Y107.91 E.02247
G1 X122.08 Y106.499 E.08884
G1 X122.08 Y107.003 E.02247
G1 X122.987 Y107.91 E.05706
G1 X122.482 Y107.91 E.02247
G1 X121.92 Y107.348 E.03536
M204 S1000
; stop printing object 6L_hip-Body.stl id:0 copy 0
; printing object 6R_hip-Body.stl id:1 copy 0
;WIPE_START
G1 F8640
G1 X122.482 Y107.91 E-.18339
G1 X122.987 Y107.91 E-.11655
G1 X122.08 Y107.003 E-.29596
G1 X122.08 Y106.499 E-.11655
