; generated by PrusaSlicer 2.5.0 on 2023-03-01 at 18:08:21 UTC


;
;
; 

; external perimeters extrusion width = 0.60mm
; perimeters extrusion width = 0.50mm
; infill extrusion width = 0.50mm
; solid infill extrusion width = 0.50mm
; top infill extrusion width = 0.45mm
; first layer extrusion width = 0.42mm

; external perimeters extrusion width = 0.60mm
; perimeters extrusion width = 0.50mm
; infill extrusion width = 0.50mm
; solid infill extrusion width = 0.50mm
; top infill extrusion width = 0.45mm
; first layer extrusion width = 0.42mm

M73 P0 R107
M73 Q0 S108
M201 X1000 Y1000 Z200 E5000 ; sets maximum accelerations, mm/sec^2
M203 X200 Y200 Z12 E120 ; sets maximum feedrates, mm / sec
M204 P1250 R1250 T1250 ; sets acceleration (P, T) and retract acceleration (R), mm/sec^2
M205 X8.00 Y8.00 Z0.40 E4.50 ; sets the jerk limits, mm/sec
M205 S0 T0 ; sets the minimum extruding and travel feed rate, mm/sec
M107 ; disable fan
;TYPE:Custom
M862.3 P "MK3S" ; printer model check
M862.1 P0.4 ; nozzle diameter check
M115 U3.11.0 ; tell printer latest fw version
G90 ; use absolute coordinates
M83 ; extruder relative mode
M104 S240 ; set extruder temp
M140 S95 ; set bed temp
M190 S95 ; wait for bed temp
M109 S240 ; wait for extruder temp
G28 W ; home all without mesh bed level
G80 ; mesh bed leveling

G1 Z0.2 F720
G1 Y-3 F1000 ; go outside print area
G92 E0
G1 X60 E9 F1000 ; intro line
G1 X100 E12.5 F1000 ; intro line

G92 E0
M221 S95

; Don't change E values below. Excessive value can damage the printer.

M907 E538 ; set extruder motor current
G21 ; set units to millimeters
G90 ; use absolute coordinates
M83 ; use relative distances for extrusion
M900 K0.08 ; Filament gcode LA 1.5
M900 K45 ; Filament gcode LA 1.0
M107 ; disable fan
;LAYER_CHANGE
;Z:0.3
;HEIGHT:0.3
;BEFORE_LAYER_CHANGE
G92 E0.0
;0.3


G1 E-1.4 F2100 ; retract
G1 Z.2 F720 ; lift Z
G1 Z.3 ; move to next layer (0)
;AFTER_LAYER_CHANGE
;0.3
G1 Z.5 ; lift Z
G1 X87.603 Y69.998 F10800 ; move to first skirt point
G1 Z.3 F720 ; restore layer Z
G1 E1.4 F2100 ;  ; unretract
M204 S800 ; adjust acceleration
;TYPE:Skirt/Brim
;WIDTH:0.42
G1 F1200
G1 X88.647 Y69.129 E.06024 ; skirt
G1 X89.556 Y68.942 E.04115 ; skirt
G1 X135.022 Y68.731 E2.01666 ; skirt
G1 X175.183 Y68.731 E1.78135 ; skirt
G1 X176.484 Y69.123 E.06024 ; skirt
G1 X177.352 Y70.167 E.06024 ; skirt
G1 X177.539 Y71.087 E.04163 ; skirt
G1 X177.539 Y125.587 E2.41734 ; skirt
G1 X177.422 Y126.524 E.0419 ; skirt
M73 Q0 S107
G1 X177.08 Y127.401 E.04171 ; skirt
G1 X176.576 Y128.121 E.03902 ; skirt
G1 X175.869 Y128.742 E.04171 ; skirt
G1 X174.843 Y129.235 E.05048 ; skirt
G1 X173.733 Y129.404 E.04981 ; skirt
G1 X129.94 Y129.615 E1.94249 ; skirt
G1 X91.028 Y129.615 E1.72591 ; skirt
G1 X90.091 Y129.498 E.0419 ; skirt
G1 X89.215 Y129.156 E.04171 ; skirt
G1 X88.494 Y128.652 E.03902 ; skirt
G1 X87.873 Y127.945 E.04172 ; skirt
G1 X87.38 Y126.92 E.05048 ; skirt
G1 X87.211 Y125.798 E.0503 ; skirt
G1 X87.211 Y71.298 E2.41734 ; skirt
G1 X87.585 Y70.055 E.05758 ; skirt
M204 S1000 ; adjust acceleration
; printing object 6L_NEW_hip-Body.stl id:0 copy 0
;WIPE_START
G1 F8640
G1 X88.647 Y69.129 E-.32524 ; wipe and retract
G1 X89.556 Y68.942 E-.21423 ; wipe and retract
G1 X92.98 Y68.927 E-.79053 ; wipe and retract
;WIPE_END
G1 E-.07 F2100 ; retract
G1 Z.5 F720 ; lift Z
G1 X135.344 Y101.125 F10800 ; move to first perimeter point
G1 Z.3 F720 ; restore layer Z
G1 E1.4 F2100 ;  ; unretract
M204 S800 ; adjust acceleration
;TYPE:Perimeter
;WIDTH:0.42
G1 F1200
G1 X135.558 Y101.058 E.00993 ; perimeter
G1 X135.716 Y100.887 E.01035 ; perimeter
G1 X135.788 Y100.619 E.01227 ; perimeter
G1 X135.788 Y71.853 E1.27593 ; perimeter
G1 X173.675 Y71.853 E1.68046 ; perimeter
G1 X173.664 Y125.54 E2.38127 ; perimeter
G1 X134.913 Y125.54 E1.71879 ; perimeter
G1 X134.87 Y125.503 E.00254 ; perimeter
G1 X134.87 Y101.153 E1.08003 ; perimeter
G1 X135.287 Y101.143 E.01851 ; perimeter
M204 S1000 ; adjust acceleration
G1 X135.254 Y100.797 F10800 ; move to first perimeter point
M204 S800 ; adjust acceleration
;TYPE:External perimeter
G1 F1200
G1 X135.392 Y100.731 E.00678 ; perimeter
G1 X135.432 Y100.619 E.00528 ; perimeter
G1 X135.432 Y71.497 E1.29171 ; perimeter
G1 X174.03 Y71.497 E1.71201 ; perimeter
M73 P0 R106
G1 X174.03 Y125.528 E2.39654 ; perimeter
G1 X174.01 Y125.687 E.00709 ; perimeter
G1 X173.895 Y125.83 E.00818 ; perimeter
G1 X173.7 Y125.895 E.0091 ; perimeter
G1 X134.913 Y125.895 E1.72038 ; perimeter
G1 X134.743 Y125.871 E.00762 ; perimeter
G1 X134.58 Y125.767 E.00858 ; perimeter
G1 X134.514 Y125.557 E.00978 ; perimeter
G1 X134.514 Y100.797 E1.09822 ; perimeter
G1 X135.194 Y100.797 E.03017 ; perimeter
M204 S1000 ; adjust acceleration
G1 X135.403 Y100.833 F10800 ; move inwards before travel
;WIPE_START
G1 F8640
G1 X135.392 Y100.731 E-.04816 ; wipe and retract
G1 X135.432 Y100.619 E-.02748 ; wipe and retract
G1 X135.432 Y95.187 E-1.25436 ; wipe and retract
;WIPE_END
G1 E-.07 F2100 ; retract
G1 Z.5 F720 ; lift Z
G1 X173.568 Y72.679 F10800 ; move to first infill point
G1 Z.3 F720 ; restore layer Z
G1 E1.4 F2100 ;  ; unretract
M204 S800 ; adjust acceleration
;TYPE:Solid infill
;WIDTH:0.420393
G1 F1200
G1 X173.008 Y72.119 E.03515 ; infill
G1 X172.505 Y72.119 E.02236 ; infill
G1 X173.408 Y73.023 E.05671 ; infill
G1 X173.408 Y73.526 E.02236 ; infill
G1 X172.001 Y72.119 E.08833 ; infill
G1 X171.498 Y72.119 E.02236 ; infill
G1 X173.408 Y74.029 E.11995 ; infill
G1 X173.408 Y74.533 E.02236 ; infill
G1 X170.994 Y72.119 E.15156 ; infill
G1 X170.491 Y72.119 E.02236 ; infill
G1 X173.408 Y75.036 E.18318 ; infill
G1 X173.408 Y75.54 E.02236 ; infill
G1 X169.987 Y72.119 E.2148 ; infill
G1 X169.484 Y72.119 E.02236 ; infill
G1 X173.408 Y76.043 E.24641 ; infill
G1 X173.408 Y76.547 E.02236 ; infill
G1 X168.98 Y72.119 E.27803 ; infill
G1 X168.477 Y72.119 E.02236 ; infill
G1 X173.408 Y77.05 E.30965 ; infill
G1 X173.408 Y77.554 E.02236 ; infill
G1 X167.973 Y72.119 E.34126 ; infill
G1 X167.47 Y72.119 E.02236 ; infill
G1 X173.408 Y78.057 E.37288 ; infill
G1 X173.408 Y78.561 E.02236 ; infill
G1 X166.966 Y72.119 E.4045 ; infill
G1 X166.463 Y72.119 E.02236 ; infill
G1 X173.408 Y79.064 E.43611 ; infill
G1 X173.408 Y79.568 E.02236 ; infill
G1 X165.959 Y72.119 E.46773 ; infill
G1 X165.456 Y72.119 E.02236 ; infill
G1 X173.408 Y80.071 E.49935 ; infill
G1 X173.408 Y80.575 E.02236 ; infill
G1 X164.953 Y72.119 E.53096 ; infill
G1 X164.449 Y72.119 E.02236 ; infill
G1 X173.408 Y81.078 E.56258 ; infill
G1 X173.408 Y81.582 E.02236 ; infill
G1 X163.946 Y72.119 E.5942 ; infill
G1 X163.442 Y72.119 E.02236 ; infill
G1 X173.408 Y82.085 E.62581 ; infill
G1 X173.408 Y82.589 E.02236 ; infill
G1 X162.939 Y72.119 E.65743 ; infill
G1 X162.435 Y72.119 E.02236 ; infill
G1 X173.408 Y83.092 E.68905 ; infill
G1 X173.408 Y83.596 E.02236 ; infill
G1 X161.932 Y72.119 E.72066 ; infill
G1 X161.428 Y72.119 E.02236 ; infill
G1 X173.408 Y84.099 E.75228 ; infill
G1 X173.408 Y84.603 E.02236 ; infill
G1 X160.925 Y72.119 E.7839 ; infill
G1 X160.421 Y72.119 E.02236 ; infill
G1 X173.408 Y85.106 E.81551 ; infill
G1 X173.408 Y85.609 E.02236 ; infill
G1 X159.918 Y72.119 E.84713 ; infill
G1 X159.414 Y72.119 E.02236 ; infill
G1 X173.408 Y86.113 E.87874 ; infill
G1 X173.408 Y86.616 E.02236 ; infill
G1 X158.911 Y72.119 E.91036 ; infill
G1 X158.407 Y72.119 E.02236 ; infill
G1 X173.408 Y87.12 E.94198 ; infill
G1 X173.408 Y87.623 E.02236 ; infill
G1 X157.904 Y72.119 E.97359 ; infill
G1 X157.4 Y72.119 E.02236 ; infill
G1 X173.408 Y88.127 E1.00521 ; infill
G1 X173.408 Y88.63 E.02236 ; infill
G1 X156.897 Y72.119 E1.03683 ; infill
G1 X156.393 Y72.119 E.02236 ; infill
G1 X173.408 Y89.134 E1.06844 ; infill
G1 X173.408 Y89.637 E.02236 ; infill
G1 X155.89 Y72.119 E1.10006 ; infill
G1 X155.386 Y72.119 E.02236 ; infill
M73 P1 R106
M73 Q1 S107
G1 X173.408 Y90.141 E1.13168 ; infill
G1 X173.408 Y90.644 E.02236 ; infill
G1 X154.883 Y72.119 E1.16329 ; infill
G1 X154.38 Y72.119 E.02236 ; infill
G1 X173.408 Y91.148 E1.19491 ; infill
G1 X173.408 Y91.651 E.02236 ; infill
G1 X153.876 Y72.119 E1.22653 ; infill
G1 X153.373 Y72.119 E.02236 ; infill
G1 X173.408 Y92.155 E1.25814 ; infill
G1 X173.408 Y92.658 E.02236 ; infill
G1 X152.869 Y72.119 E1.28976 ; infill
G1 X152.366 Y72.119 E.02236 ; infill
M73 Q1 S106
G1 X173.408 Y93.162 E1.32138 ; infill
G1 X173.408 Y93.665 E.02236 ; infill
G1 X151.862 Y72.119 E1.35299 ; infill
G1 X151.359 Y72.119 E.02236 ; infill
G1 X173.408 Y94.169 E1.38461 ; infill
G1 X173.408 Y94.672 E.02236 ; infill
G1 X150.855 Y72.119 E1.41623 ; infill
G1 X150.352 Y72.119 E.02236 ; infill
G1 X173.408 Y95.176 E1.44784 ; infill
G1 X173.408 Y95.679 E.02236 ; infill
G1 X149.848 Y72.119 E1.47946 ; infill
G1 X149.345 Y72.119 E.02236 ; infill
G1 X173.408 Y96.182 E1.51108 ; infill
G1 X173.408 Y96.686 E.02236 ; infill
G1 X148.841 Y72.119 E1.54269 ; infill
G1 X148.338 Y72.119 E.02236 ; infill
G1 X173.408 Y97.189 E1.57431 ; infill
G1 X173.408 Y97.693 E.02236 ; infill
G1 X147.834 Y72.119 E1.60593 ; infill
G1 X147.331 Y72.119 E.02236 ; infill
G1 X173.408 Y98.196 E1.63754 ; infill
G1 X173.408 Y98.7 E.02236 ; infill
G1 X146.827 Y72.119 E1.66916 ; infill
G1 X146.324 Y72.119 E.02236 ; infill
M73 P1 R105
G1 X173.408 Y99.203 E1.70078 ; infill
G1 X173.408 Y99.707 E.02236 ; infill
G1 X145.82 Y72.119 E1.73239 ; infill
G1 X145.317 Y72.119 E.02236 ; infill
G1 X173.408 Y100.21 E1.76401 ; infill
G1 X173.408 Y100.714 E.02236 ; infill
G1 X144.813 Y72.119 E1.79562 ; infill
G1 X144.31 Y72.119 E.02236 ; infill
G1 X173.408 Y101.217 E1.82724 ; infill
G1 X173.408 Y101.721 E.02236 ; infill
G1 X143.807 Y72.119 E1.85886 ; infill
G1 X143.303 Y72.119 E.02236 ; infill
G1 X173.408 Y102.224 E1.89047 ; infill
G1 X173.408 Y102.728 E.02236 ; infill
G1 X142.8 Y72.119 E1.92209 ; infill
G1 X142.296 Y72.119 E.02236 ; infill
G1 X173.408 Y103.231 E1.95371 ; infill
G1 X173.408 Y103.735 E.02236 ; infill
G1 X141.793 Y72.119 E1.98532 ; infill
G1 X141.289 Y72.119 E.02236 ; infill
G1 X173.408 Y104.238 E2.01694 ; infill
G1 X173.408 Y104.742 E.02236 ; infill
G1 X140.786 Y72.119 E2.04856 ; infill
G1 X140.282 Y72.119 E.02236 ; infill
G1 X173.408 Y105.245 E2.08017 ; infill
G1 X173.408 Y105.749 E.02236 ; infill
G1 X139.779 Y72.119 E2.11179 ; infill
G1 X139.275 Y72.119 E.02236 ; infill
G1 X173.408 Y106.252 E2.14341 ; infill
G1 X173.408 Y106.755 E.02236 ; infill
G1 X138.772 Y72.119 E2.17502 ; infill
G1 X138.268 Y72.119 E.02236 ; infill
M73 P2 R105
M73 Q2 S106
G1 X173.408 Y107.259 E2.20664 ; infill
G1 X173.408 Y107.762 E.02236 ; infill
G1 X137.765 Y72.119 E2.23826 ; infill
G1 X137.261 Y72.119 E.02236 ; infill
M73 Q2 S105
G1 X173.408 Y108.266 E2.26987 ; infill
G1 X173.408 Y108.769 E.02236 ; infill
G1 X136.758 Y72.119 E2.30149 ; infill
G1 X136.254 Y72.119 E.02236 ; infill
G1 X173.408 Y109.273 E2.33311 ; infill
G1 X173.408 Y109.776 E.02236 ; infill
G1 X136.054 Y72.423 E2.34566 ; infill
G1 X136.054 Y72.926 E.02236 ; infill
G1 X173.408 Y110.28 E2.34566 ; infill
G1 X173.408 Y110.783 E.02236 ; infill
G1 X136.054 Y73.43 E2.34566 ; infill
G1 X136.054 Y73.933 E.02236 ; infill
G1 X173.408 Y111.287 E2.34566 ; infill
G1 X173.408 Y111.79 E.02236 ; infill
M73 P2 R104
G1 X136.054 Y74.437 E2.34566 ; infill
G1 X136.054 Y74.94 E.02236 ; infill
G1 X173.408 Y112.294 E2.34566 ; infill
G1 X173.408 Y112.797 E.02236 ; infill
G1 X136.054 Y75.444 E2.34566 ; infill
G1 X136.054 Y75.947 E.02236 ; infill
G1 X173.408 Y113.301 E2.34566 ; infill
G1 X173.408 Y113.804 E.02236 ; infill
G1 X136.054 Y76.451 E2.34566 ; infill
G1 X136.054 Y76.954 E.02236 ; infill
G1 X173.408 Y114.308 E2.34566 ; infill
G1 X173.408 Y114.811 E.02236 ; infill
G1 X136.054 Y77.458 E2.34566 ; infill
G1 X136.054 Y77.961 E.02236 ; infill
G1 X173.408 Y115.315 E2.34566 ; infill
G1 X173.408 Y115.818 E.02236 ; infill
G1 X136.054 Y78.465 E2.34566 ; infill
G1 X136.054 Y78.968 E.02236 ; infill
G1 X173.408 Y116.322 E2.34566 ; infill
G1 X173.408 Y116.825 E.02236 ; infill
G1 X136.054 Y79.472 E2.34566 ; infill
G1 X136.054 Y79.975 E.02236 ; infill
G1 X173.408 Y117.329 E2.34566 ; infill
G1 X173.408 Y117.832 E.02236 ; infill
G1 X136.054 Y80.479 E2.34566 ; infill
G1 X136.054 Y80.982 E.02236 ; infill
G1 X173.408 Y118.335 E2.34566 ; infill
G1 X173.408 Y118.839 E.02236 ; infill
G1 X136.054 Y81.485 E2.34566 ; infill
G1 X136.054 Y81.989 E.02236 ; infill
M73 P3 R104
M73 Q2 S104
G1 X173.408 Y119.342 E2.34566 ; infill
G1 X173.408 Y119.846 E.02236 ; infill
M73 Q3 S104
G1 X136.054 Y82.492 E2.34566 ; infill
G1 X136.054 Y82.996 E.02236 ; infill
G1 X173.408 Y120.349 E2.34566 ; infill
G1 X173.408 Y120.853 E.02236 ; infill
G1 X136.054 Y83.499 E2.34566 ; infill
G1 X136.054 Y84.003 E.02236 ; infill
G1 X173.408 Y121.356 E2.34566 ; infill
G1 X173.408 Y121.86 E.02236 ; infill
G1 X136.054 Y84.506 E2.34566 ; infill
G1 X136.054 Y85.01 E.02236 ; infill
G1 X173.408 Y122.363 E2.34566 ; infill
G1 X173.408 Y122.867 E.02236 ; infill
G1 X136.054 Y85.513 E2.34566 ; infill
G1 X136.054 Y86.017 E.02236 ; infill
M73 P3 R103
G1 X173.408 Y123.37 E2.34566 ; infill
G1 X173.408 Y123.874 E.02236 ; infill
G1 X136.054 Y86.52 E2.34566 ; infill
G1 X136.054 Y87.024 E.02236 ; infill
G1 X173.408 Y124.377 E2.34566 ; infill
G1 X173.408 Y124.881 E.02236 ; infill
G1 X136.054 Y87.527 E2.34566 ; infill
G1 X136.054 Y88.031 E.02236 ; infill
G1 X173.297 Y125.273 E2.33868 ; infill
G1 X172.793 Y125.273 E.02236 ; infill
G1 X136.054 Y88.534 E2.30706 ; infill
G1 X136.054 Y89.038 E.02236 ; infill
G1 X172.29 Y125.273 E2.27544 ; infill
G1 X171.786 Y125.273 E.02236 ; infill
G1 X136.054 Y89.541 E2.24383 ; infill
G1 X136.054 Y90.045 E.02236 ; infill
G1 X171.283 Y125.273 E2.21221 ; infill
G1 X170.779 Y125.273 E.02236 ; infill
G1 X136.054 Y90.548 E2.18059 ; infill
G1 X136.054 Y91.052 E.02236 ; infill
G1 X170.276 Y125.273 E2.14898 ; infill
G1 X169.772 Y125.273 E.02236 ; infill
G1 X136.054 Y91.555 E2.11736 ; infill
G1 X136.054 Y92.058 E.02236 ; infill
G1 X169.269 Y125.273 E2.08574 ; infill
G1 X168.765 Y125.273 E.02236 ; infill
G1 X136.054 Y92.562 E2.05413 ; infill
G1 X136.054 Y93.065 E.02236 ; infill
G1 X168.262 Y125.273 E2.02251 ; infill
G1 X167.758 Y125.273 E.02236 ; infill
M73 Q3 S103
G1 X136.054 Y93.569 E1.99089 ; infill
G1 X136.054 Y94.072 E.02236 ; infill
G1 X167.255 Y125.273 E1.95928 ; infill
G1 X166.751 Y125.273 E.02236 ; infill
M73 P4 R103
G1 X136.054 Y94.576 E1.92766 ; infill
G1 X136.054 Y95.079 E.02236 ; infill
M73 Q4 S103
G1 X166.248 Y125.273 E1.89605 ; infill
G1 X165.744 Y125.273 E.02236 ; infill
G1 X136.054 Y95.583 E1.86443 ; infill
G1 X136.054 Y96.086 E.02236 ; infill
G1 X165.241 Y125.273 E1.83281 ; infill
G1 X164.737 Y125.273 E.02236 ; infill
G1 X136.054 Y96.59 E1.8012 ; infill
G1 X136.054 Y97.093 E.02236 ; infill
G1 X164.234 Y125.273 E1.76958 ; infill
G1 X163.731 Y125.273 E.02236 ; infill
G1 X136.054 Y97.597 E1.73796 ; infill
G1 X136.054 Y98.1 E.02236 ; infill
G1 X163.227 Y125.273 E1.70635 ; infill
G1 X162.724 Y125.273 E.02236 ; infill
M73 P4 R102
G1 X136.054 Y98.604 E1.67473 ; infill
G1 X136.054 Y99.107 E.02236 ; infill
G1 X162.22 Y125.273 E1.64311 ; infill
G1 X161.717 Y125.273 E.02236 ; infill
G1 X136.054 Y99.611 E1.6115 ; infill
G1 X136.054 Y100.114 E.02236 ; infill
G1 X161.213 Y125.273 E1.57988 ; infill
G1 X160.71 Y125.273 E.02236 ; infill
G1 X136.054 Y100.618 E1.54826 ; infill
G1 X136.031 Y100.814 E.00877 ; infill
G1 X135.949 Y101.016 E.00969 ; infill
G1 X160.206 Y125.273 E1.52324 ; infill
G1 X159.703 Y125.273 E.02236 ; infill
G1 X135.709 Y101.279 E1.50673 ; infill
G1 X135.327 Y101.401 E.01779 ; infill
G1 X159.199 Y125.273 E1.49908 ; infill
G1 X158.696 Y125.273 E.02236 ; infill
G1 X135.136 Y101.713 E1.47945 ; infill
G1 X135.136 Y102.217 E.02236 ; infill
G1 X158.192 Y125.273 E1.44783 ; infill
G1 X157.689 Y125.273 E.02236 ; infill
G1 X135.136 Y102.72 E1.41622 ; infill
G1 X135.136 Y103.224 E.02236 ; infill
G1 X157.185 Y125.273 E1.3846 ; infill
G1 X156.682 Y125.273 E.02236 ; infill
G1 X135.136 Y103.727 E1.35299 ; infill
G1 X135.136 Y104.231 E.02236 ; infill
G1 X156.178 Y125.273 E1.32137 ; infill
G1 X155.675 Y125.273 E.02236 ; infill
G1 X135.136 Y104.734 E1.28975 ; infill
G1 X135.136 Y105.238 E.02236 ; infill
