; generated by PrusaSlicer 2.5.0 on 2023-03-11 at 22:25:36 UTC


;
;
; 

; external perimeters extrusion width = 0.60mm
; perimeters extrusion width = 0.50mm
; infill extrusion width = 0.50mm
; solid infill extrusion width = 0.50mm
; top infill extrusion width = 0.45mm
; support material extrusion width = 0.38mm
; first layer extrusion width = 0.42mm

; external perimeters extrusion width = 0.60mm
; perimeters extrusion width = 0.50mm
; infill extrusion width = 0.50mm
; solid infill extrusion width = 0.50mm
; top infill extrusion width = 0.45mm
; support material extrusion width = 0.38mm
; first layer extrusion width = 0.42mm

M73 P0 R111
M73 Q0 S112
M201 X1000 Y1000 Z200 E5000 ; sets maximum accelerations, mm/sec^2
M203 X200 Y200 Z12 E120 ; sets maximum feedrates, mm / sec
M204 P1250 R1250 T1250 ; sets acceleration (P, T) and retract acceleration (R), mm/sec^2
M205 X8.00 Y8.00 Z0.40 E4.50 ; sets the jerk limits, mm/sec
M205 S0 T0 ; sets the minimum extruding and travel feed rate, mm/sec
M107 ; disable fan
;TYPE:Custom
M862.3 P "MK3S" ; printer model check
M862.1 P0.4 ; nozzle diameter check
M115 U3.11.0 ; tell printer latest fw version
G90 ; use absolute coordinates
M83 ; extruder relative mode
M104 S240 ; set extruder temp
M140 S95 ; set bed temp
M190 S95 ; wait for bed temp
M109 S240 ; wait for extruder temp
G28 W ; home all without mesh bed level
G80 ; mesh bed leveling

G1 Z0.2 F720
G1 Y-3 F1000 ; go outside print area
G92 E0
G1 X60 E9 F1000 ; intro line
G1 X100 E12.5 F1000 ; intro line

G92 E0
M221 S95

; Don't change E values below. Excessive value can damage the printer.

M907 E538 ; set extruder motor current
G21 ; set units to millimeters
G90 ; use absolute coordinates
M83 ; use relative distances for extrusion
M900 K0.08 ; Filament gcode LA 1.5
M900 K45 ; Filament gcode LA 1.0
M107 ; disable fan
;LAYER_CHANGE
;Z:0.3
;HEIGHT:0.3
;BEFORE_LAYER_CHANGE
G92 E0.0
;0.3


G1 E-1.4 F2100 ; retract
G1 Z.2 F720 ; lift Z
G1 Z.3 ; move to next layer (0)
;AFTER_LAYER_CHANGE
;0.3
G1 Z.5 ; lift Z
G1 X70.046 Y49.713 F10800 ; move to first skirt point
G1 Z.3 F720 ; restore layer Z
G1 E1.4 F2100 ;  ; unretract
M204 S800 ; adjust acceleration
;TYPE:Skirt/Brim
;WIDTH:0.42
G1 F1200
G1 X80.054 Y38.405 E.66981 ; skirt
G1 X81.807 Y37.61 E.08537 ; skirt
G1 X127.686 Y37.396 E2.03497 ; skirt
G1 X167.858 Y37.396 E1.78184 ; skirt
G1 X169.622 Y38.19 E.08581 ; skirt
G1 X179.63 Y49.499 E.66981 ; skirt
G1 X180.222 Y51.06 E.07405 ; skirt
G1 X180.222 Y63.902 E.56962 ; skirt
G1 X180.105 Y64.635 E.03291 ; skirt
M73 P0 R110
G1 X170.014 Y95.468 E1.43897 ; skirt
G1 X169.755 Y96.065 E.02887 ; skirt
G1 X169.416 Y96.585 E.02752 ; skirt
G1 X168.953 Y97.085 E.03022 ; skirt
G1 X168.461 Y97.461 E.02752 ; skirt
G1 X167.518 Y97.899 E.0461 ; skirt
G1 X166.408 Y98.068 E.0498 ; skirt
G1 X122.191 Y98.283 E1.96128 ; skirt
G1 X83.279 Y98.283 E1.72591 ; skirt
G1 X82.342 Y98.165 E.0419 ; skirt
G1 X81.466 Y97.824 E.04171 ; skirt
G1 X80.745 Y97.319 E.03902 ; skirt
G1 X80.069 Y96.53 E.0461 ; skirt
G1 X79.665 Y95.693 E.0412 ; skirt
G1 X69.571 Y64.849 E1.43948 ; skirt
G1 X69.454 Y64.117 E.03291 ; skirt
G1 X69.454 Y51.274 E.56962 ; skirt
G1 X70.024 Y49.769 E.07139 ; skirt
M204 S1000 ; adjust acceleration
; printing object 6L_hip_bearing-Body.stl id:0 copy 0
;WIPE_START
G1 F8640
G1 X73.836 Y45.451 E-1.33 ; wipe and retract
;WIPE_END
G1 E-.07 F2100 ; retract
G1 Z.5 F720 ; lift Z
G1 X177.866 Y63.902 F10800 ; move to first support material point
G1 Z.3 F720 ; restore layer Z
G1 E1.4 F2100 ;  ; unretract
M204 S800 ; adjust acceleration
;TYPE:Support material
G1 F1200
G1 X167.685 Y63.902 E.45159 ; support material
G1 X167.685 Y51.06 E.56962 ; support material
G1 X177.866 Y51.06 E.45159 ; support material
G1 X177.866 Y63.849 E.56725 ; support material
M204 S1000 ; adjust acceleration
G1 X177.501 Y63.742 F10800 ; move to first support material point
M204 S800 ; adjust acceleration
G1 F1200
G1 X177.501 Y51.38 E.54832 ; support material
G1 X177.106 Y51.38 E.01753 ; support material
M73 Q0 S111
G1 X177.106 Y63.582 E.54123 ; support material
G1 X176.711 Y63.582 E.01753 ; support material
G1 X176.711 Y51.38 E.54123 ; support material
G1 X176.316 Y51.38 E.01753 ; support material
G1 X176.316 Y63.582 E.54123 ; support material
G1 X175.92 Y63.582 E.01753 ; support material
G1 X175.92 Y51.38 E.54123 ; support material
G1 X175.525 Y51.38 E.01753 ; support material
G1 X175.525 Y63.582 E.54123 ; support material
G1 X175.13 Y63.582 E.01753 ; support material
G1 X175.13 Y51.38 E.54123 ; support material
G1 X174.735 Y51.38 E.01753 ; support material
G1 X174.735 Y63.582 E.54123 ; support material
G1 X174.34 Y63.582 E.01753 ; support material
G1 X174.34 Y51.38 E.54123 ; support material
G1 X173.945 Y51.38 E.01753 ; support material
G1 X173.945 Y63.582 E.54123 ; support material
G1 X173.55 Y63.582 E.01753 ; support material
G1 X173.55 Y51.38 E.54123 ; support material
G1 X173.154 Y51.38 E.01753 ; support material
G1 X173.154 Y63.582 E.54123 ; support material
G1 X172.759 Y63.582 E.01753 ; support material
G1 X172.759 Y51.38 E.54123 ; support material
G1 X172.364 Y51.38 E.01753 ; support material
G1 X172.364 Y63.582 E.54123 ; support material
G1 X171.969 Y63.582 E.01753 ; support material
G1 X171.969 Y51.38 E.54123 ; support material
G1 X171.574 Y51.38 E.01753 ; support material
G1 X171.574 Y63.582 E.54123 ; support material
G1 X171.179 Y63.582 E.01753 ; support material
G1 X171.179 Y51.38 E.54123 ; support material
G1 X170.784 Y51.38 E.01753 ; support material
G1 X170.784 Y63.582 E.54123 ; support material
G1 X170.389 Y63.582 E.01753 ; support material
G1 X170.389 Y51.38 E.54123 ; support material
G1 X169.993 Y51.38 E.01753 ; support material
G1 X169.993 Y63.582 E.54123 ; support material
G1 X169.598 Y63.582 E.01753 ; support material
G1 X169.598 Y51.38 E.54123 ; support material
G1 X169.203 Y51.38 E.01753 ; support material
G1 X169.203 Y63.582 E.54123 ; support material
G1 X168.808 Y63.582 E.01753 ; support material
G1 X168.808 Y51.38 E.54123 ; support material
G1 X168.413 Y51.38 E.01753 ; support material
G1 X168.413 Y63.582 E.54123 ; support material
G1 X168.018 Y63.582 E.01753 ; support material
G1 X168.018 Y51.22 E.54832 ; support material
M204 S1000 ; adjust acceleration
;WIPE_START
G1 F8640
G1 X168.018 Y56.98 E-1.33 ; wipe and retract
;WIPE_END
G1 E-.07 F2100 ; retract
G1 Z.5 F720 ; lift Z
G1 X128.018 Y69.789 F10800 ; move to first perimeter point
G1 Z.3 F720 ; restore layer Z
G1 E1.4 F2100 ;  ; unretract
M204 S800 ; adjust acceleration
;TYPE:Perimeter
;WIDTH:0.42
G1 F1200
G1 X128.232 Y69.722 E.00993 ; perimeter
G1 X128.39 Y69.551 E.01035 ; perimeter
G1 X128.462 Y69.284 E.01227 ; perimeter
G1 X128.462 Y40.517 E1.27593 ; perimeter
G1 X166.349 Y40.517 E1.68046 ; perimeter
G1 X166.339 Y94.204 E2.38127 ; perimeter
G1 X127.588 Y94.204 E1.71879 ; perimeter
G1 X127.544 Y94.167 E.00254 ; perimeter
G1 X127.544 Y69.817 E1.08003 ; perimeter
G1 X127.961 Y69.807 E.01851 ; perimeter
M204 S1000 ; adjust acceleration
G1 X127.929 Y69.461 F10800 ; move to first perimeter point
M204 S800 ; adjust acceleration
;TYPE:External perimeter
G1 F1200
G1 X128.067 Y69.396 E.00678 ; perimeter
G1 X128.107 Y69.284 E.00528 ; perimeter
G1 X128.107 Y40.161 E1.29171 ; perimeter
G1 X166.705 Y40.161 E1.71201 ; perimeter
G1 X166.705 Y94.192 E2.39654 ; perimeter
G1 X166.685 Y94.351 E.00709 ; perimeter
G1 X166.569 Y94.495 E.00818 ; perimeter
G1 X166.375 Y94.559 E.0091 ; perimeter
G1 X127.588 Y94.559 E1.72038 ; perimeter
G1 X127.418 Y94.535 E.00762 ; perimeter
G1 X127.254 Y94.432 E.00858 ; perimeter
G1 X127.188 Y94.221 E.00978 ; perimeter
G1 X127.188 Y69.461 E1.09822 ; perimeter
G1 X127.869 Y69.461 E.03017 ; perimeter
M204 S1000 ; adjust acceleration
G1 X128.077 Y69.497 F10800 ; move inwards before travel
;WIPE_START
G1 F8640
G1 X128.067 Y69.396 E-.04816 ; wipe and retract
G1 X128.107 Y69.284 E-.02748 ; wipe and retract
G1 X128.107 Y63.851 E-1.25436 ; wipe and retract
;WIPE_END
G1 E-.07 F2100 ; retract
G1 Z.5 F720 ; lift Z
G1 X166.242 Y41.343 F10800 ; move to first infill point
G1 Z.3 F720 ; restore layer Z
G1 E1.4 F2100 ;  ; unretract
M204 S800 ; adjust acceleration
;TYPE:Solid infill
;WIDTH:0.420393
G1 F1200
G1 X165.683 Y40.784 E.03515 ; infill
G1 X165.179 Y40.784 E.02236 ; infill
G1 X166.082 Y41.687 E.05671 ; infill
G1 X166.082 Y42.19 E.02236 ; infill
G1 X164.676 Y40.784 E.08833 ; infill
G1 X164.172 Y40.784 E.02236 ; infill
G1 X166.082 Y42.694 E.11995 ; infill
G1 X166.082 Y43.197 E.02236 ; infill
G1 X163.669 Y40.784 E.15156 ; infill
G1 X163.165 Y40.784 E.02236 ; infill
G1 X166.082 Y43.701 E.18318 ; infill
G1 X166.082 Y44.204 E.02236 ; infill
G1 X162.662 Y40.784 E.2148 ; infill
G1 X162.158 Y40.784 E.02236 ; infill
G1 X166.082 Y44.708 E.24641 ; infill
G1 X166.082 Y45.211 E.02236 ; infill
G1 X161.655 Y40.784 E.27803 ; infill
G1 X161.151 Y40.784 E.02236 ; infill
G1 X166.082 Y45.715 E.30965 ; infill
G1 X166.082 Y46.218 E.02236 ; infill
G1 X160.648 Y40.784 E.34126 ; infill
G1 X160.144 Y40.784 E.02236 ; infill
G1 X166.082 Y46.722 E.37288 ; infill
G1 X166.082 Y47.225 E.02236 ; infill
G1 X159.641 Y40.784 E.4045 ; infill
G1 X159.137 Y40.784 E.02236 ; infill
G1 X166.082 Y47.729 E.43611 ; infill
G1 X166.082 Y48.232 E.02236 ; infill
G1 X158.634 Y40.784 E.46773 ; infill
G1 X158.13 Y40.784 E.02236 ; infill
M73 P1 R110
M73 Q1 S111
G1 X166.082 Y48.735 E.49935 ; infill
G1 X166.082 Y49.239 E.02236 ; infill
G1 X157.627 Y40.784 E.53096 ; infill
G1 X157.124 Y40.784 E.02236 ; infill
G1 X166.082 Y49.742 E.56258 ; infill
G1 X166.082 Y50.246 E.02236 ; infill
G1 X156.62 Y40.784 E.5942 ; infill
G1 X156.117 Y40.784 E.02236 ; infill
G1 X166.082 Y50.749 E.62581 ; infill
G1 X166.082 Y51.253 E.02236 ; infill
G1 X155.613 Y40.784 E.65743 ; infill
G1 X155.11 Y40.784 E.02236 ; infill
G1 X166.082 Y51.756 E.68905 ; infill
G1 X166.082 Y52.26 E.02236 ; infill
G1 X154.606 Y40.784 E.72066 ; infill
G1 X154.103 Y40.784 E.02236 ; infill
G1 X166.082 Y52.763 E.75228 ; infill
G1 X166.082 Y53.267 E.02236 ; infill
M73 P1 R109
G1 X153.599 Y40.784 E.7839 ; infill
G1 X153.096 Y40.784 E.02236 ; infill
G1 X166.082 Y53.77 E.81551 ; infill
G1 X166.082 Y54.274 E.02236 ; infill
G1 X152.592 Y40.784 E.84713 ; infill
G1 X152.089 Y40.784 E.02236 ; infill
G1 X166.082 Y54.777 E.87874 ; infill
G1 X166.082 Y55.281 E.02236 ; infill
G1 X151.585 Y40.784 E.91036 ; infill
G1 X151.082 Y40.784 E.02236 ; infill
G1 X166.082 Y55.784 E.94198 ; infill
G1 X166.082 Y56.288 E.02236 ; infill
G1 X150.578 Y40.784 E.97359 ; infill
G1 X150.075 Y40.784 E.02236 ; infill
G1 X166.082 Y56.791 E1.00521 ; infill
G1 X166.082 Y57.295 E.02236 ; infill
G1 X149.571 Y40.784 E1.03683 ; infill
G1 X149.068 Y40.784 E.02236 ; infill
G1 X166.082 Y57.798 E1.06844 ; infill
G1 X166.082 Y58.302 E.02236 ; infill
G1 X148.564 Y40.784 E1.10006 ; infill
G1 X148.061 Y40.784 E.02236 ; infill
G1 X166.082 Y58.805 E1.13168 ; infill
G1 X166.082 Y59.308 E.02236 ; infill
M73 Q1 S110
G1 X147.557 Y40.784 E1.16329 ; infill
G1 X147.054 Y40.784 E.02236 ; infill
G1 X166.082 Y59.812 E1.19491 ; infill
G1 X166.082 Y60.315 E.02236 ; infill
G1 X146.551 Y40.784 E1.22653 ; infill
G1 X146.047 Y40.784 E.02236 ; infill
G1 X166.082 Y60.819 E1.25814 ; infill
G1 X166.082 Y61.322 E.02236 ; infill
G1 X145.544 Y40.784 E1.28976 ; infill
G1 X145.04 Y40.784 E.02236 ; infill
G1 X166.082 Y61.826 E1.32138 ; infill
G1 X166.082 Y62.329 E.02236 ; infill
G1 X144.537 Y40.784 E1.35299 ; infill
G1 X144.033 Y40.784 E.02236 ; infill
G1 X166.082 Y62.833 E1.38461 ; infill
G1 X166.082 Y63.336 E.02236 ; infill
G1 X143.53 Y40.784 E1.41623 ; infill
G1 X143.026 Y40.784 E.02236 ; infill
G1 X166.082 Y63.84 E1.44784 ; infill
G1 X166.082 Y64.343 E.02236 ; infill
G1 X142.523 Y40.784 E1.47946 ; infill
G1 X142.019 Y40.784 E.02236 ; infill
G1 X166.082 Y64.847 E1.51108 ; infill
G1 X166.082 Y65.35 E.02236 ; infill
G1 X141.516 Y40.784 E1.54269 ; infill
G1 X141.012 Y40.784 E.02236 ; infill
G1 X166.082 Y65.854 E1.57431 ; infill
G1 X166.082 Y66.357 E.02236 ; infill
G1 X140.509 Y40.784 E1.60593 ; infill
G1 X140.005 Y40.784 E.02236 ; infill
G1 X166.082 Y66.861 E1.63754 ; infill
G1 X166.082 Y67.364 E.02236 ; infill
G1 X139.502 Y40.784 E1.66916 ; infill
G1 X138.998 Y40.784 E.02236 ; infill
G1 X166.082 Y67.868 E1.70078 ; infill
G1 X166.082 Y68.371 E.02236 ; infill
G1 X138.495 Y40.784 E1.73239 ; infill
G1 X137.991 Y40.784 E.02236 ; infill
G1 X166.082 Y68.875 E1.76401 ; infill
G1 X166.082 Y69.378 E.02236 ; infill
G1 X137.488 Y40.784 E1.79562 ; infill
G1 X136.984 Y40.784 E.02236 ; infill
G1 X166.082 Y69.882 E1.82724 ; infill
G1 X166.082 Y70.385 E.02236 ; infill
G1 X136.481 Y40.784 E1.85886 ; infill
G1 X135.978 Y40.784 E.02236 ; infill
G1 X166.082 Y70.888 E1.89047 ; infill
G1 X166.082 Y71.392 E.02236 ; infill
G1 X135.474 Y40.784 E1.92209 ; infill
G1 X134.971 Y40.784 E.02236 ; infill
G1 X166.082 Y71.895 E1.95371 ; infill
G1 X166.082 Y72.399 E.02236 ; infill
M73 P2 R108
G1 X134.467 Y40.784 E1.98532 ; infill
G1 X133.964 Y40.784 E.02236 ; infill
M73 Q2 S110
G1 X166.082 Y72.902 E2.01694 ; infill
G1 X166.082 Y73.406 E.02236 ; infill
G1 X133.46 Y40.784 E2.04856 ; infill
G1 X132.957 Y40.784 E.02236 ; infill
G1 X166.082 Y73.909 E2.08017 ; infill
G1 X166.082 Y74.413 E.02236 ; infill
G1 X132.453 Y40.784 E2.11179 ; infill
G1 X131.95 Y40.784 E.02236 ; infill
G1 X166.082 Y74.916 E2.14341 ; infill
G1 X166.082 Y75.42 E.02236 ; infill
M73 Q2 S109
G1 X131.446 Y40.784 E2.17502 ; infill
G1 X130.943 Y40.784 E.02236 ; infill
G1 X166.082 Y75.923 E2.20664 ; infill
G1 X166.082 Y76.427 E.02236 ; infill
G1 X130.439 Y40.784 E2.23826 ; infill
G1 X129.936 Y40.784 E.02236 ; infill
G1 X166.082 Y76.93 E2.26987 ; infill
G1 X166.082 Y77.434 E.02236 ; infill
G1 X129.432 Y40.784 E2.30149 ; infill
G1 X128.929 Y40.784 E.02236 ; infill
G1 X166.082 Y77.937 E2.33311 ; infill
G1 X166.082 Y78.441 E.02236 ; infill
G1 X128.729 Y41.087 E2.34566 ; infill
G1 X128.729 Y41.591 E.02236 ; infill
G1 X166.082 Y78.944 E2.34566 ; infill
G1 X166.082 Y79.448 E.02236 ; infill
G1 X128.729 Y42.094 E2.34566 ; infill
G1 X128.729 Y42.598 E.02236 ; infill
G1 X166.082 Y79.951 E2.34566 ; infill
G1 X166.082 Y80.455 E.02236 ; infill
G1 X128.729 Y43.101 E2.34566 ; infill
G1 X128.729 Y43.605 E.02236 ; infill
G1 X166.082 Y80.958 E2.34566 ; infill
G1 X166.082 Y81.461 E.02236 ; infill
G1 X128.729 Y44.108 E2.34566 ; infill
G1 X128.729 Y44.611 E.02236 ; infill
G1 X166.082 Y81.965 E2.34566 ; infill
G1 X166.082 Y82.468 E.02236 ; infill
G1 X128.729 Y45.115 E2.34566 ; infill
G1 X128.729 Y45.618 E.02236 ; infill
G1 X166.082 Y82.972 E2.34566 ; infill
G1 X166.082 Y83.475 E.02236 ; infill
G1 X128.729 Y46.122 E2.34566 ; infill
G1 X128.729 Y46.625 E.02236 ; infill
G1 X166.082 Y83.979 E2.34566 ; infill
G1 X166.082 Y84.482 E.02236 ; infill
M73 P2 R107
G1 X128.729 Y47.129 E2.34566 ; infill
G1 X128.729 Y47.632 E.02236 ; infill
G1 X166.082 Y84.986 E2.34566 ; infill
G1 X166.082 Y85.489 E.02236 ; infill
M73 P3 R107
G1 X128.729 Y48.136 E2.34566 ; infill
G1 X128.729 Y48.639 E.02236 ; infill
M73 Q3 S109
G1 X166.082 Y85.993 E2.34566 ; infill
G1 X166.082 Y86.496 E.02236 ; infill
M73 Q3 S108
G1 X128.729 Y49.143 E2.34566 ; infill
G1 X128.729 Y49.646 E.02236 ; infill
G1 X166.082 Y87 E2.34566 ; infill
G1 X166.082 Y87.503 E.02236 ; infill
G1 X128.729 Y50.15 E2.34566 ; infill
G1 X128.729 Y50.653 E.02236 ; infill
G1 X166.082 Y88.007 E2.34566 ; infill
G1 X166.082 Y88.51 E.02236 ; infill
G1 X128.729 Y51.157 E2.34566 ; infill
G1 X128.729 Y51.66 E.02236 ; infill
G1 X166.082 Y89.014 E2.34566 ; infill
G1 X166.082 Y89.517 E.02236 ; infill
G1 X128.729 Y52.164 E2.34566 ; infill
G1 X128.729 Y52.667 E.02236 ; infill
G1 X166.082 Y90.021 E2.34566 ; infill
G1 X166.082 Y90.524 E.02236 ; infill
G1 X128.729 Y53.171 E2.34566 ; infill
G1 X128.729 Y53.674 E.02236 ; infill
G1 X166.082 Y91.028 E2.34566 ; infill
G1 X166.082 Y91.531 E.02236 ; infill
G1 X128.729 Y54.178 E2.34566 ; infill
G1 X128.729 Y54.681 E.02236 ; infill
G1 X166.082 Y92.034 E2.34566 ; infill
G1 X166.082 Y92.538 E.02236 ; infill
G1 X128.729 Y55.184 E2.34566 ; infill
G1 X128.729 Y55.688 E.02236 ; infill
G1 X166.082 Y93.041 E2.34566 ; infill
