; generated by PrusaSlicer 2.5.0 on 2022-11-19 at 11:16:21 UTC

; 

; external perimeters extrusion width = 0.60mm
; perimeters extrusion width = 0.50mm
; infill extrusion width = 0.50mm
; solid infill extrusion width = 0.50mm
; top infill extrusion width = 0.45mm
; support material extrusion width = 0.38mm
; first layer extrusion width = 0.42mm

; external perimeters extrusion width = 0.60mm
; perimeters extrusion width = 0.50mm
; infill extrusion width = 0.50mm
; solid infill extrusion width = 0.50mm
; top infill extrusion width = 0.45mm
; support material extrusion width = 0.38mm
; first layer extrusion width = 0.42mm

M73 P0 R110
M73 Q0 S111
M201 X1000 Y1000 Z200 E5000 ; sets maximum accelerations, mm/sec^2
M203 X200 Y200 Z12 E120 ; sets maximum feedrates, mm / sec
M204 P1250 R1250 T1250 ; sets acceleration (P, T) and retract acceleration (R), mm/sec^2
M205 X8.00 Y8.00 Z0.40 E4.50 ; sets the jerk limits, mm/sec
M205 S0 T0 ; sets the minimum extruding and travel feed rate, mm/sec
M107
;TYPE:Custom
M862.3 P "MK3S" ; printer model check
M862.1 P0.4 ; nozzle diameter check
M115 U3.10.1 ; tell printer latest fw version
G90 ; use absolute coordinates
M83 ; extruder relative mode
M104 S240 ; set extruder temp
M140 S95 ; set bed temp
M190 S95 ; wait for bed temp
M109 S240 ; wait for extruder temp
G28 W ; home all without mesh bed level
G80 ; mesh bed leveling
G1 Z0.2 F720
G1 Y-3 F1000 ; go outside print area
G92 E0
G1 X60 E9 F1000 ; intro line
G1 X100 E12.5 F1000 ; intro line
G92 E0
M221 S95

; Don't change E values below. Excessive value can damage the printer.

M907 E538 ; set extruder motor current
G21 ; set units to millimeters
G90 ; use absolute coordinates
M83 ; use relative distances for extrusion
M900 K0.08 ; Filament gcode LA 1.5
M900 K45 ; Filament gcode LA 1.0
M107
;LAYER_CHANGE
;Z:0.3
;HEIGHT:0.3
;BEFORE_LAYER_CHANGE
G92 E0.0
;0.3


G1 E-1.4 F2100
G1 Z.2 F720
G1 Z.3
;AFTER_LAYER_CHANGE
;0.3
G1 Z.5
G1 X78.07 Y83.229 F10800
G1 Z.3 F720
G1 E1.4 F2100
M204 S800
;TYPE:Skirt/Brim
;WIDTH:0.42
G1 F1200
G1 X88.181 Y73.744 E.61493
G1 X89.792 Y73.107 E.07683
G1 X178.32 Y73.075 E3.92662
G1 X179.931 Y73.713 E.07687
G1 X190.24 Y83.382 E.62691
G1 X190.984 Y85.1 E.08304
G1 X190.984 Y125.6 E1.79637
G1 X190.592 Y126.901 E.06024
G1 X189.548 Y127.769 E.06024
G1 X188.788 Y127.95 E.03463
G1 X159.331 Y129.956 E1.30961
G1 X108.784 Y129.988 E2.24199
G1 X79.324 Y127.982 E1.30974
G1 X78.053 Y127.503 E.06024
G1 X77.258 Y126.402 E.06024
G1 X77.129 Y125.632 E.03463
G1 X77.129 Y85.132 E1.79637
G1 X77.873 Y83.414 E.08304
G1 X78.026 Y83.27 E.00932
M204 S1000
; printing object 6L_hip-Body.stl id:0 copy 0
;WIPE_START
G1 F8640
G1 X82.227 Y79.33 E-1.33
;WIPE_END
G1 E-.07 F2100
G1 Z.5 F720
G1 X102.635 Y84.562 F10800
G1 Z.3 F720
G1 E1.4 F2100
M204 S800
;TYPE:Support material
G1 F1200
G1 X89.793 Y84.562 E.56962
G1 X89.793 Y75.463 E.40361
G1 X102.635 Y75.463 E.56962
G1 X102.635 Y84.509 E.40124
M204 S1000
G1 X102.288 Y84.402 F10800
M204 S800
G1 F1200
G1 X102.288 Y75.783 E.38231
G1 X101.893 Y75.783 E.01753
G1 X101.893 Y84.242 E.37522
G1 X101.498 Y84.242 E.01753
G1 X101.498 Y75.783 E.37522
G1 X101.103 Y75.783 E.01753
G1 X101.103 Y84.242 E.37522
G1 X100.707 Y84.242 E.01753
G1 X100.707 Y75.783 E.37522
G1 X100.312 Y75.783 E.01753
G1 X100.312 Y84.242 E.37522
G1 X99.917 Y84.242 E.01753
G1 X99.917 Y75.783 E.37522
G1 X99.522 Y75.783 E.01753
G1 X99.522 Y84.242 E.37522
G1 X99.127 Y84.242 E.01753
G1 X99.127 Y75.783 E.37522
G1 X98.732 Y75.783 E.01753
G1 X98.732 Y84.242 E.37522
G1 X98.337 Y84.242 E.01753
G1 X98.337 Y75.783 E.37522
G1 X97.941 Y75.783 E.01753
G1 X97.941 Y84.242 E.37522
G1 X97.546 Y84.242 E.01753
G1 X97.546 Y75.783 E.37522
G1 X97.151 Y75.783 E.01753
G1 X97.151 Y84.242 E.37522
G1 X96.756 Y84.242 E.01753
M73 P0 R109
G1 X96.756 Y75.783 E.37522
G1 X96.361 Y75.783 E.01753
G1 X96.361 Y84.242 E.37522
G1 X95.966 Y84.242 E.01753
G1 X95.966 Y75.783 E.37522
G1 X95.571 Y75.783 E.01753
G1 X95.571 Y84.242 E.37522
G1 X95.176 Y84.242 E.01753
G1 X95.176 Y75.783 E.37522
G1 X94.78 Y75.783 E.01753
G1 X94.78 Y84.242 E.37522
G1 X94.385 Y84.242 E.01753
G1 X94.385 Y75.783 E.37522
G1 X93.99 Y75.783 E.01753
G1 X93.99 Y84.242 E.37522
G1 X93.595 Y84.242 E.01753
G1 X93.595 Y75.783 E.37522
G1 X93.2 Y75.783 E.01753
G1 X93.2 Y84.242 E.37522
G1 X92.805 Y84.242 E.01753
G1 X92.805 Y75.783 E.37522
G1 X92.41 Y75.783 E.01753
G1 X92.41 Y84.242 E.37522
G1 X92.014 Y84.242 E.01753
G1 X92.014 Y75.783 E.37522
G1 X91.619 Y75.783 E.01753
G1 X91.619 Y84.242 E.37522
G1 X91.224 Y84.242 E.01753
G1 X91.224 Y75.783 E.37522
G1 X90.829 Y75.783 E.01753
G1 X90.829 Y84.242 E.37522
G1 X90.434 Y84.242 E.01753
G1 X90.434 Y75.623 E.38231
M204 S1000
;WIPE_START
G1 F8640
G1 X90.434 Y81.383 E-1.33
;WIPE_END
G1 E-.07 F2100
G1 Z.5 F720
G1 X109.525 Y125.315 F10800
G1 Z.3 F720
G1 E1.4 F2100
M204 S800
;TYPE:Perimeter
;WIDTH:0.42
G1 F1200
G1 X109.464 Y125.109 E.00955
G1 X109.27 Y124.931 E.01167
G1 X109.017 Y124.866 E.0116
G1 X80.25 Y124.866 E1.27593
G1 X80.25 Y85.898 E1.72845
G1 X133.019 Y85.898 E2.34055
G1 X133.019 Y126.866 E1.81716
G1 X109.55 Y126.866 E1.04095
M73 Q0 S110
G1 X109.542 Y125.373 E.06625
M204 S1000
G1 X109.194 Y125.4 F10800
M204 S800
;TYPE:External perimeter
G1 F1200
G1 X109.148 Y125.28 E.0057
G1 X109.017 Y125.222 E.00637
G1 X79.894 Y125.222 E1.29171
G1 X79.894 Y85.542 E1.76
G1 X133.374 Y85.542 E2.37209
G1 X133.374 Y127.222 E1.84871
G1 X109.194 Y127.222 E1.0725
G1 X109.194 Y125.46 E.07816
M204 S1000
G1 X109.233 Y125.277 F10800
;WIPE_START
G1 F8640
G1 X109.148 Y125.28 E-.04289
G1 X109.017 Y125.222 E-.03316
G1 X103.586 Y125.222 E-1.25396
;WIPE_END
G1 E-.07 F2100
G1 Z.5 F720
G1 X132.19 Y86.004 F10800
G1 Z.3 F720
G1 E1.4 F2100
M204 S800
;TYPE:Solid infill
;WIDTH:0.421379
G1 F1200
G1 X132.752 Y86.566 E.03538
G1 X132.752 Y87.071 E.02248
G1 X131.845 Y86.164 E.05709
G1 X131.341 Y86.164 E.02248
G1 X132.752 Y87.576 E.08888
G1 X132.752 Y88.081 E.02248
G1 X130.836 Y86.164 E.12067
G1 X130.331 Y86.164 E.02248
G1 X132.752 Y88.586 E.15247
G1 X132.752 Y89.091 E.02248
G1 X129.826 Y86.164 E.18426
G1 X129.321 Y86.164 E.02248
G1 X132.752 Y89.595 E.21605
G1 X132.752 Y90.1 E.02248
G1 X128.816 Y86.164 E.24784
G1 X128.311 Y86.164 E.02248
G1 X132.752 Y90.605 E.27963
G1 X132.752 Y91.11 E.02248
G1 X127.806 Y86.164 E.31143
G1 X127.302 Y86.164 E.02248
G1 X132.752 Y91.615 E.34322
G1 X132.752 Y92.12 E.02248
G1 X126.797 Y86.164 E.37501
G1 X126.292 Y86.164 E.02248
G1 X132.752 Y92.625 E.4068
G1 X132.752 Y93.13 E.02248
G1 X125.787 Y86.164 E.43859
G1 X125.282 Y86.164 E.02248
G1 X132.752 Y93.634 E.47039
G1 X132.752 Y94.139 E.02248
G1 X124.777 Y86.164 E.50218
G1 X124.272 Y86.164 E.02248
G1 X132.752 Y94.644 E.53397
G1 X132.752 Y95.149 E.02248
M73 P1 R109
M73 Q1 S110
G1 X123.767 Y86.164 E.56576
G1 X123.263 Y86.164 E.02248
G1 X132.752 Y95.654 E.59755
G1 X132.752 Y96.159 E.02248
G1 X122.758 Y86.164 E.62935
G1 X122.253 Y86.164 E.02248
G1 X132.752 Y96.664 E.66114
G1 X132.752 Y97.168 E.02248
G1 X121.748 Y86.164 E.69293
G1 X121.243 Y86.164 E.02248
G1 X132.752 Y97.673 E.72472
G1 X132.752 Y98.178 E.02248
G1 X120.738 Y86.164 E.75651
G1 X120.233 Y86.164 E.02248
G1 X132.752 Y98.683 E.78831
G1 X132.752 Y99.188 E.02248
G1 X119.728 Y86.164 E.8201
G1 X119.224 Y86.164 E.02248
G1 X132.752 Y99.693 E.85189
G1 X132.752 Y100.198 E.02248
G1 X118.719 Y86.164 E.88368
G1 X118.214 Y86.164 E.02248
G1 X132.752 Y100.703 E.91547
G1 X132.752 Y101.207 E.02248
G1 X117.709 Y86.164 E.94726
G1 X117.204 Y86.164 E.02248
G1 X132.752 Y101.712 E.97906
G1 X132.752 Y102.217 E.02248
G1 X116.699 Y86.164 E1.01085
G1 X116.194 Y86.164 E.02248
G1 X132.752 Y102.722 E1.04264
G1 X132.752 Y103.227 E.02248
G1 X115.69 Y86.164 E1.07443
G1 X115.185 Y86.164 E.02248
G1 X132.752 Y103.732 E1.10622
G1 X132.752 Y104.237 E.02248
G1 X114.68 Y86.164 E1.13802
G1 X114.175 Y86.164 E.02248
G1 X132.752 Y104.742 E1.16981
G1 X132.752 Y105.246 E.02248
G1 X113.67 Y86.164 E1.2016
G1 X113.165 Y86.164 E.02248
G1 X132.752 Y105.751 E1.23339
G1 X132.752 Y106.256 E.02248
G1 X112.66 Y86.164 E1.26518
G1 X112.155 Y86.164 E.02248
G1 X132.752 Y106.761 E1.29698
G1 X132.752 Y107.266 E.02248
M73 P1 R108
G1 X111.651 Y86.164 E1.32877
G1 X111.146 Y86.164 E.02248
G1 X132.752 Y107.771 E1.36056
G1 X132.752 Y108.276 E.02248
G1 X110.641 Y86.164 E1.39235
G1 X110.136 Y86.164 E.02248
G1 X132.752 Y108.781 E1.42414
G1 X132.752 Y109.285 E.02248
G1 X109.631 Y86.164 E1.45594
G1 X109.126 Y86.164 E.02248
G1 X132.752 Y109.79 E1.48773
G1 X132.752 Y110.295 E.02248
G1 X108.621 Y86.164 E1.51952
G1 X108.116 Y86.164 E.02248
G1 X132.752 Y110.8 E1.55131
G1 X132.752 Y111.305 E.02248
G1 X107.612 Y86.164 E1.5831
G1 X107.107 Y86.164 E.02248
M73 Q1 S109
G1 X132.752 Y111.81 E1.6149
G1 X132.752 Y112.315 E.02248
G1 X106.602 Y86.164 E1.64669
G1 X106.097 Y86.164 E.02248
G1 X132.752 Y112.819 E1.67848
G1 X132.752 Y113.324 E.02248
G1 X105.592 Y86.164 E1.71027
G1 X105.087 Y86.164 E.02248
G1 X132.752 Y113.829 E1.74206
G1 X132.752 Y114.334 E.02248
G1 X104.582 Y86.164 E1.77385
G1 X104.077 Y86.164 E.02248
G1 X132.752 Y114.839 E1.80565
G1 X132.752 Y115.344 E.02248
G1 X103.573 Y86.164 E1.83744
G1 X103.068 Y86.164 E.02248
G1 X132.752 Y115.849 E1.86923
G1 X132.752 Y116.354 E.02248
G1 X102.563 Y86.164 E1.90102
G1 X102.058 Y86.164 E.02248
G1 X132.752 Y116.858 E1.93281
G1 X132.752 Y117.363 E.02248
G1 X101.553 Y86.164 E1.96461
G1 X101.048 Y86.164 E.02248
G1 X132.752 Y117.868 E1.9964
G1 X132.752 Y118.373 E.02248
M73 P2 R108
M73 Q2 S109
G1 X100.543 Y86.164 E2.02819
G1 X100.039 Y86.164 E.02248
G1 X132.752 Y118.878 E2.05998
G1 X132.752 Y119.383 E.02248
G1 X99.534 Y86.164 E2.09177
G1 X99.029 Y86.164 E.02248
G1 X132.752 Y119.888 E2.12357
G1 X132.752 Y120.393 E.02248
G1 X98.524 Y86.164 E2.15536
G1 X98.019 Y86.164 E.02248
G1 X132.752 Y120.897 E2.18715
G1 X132.752 Y121.402 E.02248
G1 X97.514 Y86.164 E2.21894
G1 X97.009 Y86.164 E.02248
G1 X132.752 Y121.907 E2.25073
G1 X132.752 Y122.412 E.02248
M73 P2 R107
G1 X96.504 Y86.164 E2.28253
G1 X96 Y86.164 E.02248
G1 X132.752 Y122.917 E2.31432
G1 X132.752 Y123.422 E.02248
G1 X95.495 Y86.164 E2.34611
G1 X94.99 Y86.164 E.02248
G1 X132.752 Y123.927 E2.3779
G1 X132.752 Y124.432 E.02248
G1 X94.485 Y86.164 E2.40969
G1 X93.98 Y86.164 E.02248
G1 X132.752 Y124.936 E2.44149
G1 X132.752 Y125.441 E.02248
M73 Q2 S108
G1 X93.475 Y86.164 E2.47328
G1 X92.97 Y86.164 E.02248
G1 X132.752 Y125.946 E2.50507
G1 X132.752 Y126.451 E.02248
G1 X92.465 Y86.164 E2.53686
G1 X91.961 Y86.164 E.02248
G1 X132.396 Y126.6 E2.54623
G1 X131.891 Y126.6 E.02248
G1 X91.456 Y86.164 E2.54623
G1 X90.951 Y86.164 E.02248
G1 X131.386 Y126.6 E2.54623
G1 X130.881 Y126.6 E.02248
G1 X90.446 Y86.164 E2.54623
G1 X89.941 Y86.164 E.02248
G1 X130.376 Y126.6 E2.54623
G1 X129.872 Y126.6 E.02248
G1 X89.436 Y86.164 E2.54623
G1 X88.931 Y86.164 E.02248
G1 X129.367 Y126.6 E2.54623
G1 X128.862 Y126.6 E.02248
M73 P3 R107
G1 X88.426 Y86.164 E2.54623
G1 X87.922 Y86.164 E.02248
M73 Q3 S108
G1 X128.357 Y126.6 E2.54623
G1 X127.852 Y126.6 E.02248
G1 X87.417 Y86.164 E2.54623
G1 X86.912 Y86.164 E.02248
G1 X127.347 Y126.6 E2.54623
G1 X126.842 Y126.6 E.02248
G1 X86.407 Y86.164 E2.54623
G1 X85.902 Y86.164 E.02248
M73 P3 R106
G1 X126.337 Y126.6 E2.54623
G1 X125.833 Y126.6 E.02248
G1 X85.397 Y86.164 E2.54623
G1 X84.892 Y86.164 E.02248
G1 X125.328 Y126.6 E2.54623
G1 X124.823 Y126.6 E.02248
G1 X84.387 Y86.164 E2.54623
G1 X83.883 Y86.164 E.02248
G1 X124.318 Y126.6 E2.54623
G1 X123.813 Y126.6 E.02248
M73 Q3 S107
G1 X83.378 Y86.164 E2.54623
G1 X82.873 Y86.164 E.02248
G1 X123.308 Y126.6 E2.54623
G1 X122.803 Y126.6 E.02248
G1 X82.368 Y86.164 E2.54623
G1 X81.863 Y86.164 E.02248
G1 X122.298 Y126.6 E2.54623
G1 X121.794 Y126.6 E.02248
G1 X81.358 Y86.164 E2.54623
G1 X80.853 Y86.164 E.02248
G1 X121.289 Y126.6 E2.54623
G1 X120.784 Y126.6 E.02248
G1 X80.517 Y86.333 E2.53564
G1 X80.517 Y86.837 E.02248
G1 X120.279 Y126.6 E2.50385
G1 X119.774 Y126.6 E.02248
G1 X80.517 Y87.342 E2.47206
G1 X80.517 Y87.847 E.02248
G1 X119.269 Y126.6 E2.44026
G1 X118.764 Y126.6 E.02248
G1 X80.517 Y88.352 E2.40847
G1 X80.517 Y88.857 E.02248
G1 X118.26 Y126.6 E2.37668
G1 X117.755 Y126.6 E.02248
G1 X80.517 Y89.362 E2.34489
G1 X80.517 Y89.867 E.02248
G1 X117.25 Y126.6 E2.3131
G1 X116.745 Y126.6 E.02248
M73 P4 R106
G1 X80.517 Y90.372 E2.2813
G1 X80.517 Y90.876 E.02248
M73 Q4 S107
G1 X116.24 Y126.6 E2.24951
G1 X115.735 Y126.6 E.02248
M73 P4 R105
G1 X80.517 Y91.381 E2.21772
G1 X80.517 Y91.886 E.02248
G1 X115.23 Y126.6 E2.18593
G1 X114.725 Y126.6 E.02248
G1 X80.517 Y92.391 E2.15414
G1 X80.517 Y92.896 E.02248
G1 X114.221 Y126.6 E2.12234
G1 X113.716 Y126.6 E.02248
G1 X80.517 Y93.401 E2.09055
G1 X80.517 Y93.906 E.02248
G1 X113.211 Y126.6 E2.05876
G1 X112.706 Y126.6 E.02248
G1 X80.517 Y94.411 E2.02697
G1 X80.517 Y94.915 E.02248
M73 Q4 S106
G1 X112.201 Y126.6 E1.99518
G1 X111.696 Y126.6 E.02248
G1 X80.517 Y95.42 E1.96338
G1 X80.517 Y95.925 E.02248
G1 X111.191 Y126.6 E1.93159
G1 X110.686 Y126.6 E.02248
G1 X109.817 Y125.73 E.05477
G1 X109.817 Y126.235 E.02248
G1 X110.342 Y126.76 E.03305
M204 S1000
;WIPE_START
G1 F8640
G1 X109.817 Y126.235 E-.17141
G1 X109.817 Y125.73 E-.11658
G1 X110.686 Y126.6 E-.28402
G1 X111.191 Y126.6 E-.11658
G1 X109.227 Y124.636 E-.64141
;WIPE_END
G1 E-.07 F2100
G1 Z.5 F720
G1 X108.847 Y124.76 F10800
G1 Z.3 F720
G1 E1.4 F2100
M204 S800
G1 F1200
G1 X80.517 Y96.43 E1.78398
G1 X80.517 Y96.935 E.02248
G1 X108.182 Y124.6 E1.74211
G1 X107.677 Y124.6 E.02248
G1 X80.517 Y97.44 E1.71032
G1 X80.517 Y97.945 E.02248
G1 X107.172 Y124.6 E1.67852
G1 X106.668 Y124.6 E.02248
G1 X80.517 Y98.449 E1.64673
G1 X80.517 Y98.954 E.02248
G1 X106.163 Y124.6 E1.61494
G1 X105.658 Y124.6 E.02248
G1 X80.517 Y99.459 E1.58314
G1 X80.517 Y99.964 E.02248
G1 X105.153 Y124.6 E1.55135
G1 X104.648 Y124.6 E.02248
G1 X80.517 Y100.469 E1.51956
G1 X80.517 Y100.974 E.02248
G1 X104.143 Y124.6 E1.48777
G1 X103.638 Y124.6 E.02248
G1 X80.517 Y101.479 E1.45597
G1 X80.517 Y101.984 E.02248
G1 X103.133 Y124.6 E1.42418
G1 X102.629 Y124.6 E.02248
G1 X80.517 Y102.488 E1.39239
G1 X80.517 Y102.993 E.02248
G1 X102.124 Y124.6 E1.3606
G1 X101.619 Y124.6 E.02248
G1 X80.517 Y103.498 E1.3288
G1 X80.517 Y104.003 E.02248
G1 X101.114 Y124.6 E1.29701
G1 X100.609 Y124.6 E.02248
G1 X80.517 Y104.508 E1.26522
G1 X80.517 Y105.013 E.02248
G1 X100.104 Y124.6 E1.23343
G1 X99.599 Y124.6 E.02248
G1 X80.517 Y105.518 E1.20163
G1 X80.517 Y106.023 E.02248
G1 X99.094 Y124.6 E1.16984
G1 X98.589 Y124.6 E.02248
G1 X80.517 Y106.527 E1.13805
G1 X80.517 Y107.032 E.02248
M73 P5 R105
G1 X98.085 Y124.6 E1.10626
G1 X97.58 Y124.6 E.02248
M73 P5 R104
G1 X80.517 Y107.537 E1.07446
G1 X80.517 Y108.042 E.02248
G1 X97.075 Y124.6 E1.04267
M73 Q5 S106
G1 X96.57 Y124.6 E.02248
G1 X80.517 Y108.547 E1.01088
G1 X80.517 Y109.052 E.02248
G1 X96.065 Y124.6 E.97908
G1 X95.56 Y124.6 E.02248
G1 X80.517 Y109.557 E.94729
G1 X80.517 Y110.062 E.02248
G1 X95.055 Y124.6 E.9155
G1 X94.55 Y124.6 E.02248
G1 X80.517 Y110.566 E.88371
G1 X80.517 Y111.071 E.02248
G1 X94.045 Y124.6 E.85191
G1 X93.541 Y124.6 E.02248
G1 X80.517 Y111.576 E.82012
G1 X80.517 Y112.081 E.02248
G1 X93.036 Y124.6 E.78833
G1 X92.531 Y124.6 E.02248
G1 X80.517 Y112.586 E.75654
G1 X80.517 Y113.091 E.02248
G1 X92.026 Y124.6 E.72474
G1 X91.521 Y124.6 E.02248
G1 X80.517 Y113.596 E.69295
G1 X80.517 Y114.1 E.02248
G1 X91.016 Y124.6 E.66116
G1 X90.511 Y124.6 E.02248
M73 Q5 S105
G1 X80.517 Y114.605 E.62937
G1 X80.517 Y115.11 E.02248
G1 X90.006 Y124.6 E.59757
G1 X89.502 Y124.6 E.02248
G1 X80.517 Y115.615 E.56578
G1 X80.517 Y116.12 E.02248
G1 X88.997 Y124.6 E.53399
G1 X88.492 Y124.6 E.02248
G1 X80.517 Y116.625 E.50219
G1 X80.517 Y117.13 E.02248
G1 X87.987 Y124.6 E.4704
G1 X87.482 Y124.6 E.02248
G1 X80.517 Y117.635 E.43861
G1 X80.517 Y118.139 E.02248
G1 X86.977 Y124.6 E.40682
G1 X86.472 Y124.6 E.02248
G1 X80.517 Y118.644 E.37502
G1 X80.517 Y119.149 E.02248
G1 X85.967 Y124.6 E.34323
G1 X85.462 Y124.6 E.02248
G1 X80.517 Y119.654 E.31144
G1 X80.517 Y120.159 E.02248
G1 X84.958 Y124.6 E.27965
G1 X84.453 Y124.6 E.02248
G1 X80.517 Y120.664 E.24785
G1 X80.517 Y121.169 E.02248
G1 X83.948 Y124.6 E.21606
G1 X83.443 Y124.6 E.02248
G1 X80.517 Y121.674 E.18427
G1 X80.517 Y122.178 E.02248
