; generated by PrusaSlicer 2.5.0 on 2022-09-24 at 08:20:49 UTC

; 

; external perimeters extrusion width = 0.60mm
; perimeters extrusion width = 0.50mm
; infill extrusion width = 0.50mm
; solid infill extrusion width = 0.50mm
; top infill extrusion width = 0.45mm
; support material extrusion width = 0.38mm
; first layer extrusion width = 0.42mm

; external perimeters extrusion width = 0.60mm
; perimeters extrusion width = 0.50mm
; infill extrusion width = 0.50mm
; solid infill extrusion width = 0.50mm
; top infill extrusion width = 0.45mm
; support material extrusion width = 0.38mm
; first layer extrusion width = 0.42mm

M73 P0 R110
M73 Q0 S111
M201 X1000 Y1000 Z200 E5000 ; sets maximum accelerations, mm/sec^2
M203 X200 Y200 Z12 E120 ; sets maximum feedrates, mm / sec
M204 P1250 R1250 T1250 ; sets acceleration (P, T) and retract acceleration (R), mm/sec^2
M205 X8.00 Y8.00 Z0.40 E4.50 ; sets the jerk limits, mm/sec
M205 S0 T0 ; sets the minimum extruding and travel feed rate, mm/sec
M107
;TYPE:Custom
M862.3 P "MK3S" ; printer model check
M862.1 P0.4 ; nozzle diameter check
M115 U3.10.1 ; tell printer latest fw version
G90 ; use absolute coordinates
M83 ; extruder relative mode
M104 S240 ; set extruder temp
M140 S95 ; set bed temp
M190 S95 ; wait for bed temp
M109 S240 ; wait for extruder temp
G28 W ; home all without mesh bed level
G80 ; mesh bed leveling
G1 Z0.2 F720
G1 Y-3 F1000 ; go outside print area
G92 E0
G1 X60 E9 F1000 ; intro line
G1 X100 E12.5 F1000 ; intro line
G92 E0
M221 S95

; Don't change E values below. Excessive value can damage the printer.

M907 E538 ; set extruder motor current
G21 ; set units to millimeters
G90 ; use absolute coordinates
M83 ; use relative distances for extrusion
M900 K0.08 ; Filament gcode LA 1.5
M900 K45 ; Filament gcode LA 1.0
M107
;LAYER_CHANGE
;Z:0.3
;HEIGHT:0.3
;BEFORE_LAYER_CHANGE
G92 E0.0
;0.3


G1 E-1.4 F2100
G1 Z.2 F720
G1 Z.3
;AFTER_LAYER_CHANGE
;0.3
G1 Z.5
G1 X95.886 Y53.2 F10800
G1 Z.3 F720
G1 E1.4 F2100
M204 S800
;TYPE:Skirt/Brim
;WIDTH:0.42
G1 F1200
G1 X96.93 Y52.331 E.06024
G1 X97.85 Y52.144 E.04163
G1 X117.987 Y52.148 E.89318
G1 X152.287 Y54.148 E1.52395
G1 X153.563 Y54.615 E.06024
M73 P0 R109
G1 X154.369 Y55.708 E.06024
G1 X154.506 Y56.5 E.03565
G1 X154.506 Y153.5 E4.30242
G1 X154.114 Y154.8 E.06024
M73 Q0 S110
G1 X153.07 Y155.669 E.06024
G1 X152.287 Y155.852 E.03565
G1 X117.85 Y157.856 E1.53004
G1 X97.85 Y157.856 E.8871
G1 X96.55 Y157.464 E.06024
G1 X95.681 Y156.42 E.06024
G1 X95.494 Y155.5 E.04163
G1 X95.494 Y54.5 E4.47984
G1 X95.869 Y53.257 E.05758
M204 S1000
; printing object 6L_hip-Body.stl id:0 copy 0
;WIPE_START
G1 F8640
G1 X96.93 Y52.331 E-.32524
G1 X97.85 Y52.144 E-.21671
G1 X101.263 Y52.145 E-.78805
;WIPE_END
G1 E-.07 F2100
G1 Z.5 F720
G1 X141.841 Y106.67 F10800
G1 Z.3 F720
G1 E1.4 F2100
M204 S800
;TYPE:Support material
G1 F1200
G1 X128.999 Y106.67 E.56962
G1 X128.999 Y97.57 E.40361
G1 X141.841 Y97.57 E.56962
G1 X141.841 Y106.616 E.40124
M204 S1000
G1 X141.2 Y106.51 F10800
M204 S800
G1 F1200
G1 X141.2 Y97.89 E.38231
G1 X140.805 Y97.89 E.01753
G1 X140.805 Y106.349 E.37522
G1 X140.41 Y106.349 E.01753
G1 X140.41 Y97.89 E.37522
G1 X140.015 Y97.89 E.01753
G1 X140.015 Y106.349 E.37522
G1 X139.62 Y106.349 E.01753
G1 X139.62 Y97.89 E.37522
G1 X139.225 Y97.89 E.01753
G1 X139.225 Y106.349 E.37522
G1 X138.83 Y106.349 E.01753
G1 X138.83 Y97.89 E.37522
G1 X138.434 Y97.89 E.01753
G1 X138.434 Y106.349 E.37522
G1 X138.039 Y106.349 E.01753
G1 X138.039 Y97.89 E.37522
G1 X137.644 Y97.89 E.01753
G1 X137.644 Y106.349 E.37522
G1 X137.249 Y106.349 E.01753
G1 X137.249 Y97.89 E.37522
G1 X136.854 Y97.89 E.01753
G1 X136.854 Y106.349 E.37522
G1 X136.459 Y106.349 E.01753
G1 X136.459 Y97.89 E.37522
G1 X136.064 Y97.89 E.01753
G1 X136.064 Y106.349 E.37522
G1 X135.669 Y106.349 E.01753
G1 X135.669 Y97.89 E.37522
G1 X135.273 Y97.89 E.01753
G1 X135.273 Y106.349 E.37522
G1 X134.878 Y106.349 E.01753
G1 X134.878 Y97.89 E.37522
G1 X134.483 Y97.89 E.01753
G1 X134.483 Y106.349 E.37522
G1 X134.088 Y106.349 E.01753
G1 X134.088 Y97.89 E.37522
G1 X133.693 Y97.89 E.01753
G1 X133.693 Y106.349 E.37522
G1 X133.298 Y106.349 E.01753
G1 X133.298 Y97.89 E.37522
G1 X132.903 Y97.89 E.01753
G1 X132.903 Y106.349 E.37522
G1 X132.508 Y106.349 E.01753
G1 X132.508 Y97.89 E.37522
G1 X132.112 Y97.89 E.01753
G1 X132.112 Y106.349 E.37522
G1 X131.717 Y106.349 E.01753
G1 X131.717 Y97.89 E.37522
G1 X131.322 Y97.89 E.01753
G1 X131.322 Y106.349 E.37522
G1 X130.927 Y106.349 E.01753
G1 X130.927 Y97.89 E.37522
G1 X130.532 Y97.89 E.01753
G1 X130.532 Y106.349 E.37522
G1 X130.137 Y106.349 E.01753
G1 X130.137 Y97.89 E.37522
G1 X129.742 Y97.89 E.01753
G1 X129.742 Y106.349 E.37522
G1 X129.346 Y106.349 E.01753
G1 X129.346 Y97.73 E.38231
M204 S1000
;WIPE_START
G1 F8640
G1 X129.346 Y103.49 E-1.33
;WIPE_END
G1 E-.07 F2100
G1 Z.5 F720
G1 X117.108 Y56.815 F10800
G1 Z.3 F720
G1 E1.4 F2100
M204 S800
;TYPE:Perimeter
;WIDTH:0.42
G1 F1200
G1 X117.166 Y57.015 E.00925
G1 X117.359 Y57.199 E.01181
G1 X117.618 Y57.266 E.01186
G1 X151.384 Y57.266 E1.49771
G1 X151.384 Y96.234 E1.72845
G1 X98.616 Y96.234 E2.34055
G1 X98.616 Y55.266 E1.81716
G1 X117.084 Y55.266 E.81918
G1 X117.092 Y56.757 E.06616
M204 S1000
G1 X117.44 Y56.732 F10800
M204 S800
;TYPE:External perimeter
G1 F1200
G1 X117.484 Y56.85 E.00556
G1 X117.618 Y56.91 E.0065
G1 X151.74 Y56.91 E1.51348
G1 X151.74 Y96.59 E1.76
G1 X98.26 Y96.59 E2.37209
G1 X98.26 Y54.91 E1.84871
G1 X117.44 Y54.91 E.85072
G1 X117.44 Y56.672 E.07816
M204 S1000
G1 X117.401 Y56.851 F10800
;WIPE_START
G1 F8640
G1 X117.484 Y56.85 E-.04221
G1 X117.618 Y56.91 E-.03385
G1 X123.048 Y56.91 E-1.25394
;WIPE_END
G1 E-.07 F2100
G1 Z.5 F720
G1 X150.556 Y57.372 F10800
G1 Z.3 F720
G1 E1.4 F2100
M204 S800
;TYPE:Solid infill
;WIDTH:0.421379
G1 F1200
G1 X151.118 Y57.934 E.03538
G1 X151.118 Y58.439 E.02248
G1 X150.211 Y57.532 E.05709
G1 X149.706 Y57.532 E.02248
G1 X151.118 Y58.944 E.08888
G1 X151.118 Y59.449 E.02248
G1 X149.201 Y57.532 E.12067
G1 X148.696 Y57.532 E.02248
G1 X151.118 Y59.954 E.15247
G1 X151.118 Y60.458 E.02248
G1 X148.192 Y57.532 E.18426
G1 X147.687 Y57.532 E.02248
G1 X151.118 Y60.963 E.21605
G1 X151.118 Y61.468 E.02248
G1 X147.182 Y57.532 E.24784
G1 X146.677 Y57.532 E.02248
G1 X151.118 Y61.973 E.27963
G1 X151.118 Y62.478 E.02248
G1 X146.172 Y57.532 E.31143
G1 X145.667 Y57.532 E.02248
G1 X151.118 Y62.983 E.34322
G1 X151.118 Y63.488 E.02248
G1 X145.162 Y57.532 E.37501
G1 X144.657 Y57.532 E.02248
G1 X151.118 Y63.993 E.4068
G1 X151.118 Y64.497 E.02248
G1 X144.153 Y57.532 E.43859
G1 X143.648 Y57.532 E.02248
G1 X151.118 Y65.002 E.47039
G1 X151.118 Y65.507 E.02248
G1 X143.143 Y57.532 E.50218
G1 X142.638 Y57.532 E.02248
M73 P1 R109
G1 X151.118 Y66.012 E.53397
G1 X151.118 Y66.517 E.02248
M73 Q1 S110
G1 X142.133 Y57.532 E.56576
G1 X141.628 Y57.532 E.02248
G1 X151.118 Y67.022 E.59755
G1 X151.118 Y67.527 E.02248
M73 P1 R108
G1 X141.123 Y57.532 E.62935
G1 X140.618 Y57.532 E.02248
G1 X151.118 Y68.032 E.66114
G1 X151.118 Y68.536 E.02248
G1 X140.114 Y57.532 E.69293
G1 X139.609 Y57.532 E.02248
G1 X151.118 Y69.041 E.72472
G1 X151.118 Y69.546 E.02248
G1 X139.104 Y57.532 E.75651
G1 X138.599 Y57.532 E.02248
G1 X151.118 Y70.051 E.78831
G1 X151.118 Y70.556 E.02248
G1 X138.094 Y57.532 E.8201
G1 X137.589 Y57.532 E.02248
G1 X151.118 Y71.061 E.85189
M73 Q1 S109
G1 X151.118 Y71.566 E.02248
G1 X137.084 Y57.532 E.88368
G1 X136.58 Y57.532 E.02248
G1 X151.118 Y72.07 E.91547
G1 X151.118 Y72.575 E.02248
G1 X136.075 Y57.532 E.94726
G1 X135.57 Y57.532 E.02248
G1 X151.118 Y73.08 E.97906
G1 X151.118 Y73.585 E.02248
G1 X135.065 Y57.532 E1.01085
G1 X134.56 Y57.532 E.02248
G1 X151.118 Y74.09 E1.04264
G1 X151.118 Y74.595 E.02248
G1 X134.055 Y57.532 E1.07443
G1 X133.55 Y57.532 E.02248
G1 X151.118 Y75.1 E1.10622
G1 X151.118 Y75.605 E.02248
G1 X133.045 Y57.532 E1.13802
G1 X132.541 Y57.532 E.02248
G1 X151.118 Y76.109 E1.16981
G1 X151.118 Y76.614 E.02248
G1 X132.036 Y57.532 E1.2016
G1 X131.531 Y57.532 E.02248
G1 X151.118 Y77.119 E1.23339
G1 X151.118 Y77.624 E.02248
G1 X131.026 Y57.532 E1.26518
G1 X130.521 Y57.532 E.02248
G1 X151.118 Y78.129 E1.29698
G1 X151.118 Y78.634 E.02248
G1 X130.016 Y57.532 E1.32877
G1 X129.511 Y57.532 E.02248
G1 X151.118 Y79.139 E1.36056
G1 X151.118 Y79.644 E.02248
G1 X129.006 Y57.532 E1.39235
G1 X128.502 Y57.532 E.02248
G1 X151.118 Y80.148 E1.42414
G1 X151.118 Y80.653 E.02248
G1 X127.997 Y57.532 E1.45594
G1 X127.492 Y57.532 E.02248
G1 X151.118 Y81.158 E1.48773
G1 X151.118 Y81.663 E.02248
G1 X126.987 Y57.532 E1.51952
G1 X126.482 Y57.532 E.02248
G1 X151.118 Y82.168 E1.55131
G1 X151.118 Y82.673 E.02248
G1 X125.977 Y57.532 E1.5831
G1 X125.472 Y57.532 E.02248
G1 X151.118 Y83.178 E1.6149
G1 X151.118 Y83.683 E.02248
G1 X124.967 Y57.532 E1.64669
G1 X124.463 Y57.532 E.02248
G1 X151.118 Y84.187 E1.67848
G1 X151.118 Y84.692 E.02248
G1 X123.958 Y57.532 E1.71027
G1 X123.453 Y57.532 E.02248
G1 X151.118 Y85.197 E1.74206
G1 X151.118 Y85.702 E.02248
G1 X122.948 Y57.532 E1.77386
G1 X122.443 Y57.532 E.02248
G1 X151.118 Y86.207 E1.80565
G1 X151.118 Y86.712 E.02248
G1 X121.938 Y57.532 E1.83744
G1 X121.433 Y57.532 E.02248
G1 X151.118 Y87.217 E1.86923
G1 X151.118 Y87.721 E.02248
G1 X120.929 Y57.532 E1.90102
G1 X120.424 Y57.532 E.02248
G1 X151.118 Y88.226 E1.93281
G1 X151.118 Y88.731 E.02248
M73 P1 R107
G1 X119.919 Y57.532 E1.96461
G1 X119.414 Y57.532 E.02248
M73 P2 R107
G1 X151.118 Y89.236 E1.9964
G1 X151.118 Y89.741 E.02248
M73 Q2 S108
G1 X118.909 Y57.532 E2.02819
G1 X118.404 Y57.532 E.02248
G1 X151.118 Y90.246 E2.05998
G1 X151.118 Y90.751 E.02248
G1 X117.739 Y57.372 E2.10185
M204 S1000
;WIPE_START
G1 F8640
G1 X121.812 Y61.445 E-1.33
;WIPE_END
G1 E-.07 F2100
G1 Z.5 F720
G1 X116.978 Y56.106 F10800
G1 Z.3 F720
G1 E1.4 F2100
M204 S800
G1 F1200
G1 X116.404 Y55.532 E.03612
G1 X115.899 Y55.532 E.02248
G1 X116.978 Y56.611 E.06791
M204 S1000
;WIPE_START
G1 F8640
G1 X115.899 Y55.532 E-.35216
G1 X116.404 Y55.532 E-.11658
G1 X116.978 Y56.106 E-.18729
;WIPE_END
G1 E-.74397 F2100
G1 Z.5 F720
G1 X115.234 Y55.372 F10800
G1 Z.3 F720
G1 E1.4 F2100
M204 S800
G1 F1200
G1 X151.118 Y91.256 E2.25958
G1 X151.118 Y91.76 E.02248
G1 X114.89 Y55.532 E2.2813
G1 X114.385 Y55.532 E.02248
G1 X151.118 Y92.265 E2.31309
G1 X151.118 Y92.77 E.02248
G1 X113.88 Y55.532 E2.34488
G1 X113.375 Y55.532 E.02248
G1 X151.118 Y93.275 E2.37667
G1 X151.118 Y93.78 E.02248
G1 X112.87 Y55.532 E2.40847
G1 X112.365 Y55.532 E.02248
G1 X151.118 Y94.285 E2.44026
G1 X151.118 Y94.79 E.02248
G1 X111.86 Y55.532 E2.47205
G1 X111.355 Y55.532 E.02248
G1 X151.118 Y95.295 E2.50384
G1 X151.118 Y95.799 E.02248
G1 X110.851 Y55.532 E2.53563
G1 X110.346 Y55.532 E.02248
G1 X150.781 Y95.968 E2.54623
G1 X150.276 Y95.968 E.02248
G1 X109.841 Y55.532 E2.54623
G1 X109.336 Y55.532 E.02248
G1 X149.771 Y95.968 E2.54623
G1 X149.266 Y95.968 E.02248
G1 X108.831 Y55.532 E2.54623
G1 X108.326 Y55.532 E.02248
G1 X148.762 Y95.968 E2.54623
G1 X148.257 Y95.968 E.02248
G1 X107.821 Y55.532 E2.54623
G1 X107.316 Y55.532 E.02248
G1 X147.752 Y95.968 E2.54623
G1 X147.247 Y95.968 E.02248
M73 P2 R106
G1 X106.812 Y55.532 E2.54623
G1 X106.307 Y55.532 E.02248
G1 X146.742 Y95.968 E2.54623
G1 X146.237 Y95.968 E.02248
M73 Q2 S107
G1 X105.802 Y55.532 E2.54623
G1 X105.297 Y55.532 E.02248
M73 P3 R106
G1 X145.732 Y95.968 E2.54623
G1 X145.227 Y95.968 E.02248
M73 Q3 S107
G1 X104.792 Y55.532 E2.54623
G1 X104.287 Y55.532 E.02248
G1 X144.723 Y95.968 E2.54623
G1 X144.218 Y95.968 E.02248
G1 X103.782 Y55.532 E2.54623
G1 X103.277 Y55.532 E.02248
G1 X143.713 Y95.968 E2.54623
G1 X143.208 Y95.968 E.02248
G1 X102.773 Y55.532 E2.54623
G1 X102.268 Y55.532 E.02248
G1 X142.703 Y95.968 E2.54623
G1 X142.198 Y95.968 E.02248
G1 X101.763 Y55.532 E2.54623
G1 X101.258 Y55.532 E.02248
G1 X141.693 Y95.968 E2.54623
G1 X141.188 Y95.968 E.02248
G1 X100.753 Y55.532 E2.54623
G1 X100.248 Y55.532 E.02248
G1 X140.684 Y95.968 E2.54623
G1 X140.179 Y95.968 E.02248
G1 X99.743 Y55.532 E2.54623
G1 X99.239 Y55.532 E.02248
G1 X139.674 Y95.968 E2.54623
G1 X139.169 Y95.968 E.02248
G1 X98.882 Y55.681 E2.53687
G1 X98.882 Y56.186 E.02248
G1 X138.664 Y95.968 E2.50507
G1 X138.159 Y95.968 E.02248
G1 X98.882 Y56.691 E2.47328
G1 X98.882 Y57.196 E.02248
G1 X137.654 Y95.968 E2.44149
G1 X137.15 Y95.968 E.02248
G1 X98.882 Y57.7 E2.4097
M73 P3 R105
G1 X98.882 Y58.205 E.02248
G1 X136.645 Y95.968 E2.37791
G1 X136.14 Y95.968 E.02248
G1 X98.882 Y58.71 E2.34611
G1 X98.882 Y59.215 E.02248
M73 Q3 S106
G1 X135.635 Y95.968 E2.31432
G1 X135.13 Y95.968 E.02248
G1 X98.882 Y59.72 E2.28253
G1 X98.882 Y60.225 E.02248
G1 X134.625 Y95.968 E2.25074
G1 X134.12 Y95.968 E.02248
G1 X98.882 Y60.73 E2.21895
G1 X98.882 Y61.235 E.02248
M73 P4 R105
M73 Q4 S106
G1 X133.615 Y95.968 E2.18716
G1 X133.111 Y95.968 E.02248
G1 X98.882 Y61.739 E2.15536
G1 X98.882 Y62.244 E.02248
G1 X132.606 Y95.968 E2.12357
G1 X132.101 Y95.968 E.02248
G1 X98.882 Y62.749 E2.09178
G1 X98.882 Y63.254 E.02248
G1 X131.596 Y95.968 E2.05999
G1 X131.091 Y95.968 E.02248
G1 X98.882 Y63.759 E2.0282
G1 X98.882 Y64.264 E.02248
G1 X130.586 Y95.968 E1.9964
G1 X130.081 Y95.968 E.02248
G1 X98.882 Y64.769 E1.96461
G1 X98.882 Y65.274 E.02248
G1 X129.576 Y95.968 E1.93282
G1 X129.072 Y95.968 E.02248
G1 X98.882 Y65.778 E1.90103
G1 X98.882 Y66.283 E.02248
G1 X128.567 Y95.968 E1.86924
G1 X128.062 Y95.968 E.02248
G1 X98.882 Y66.788 E1.83744
G1 X98.882 Y67.293 E.02248
G1 X127.557 Y95.968 E1.80565
G1 X127.052 Y95.968 E.02248
G1 X98.882 Y67.798 E1.77386
G1 X98.882 Y68.303 E.02248
G1 X126.547 Y95.968 E1.74207
G1 X126.042 Y95.968 E.02248
G1 X98.882 Y68.808 E1.71028
G1 X98.882 Y69.313 E.02248
G1 X125.537 Y95.968 E1.67848
G1 X125.033 Y95.968 E.02248
G1 X98.882 Y69.817 E1.64669
G1 X98.882 Y70.322 E.02248
G1 X124.528 Y95.968 E1.6149
G1 X124.023 Y95.968 E.02248
G1 X98.882 Y70.827 E1.58311
G1 X98.882 Y71.332 E.02248
M73 P4 R104
G1 X123.518 Y95.968 E1.55132
G1 X123.013 Y95.968 E.02248
G1 X98.882 Y71.837 E1.51952
G1 X98.882 Y72.342 E.02248
G1 X122.508 Y95.968 E1.48773
G1 X122.003 Y95.968 E.02248
M73 Q4 S105
G1 X98.882 Y72.847 E1.45594
G1 X98.882 Y73.351 E.02248
G1 X121.499 Y95.968 E1.42415
G1 X120.994 Y95.968 E.02248
G1 X98.882 Y73.856 E1.39236
G1 X98.882 Y74.361 E.02248
G1 X120.489 Y95.968 E1.36057
G1 X119.984 Y95.968 E.02248
G1 X98.882 Y74.866 E1.32877
G1 X98.882 Y75.371 E.02248
G1 X119.479 Y95.968 E1.29698
G1 X118.974 Y95.968 E.02248
G1 X98.882 Y75.876 E1.26519
G1 X98.882 Y76.381 E.02248
G1 X118.469 Y95.968 E1.2334
G1 X117.964 Y95.968 E.02248
G1 X98.882 Y76.886 E1.20161
G1 X98.882 Y77.39 E.02248
G1 X117.46 Y95.968 E1.16981
G1 X116.955 Y95.968 E.02248
G1 X98.882 Y77.895 E1.13802
G1 X98.882 Y78.4 E.02248
M73 P5 R104
G1 X116.45 Y95.968 E1.10623
G1 X115.945 Y95.968 E.02248
G1 X98.882 Y78.905 E1.07444
G1 X98.882 Y79.41 E.02248
M73 Q5 S105
G1 X115.44 Y95.968 E1.04265
G1 X114.935 Y95.968 E.02248
G1 X98.882 Y79.915 E1.01085
G1 X98.882 Y80.42 E.02248
G1 X114.43 Y95.968 E.97906
G1 X113.925 Y95.968 E.02248
G1 X98.882 Y80.925 E.94727
G1 X98.882 Y81.429 E.02248
G1 X113.421 Y95.968 E.91548
G1 X112.916 Y95.968 E.02248
G1 X98.882 Y81.934 E.88369
G1 X98.882 Y82.439 E.02248
G1 X112.411 Y95.968 E.85189
G1 X111.906 Y95.968 E.02248
G1 X98.882 Y82.944 E.8201
G1 X98.882 Y83.449 E.02248
G1 X111.401 Y95.968 E.78831
G1 X110.896 Y95.968 E.02248
G1 X98.882 Y83.954 E.75652
G1 X98.882 Y84.459 E.02248
G1 X110.391 Y95.968 E.72473
G1 X109.886 Y95.968 E.02248
G1 X98.882 Y84.964 E.69293
G1 X98.882 Y85.468 E.02248
G1 X109.382 Y95.968 E.66114
G1 X108.877 Y95.968 E.02248
G1 X98.882 Y85.973 E.62935
G1 X98.882 Y86.478 E.02248
G1 X108.372 Y95.968 E.59756
G1 X107.867 Y95.968 E.02248
G1 X98.882 Y86.983 E.56577
G1 X98.882 Y87.488 E.02248
G1 X107.362 Y95.968 E.53398
G1 X106.857 Y95.968 E.02248
G1 X98.882 Y87.993 E.50218
G1 X98.882 Y88.498 E.02248
G1 X106.352 Y95.968 E.47039
G1 X105.847 Y95.968 E.02248
G1 X98.882 Y89.003 E.4386
G1 X98.882 Y89.507 E.02248
G1 X105.343 Y95.968 E.40681
G1 X104.838 Y95.968 E.02248
G1 X98.882 Y90.012 E.37502
G1 X98.882 Y90.517 E.02248
G1 X104.333 Y95.968 E.34322
G1 X103.828 Y95.968 E.02248
G1 X98.882 Y91.022 E.31143
G1 X98.882 Y91.527 E.02248
G1 X103.323 Y95.968 E.27964
G1 X102.818 Y95.968 E.02248
