; generated by PrusaSlicer 2.5.2 on 2023-05-06 at 15:31:33 UTC


;
;
; 

; external perimeters extrusion width = 0.60mm
; perimeters extrusion width = 0.50mm
; infill extrusion width = 0.50mm
; solid infill extrusion width = 0.50mm
; top infill extrusion width = 0.45mm
; support material extrusion width = 0.38mm
; first layer extrusion width = 0.42mm

M73 P0 R75
M73 Q0 S75
M201 X1000 Y1000 Z200 E5000 ; sets maximum accelerations, mm/sec^2
M203 X200 Y200 Z12 E120 ; sets maximum feedrates, mm / sec
M204 P1250 R1250 T1250 ; sets acceleration (P, T) and retract acceleration (R), mm/sec^2
M205 X8.00 Y8.00 Z0.40 E4.50 ; sets the jerk limits, mm/sec
M205 S0 T0 ; sets the minimum extruding and travel feed rate, mm/sec
M107 ; disable fan
;TYPE:Custom
M862.3 P "MK3S" ; printer model check
M862.1 P0.4 ; nozzle diameter check
M115 U3.11.0 ; tell printer latest fw version
G90 ; use absolute coordinates
M83 ; extruder relative mode
M104 S240 ; set extruder temp
M140 S95 ; set bed temp
M190 S95 ; wait for bed temp
M109 S240 ; wait for extruder temp
G28 W ; home all without mesh bed level
G80 ; mesh bed leveling

G1 Z0.2 F720
G1 Y-3 F1000 ; go outside print area
G92 E0
G1 X60 E9 F1000 ; intro line
G1 X100 E12.5 F1000 ; intro line

G92 E0
M221 S95

; Don't change E values below. Excessive value can damage the printer.

M907 E538 ; set extruder motor current
G21 ; set units to millimeters
G90 ; use absolute coordinates
M83 ; use relative distances for extrusion
M900 K0.08 ; Filament gcode LA 1.5
M900 K45 ; Filament gcode LA 1.0
M107 ; disable fan
;LAYER_CHANGE
;Z:0.3
;HEIGHT:0.3
;BEFORE_LAYER_CHANGE
G92 E0.0
;0.3


G1 E-1.4 F2100 ; retract
G1 Z.2 F720 ; lift Z
G1 Z.3 ; move to next layer (0)
;AFTER_LAYER_CHANGE
;0.3
G1 Z.5 ; lift Z
G1 X81.452 Y89.968 F10800 ; move to first skirt point
G1 Z.3 F720 ; restore layer Z
G1 E1.4 F2100 ;  ; unretract
M204 S800 ; adjust acceleration
;TYPE:Skirt/Brim
;WIDTH:0.42
G1 F1200
G1 X82.571 Y89.386 E.05592 ; skirt
G1 X83.304 Y89.201 E.03354 ; skirt
G1 X84 Y89.144 E.03098 ; skirt
G1 X166.058 Y89.145 E3.63966 ; skirt
G1 X166.793 Y89.217 E.03277 ; skirt
G1 X167.613 Y89.454 E.03787 ; skirt
G1 X168.34 Y89.827 E.03624 ; skirt
G1 X168.967 Y90.312 E.03515 ; skirt
G1 X169.532 Y90.952 E.03787 ; skirt
G1 X169.934 Y91.631 E.03499 ; skirt
G1 X170.21 Y92.386 E.03565 ; skirt
G1 X170.34 Y93.131 E.03354 ; skirt
G1 X170.356 Y118.5 E1.12525 ; skirt
G1 X169.964 Y119.8 E.06024 ; skirt
G1 X168.92 Y120.669 E.06024 ; skirt
G1 X168 Y120.856 E.04163 ; skirt
G1 X82 Y120.856 E3.81451 ; skirt
G1 X80.7 Y120.464 E.06024 ; skirt
G1 X79.831 Y119.42 E.06024 ; skirt
G1 X79.644 Y118.5 E.04163 ; skirt
G1 X79.66 Y93.131 E1.12525 ; skirt
G1 X79.954 Y91.887 E.05669 ; skirt
G1 X80.592 Y90.788 E.05634 ; skirt
G1 X81.409 Y90.009 E.05007 ; skirt
M204 S1000 ; adjust acceleration
; printing object 7B_chestback_controller-Body.stl id:0 copy 0
;WIPE_START
G1 F8640
G1 X82.571 Y89.386 E-.30442 ; wipe and retract
G1 X83.304 Y89.201 E-.17461 ; wipe and retract
G1 X84 Y89.144 E-.16126 ; wipe and retract
G1 X86.987 Y89.144 E-.6897 ; wipe and retract
;WIPE_END
G1 E-.07 F2100 ; retract
G1 Z.5 F720 ; lift Z
G1 X82.843 Y93.086 F10800 ; move to first perimeter point
G1 Z.3 F720 ; restore layer Z
G1 E1.4 F2100 ;  ; unretract
M204 S800 ; adjust acceleration
;TYPE:Perimeter
;WIDTH:0.42
G1 F1200
G1 X83.013 Y92.768 E.01599 ; perimeter
G1 X83.282 Y92.499 E.01687 ; perimeter
G1 X83.516 Y92.374 E.01175 ; perimeter
G1 X84.043 Y92.266 E.02387 ; perimeter
G1 X166.051 Y92.268 E3.63747 ; perimeter
G1 X166.471 Y92.362 E.01909 ; perimeter
G1 X166.871 Y92.629 E.02131 ; perimeter
G1 X167.138 Y93.029 E.02131 ; perimeter
G1 X167.232 Y93.446 E.019 ; perimeter
G1 X167.234 Y117.734 E1.07729 ; perimeter
G1 X82.766 Y117.734 E3.74659 ; perimeter
G1 X82.768 Y93.596 E1.07063 ; perimeter
G1 X82.835 Y93.146 E.02022 ; perimeter
M204 S1000 ; adjust acceleration
G1 X82.505 Y92.965 F10800 ; move to first perimeter point
M204 S800 ; adjust acceleration
;TYPE:External perimeter
G1 F1200
G1 X82.725 Y92.554 E.02067 ; perimeter
G1 X83.059 Y92.22 E.02096 ; perimeter
G1 X83.535 Y91.981 E.02363 ; perimeter
G1 X84.017 Y91.91 E.0216 ; perimeter
G1 X166.073 Y91.912 E3.63959 ; perimeter
G1 X166.44 Y91.981 E.01657 ; perimeter
G1 X166.883 Y92.179 E.0215 ; perimeter
G1 X167.222 Y92.497 E.02064 ; perimeter
G1 X167.468 Y92.892 E.02063 ; perimeter
G1 X167.588 Y93.425 E.02422 ; perimeter
G1 X167.59 Y118.09 E1.09403 ; perimeter
G1 X82.41 Y118.09 E3.77814 ; perimeter
G1 X82.412 Y93.596 E1.08641 ; perimeter
G1 X82.496 Y93.024 E.02564 ; perimeter
M204 S1000 ; adjust acceleration
G1 X82.897 Y92.888 F10800 ; move inwards before travel
;WIPE_START
G1 F8640
G1 X82.725 Y92.554 E-.12073 ; wipe and retract
G1 X83.059 Y92.22 E-.10913 ; wipe and retract
G1 X83.535 Y91.981 E-.12301 ; wipe and retract
G1 X84.017 Y91.91 E-.11243 ; wipe and retract
G1 X87.762 Y91.91 E-.8647 ; wipe and retract
;WIPE_END
G1 E-.07 F2100 ; retract
G1 Z.5 F720 ; lift Z
G1 X165.733 Y92.374 F10800 ; move to first infill point
G1 Z.3 F720 ; restore layer Z
M73 P0 R74
G1 E1.4 F2100 ;  ; unretract
M204 S800 ; adjust acceleration
;TYPE:Solid infill
;WIDTH:0.420901
G1 F1200
G1 X166.965 Y93.606 E.07747 ; infill
G1 X166.966 Y94.111 E.02242 ; infill
G1 X165.389 Y92.534 E.09912 ; infill
G1 X164.885 Y92.534 E.02242 ; infill
G1 X166.966 Y94.615 E.13083 ; infill
G1 X166.966 Y95.119 E.02242 ; infill
G1 X164.381 Y92.534 E.16254 ; infill
G1 X163.877 Y92.534 E.02242 ; infill
G1 X166.966 Y95.623 E.19425 ; infill
G1 X166.966 Y96.128 E.02242 ; infill
G1 X163.372 Y92.534 E.22596 ; infill
G1 X162.868 Y92.534 E.02242 ; infill
G1 X166.966 Y96.632 E.25767 ; infill
G1 X166.966 Y97.136 E.02242 ; infill
G1 X162.364 Y92.534 E.28938 ; infill
G1 X161.86 Y92.534 E.02242 ; infill
G1 X166.966 Y97.64 E.32109 ; infill
G1 X166.966 Y98.145 E.02242 ; infill
M73 Q1 S75
G1 X161.356 Y92.534 E.35281 ; infill
G1 X160.851 Y92.534 E.02242 ; infill
G1 X166.966 Y98.649 E.38452 ; infill
G1 X166.966 Y99.153 E.02242 ; infill
M73 P1 R74
G1 X160.347 Y92.534 E.41623 ; infill
G1 X159.843 Y92.534 E.02242 ; infill
G1 X166.966 Y99.657 E.44794 ; infill
G1 X166.966 Y100.162 E.02242 ; infill
G1 X159.339 Y92.534 E.47965 ; infill
G1 X158.835 Y92.534 E.02242 ; infill
G1 X166.966 Y100.666 E.51136 ; infill
G1 X166.966 Y101.17 E.02242 ; infill
G1 X158.33 Y92.534 E.54307 ; infill
G1 X157.826 Y92.534 E.02242 ; infill
G1 X166.966 Y101.674 E.57478 ; infill
G1 X166.966 Y102.179 E.02242 ; infill
G1 X157.322 Y92.534 E.60649 ; infill
G1 X156.818 Y92.534 E.02242 ; infill
G1 X166.966 Y102.683 E.6382 ; infill
G1 X166.966 Y103.187 E.02242 ; infill
M73 Q1 S74
G1 X156.314 Y92.534 E.66991 ; infill
G1 X155.809 Y92.534 E.02242 ; infill
G1 X166.966 Y103.691 E.70162 ; infill
G1 X166.966 Y104.195 E.02242 ; infill
G1 X155.305 Y92.534 E.73333 ; infill
G1 X154.801 Y92.534 E.02242 ; infill
G1 X166.966 Y104.7 E.76504 ; infill
G1 X166.967 Y105.204 E.02242 ; infill
G1 X154.297 Y92.534 E.79675 ; infill
G1 X153.793 Y92.534 E.02242 ; infill
G1 X166.967 Y105.708 E.82846 ; infill
G1 X166.967 Y106.212 E.02242 ; infill
G1 X153.288 Y92.534 E.86017 ; infill
G1 X152.784 Y92.534 E.02242 ; infill
G1 X166.967 Y106.717 E.89188 ; infill
G1 X166.967 Y107.221 E.02242 ; infill
G1 X152.28 Y92.534 E.92359 ; infill
G1 X151.776 Y92.534 E.02242 ; infill
G1 X166.967 Y107.725 E.95531 ; infill
G1 X166.967 Y108.229 E.02242 ; infill
G1 X151.271 Y92.534 E.98702 ; infill
G1 X150.767 Y92.534 E.02242 ; infill
G1 X166.967 Y108.734 E1.01873 ; infill
G1 X166.967 Y109.238 E.02242 ; infill
G1 X150.263 Y92.534 E1.05044 ; infill
G1 X149.759 Y92.534 E.02242 ; infill
G1 X166.967 Y109.742 E1.08215 ; infill
G1 X166.967 Y110.246 E.02242 ; infill
G1 X149.255 Y92.534 E1.11386 ; infill
G1 X148.75 Y92.534 E.02242 ; infill
G1 X166.967 Y110.751 E1.14557 ; infill
G1 X166.967 Y111.255 E.02242 ; infill
G1 X148.246 Y92.534 E1.17728 ; infill
G1 X147.742 Y92.534 E.02242 ; infill
G1 X166.967 Y111.759 E1.20899 ; infill
G1 X166.967 Y112.263 E.02242 ; infill
G1 X147.238 Y92.534 E1.2407 ; infill
G1 X146.734 Y92.534 E.02242 ; infill
G1 X166.967 Y112.768 E1.27241 ; infill
G1 X166.967 Y113.272 E.02242 ; infill
G1 X146.229 Y92.534 E1.30412 ; infill
G1 X145.725 Y92.534 E.02242 ; infill
G1 X166.967 Y113.776 E1.33583 ; infill
G1 X166.967 Y114.28 E.02242 ; infill
G1 X145.221 Y92.534 E1.36754 ; infill
G1 X144.717 Y92.534 E.02242 ; infill
G1 X166.967 Y114.785 E1.39925 ; infill
G1 X166.967 Y115.289 E.02242 ; infill
G1 X144.213 Y92.534 E1.43096 ; infill
G1 X143.708 Y92.534 E.02242 ; infill
G1 X166.967 Y115.793 E1.46267 ; infill
G1 X166.967 Y116.297 E.02242 ; infill
G1 X143.204 Y92.534 E1.49438 ; infill
G1 X142.7 Y92.534 E.02242 ; infill
G1 X166.968 Y116.802 E1.52609 ; infill
G1 X166.968 Y117.306 E.02242 ; infill
G1 X142.196 Y92.534 E1.55781 ; infill
G1 X141.692 Y92.534 E.02242 ; infill
G1 X166.625 Y117.468 E1.56799 ; infill
G1 X166.121 Y117.468 E.02242 ; infill
G1 X141.187 Y92.534 E1.56799 ; infill
G1 X140.683 Y92.534 E.02242 ; infill
M73 P2 R74
M73 Q2 S74
G1 X165.617 Y117.468 E1.56799 ; infill
G1 X165.113 Y117.468 E.02242 ; infill
G1 X140.179 Y92.534 E1.56799 ; infill
G1 X139.675 Y92.534 E.02242 ; infill
G1 X164.609 Y117.468 E1.56799 ; infill
G1 X164.104 Y117.468 E.02242 ; infill
G1 X139.17 Y92.534 E1.56799 ; infill
G1 X138.666 Y92.534 E.02242 ; infill
G1 X163.6 Y117.468 E1.56799 ; infill
G1 X163.096 Y117.468 E.02242 ; infill
G1 X138.162 Y92.534 E1.568 ; infill
G1 X137.658 Y92.534 E.02242 ; infill
M73 P2 R73
G1 X162.592 Y117.468 E1.568 ; infill
G1 X162.088 Y117.468 E.02242 ; infill
G1 X137.154 Y92.534 E1.568 ; infill
G1 X136.649 Y92.534 E.02242 ; infill
G1 X161.583 Y117.468 E1.568 ; infill
G1 X161.079 Y117.468 E.02242 ; infill
G1 X136.145 Y92.534 E1.568 ; infill
G1 X135.641 Y92.534 E.02242 ; infill
G1 X160.575 Y117.468 E1.568 ; infill
G1 X160.071 Y117.468 E.02242 ; infill
M73 Q2 S73
G1 X135.137 Y92.534 E1.568 ; infill
G1 X134.633 Y92.534 E.02242 ; infill
G1 X159.567 Y117.468 E1.568 ; infill
G1 X159.062 Y117.468 E.02242 ; infill
G1 X134.128 Y92.534 E1.568 ; infill
G1 X133.624 Y92.534 E.02242 ; infill
G1 X158.558 Y117.468 E1.568 ; infill
G1 X158.054 Y117.468 E.02242 ; infill
G1 X133.12 Y92.534 E1.568 ; infill
G1 X132.616 Y92.534 E.02242 ; infill
G1 X157.55 Y117.468 E1.568 ; infill
G1 X157.046 Y117.468 E.02242 ; infill
G1 X132.112 Y92.534 E1.56801 ; infill
G1 X131.607 Y92.534 E.02242 ; infill
G1 X156.541 Y117.468 E1.56801 ; infill
G1 X156.037 Y117.468 E.02242 ; infill
G1 X131.103 Y92.534 E1.56801 ; infill
G1 X130.599 Y92.534 E.02242 ; infill
G1 X155.533 Y117.468 E1.56801 ; infill
G1 X155.029 Y117.468 E.02242 ; infill
G1 X130.095 Y92.534 E1.56801 ; infill
G1 X129.59 Y92.534 E.02242 ; infill
G1 X154.525 Y117.468 E1.56801 ; infill
G1 X154.02 Y117.468 E.02242 ; infill
G1 X129.086 Y92.534 E1.56801 ; infill
G1 X128.582 Y92.534 E.02242 ; infill
G1 X153.516 Y117.468 E1.56801 ; infill
G1 X153.012 Y117.468 E.02242 ; infill
M73 P3 R73
M73 Q3 S73
G1 X128.078 Y92.533 E1.56801 ; infill
G1 X127.574 Y92.533 E.02242 ; infill
G1 X152.508 Y117.468 E1.56801 ; infill
G1 X152.004 Y117.468 E.02242 ; infill
G1 X127.069 Y92.533 E1.56801 ; infill
G1 X126.565 Y92.533 E.02242 ; infill
G1 X151.499 Y117.468 E1.56801 ; infill
G1 X150.995 Y117.468 E.02242 ; infill
G1 X126.061 Y92.533 E1.56802 ; infill
G1 X125.557 Y92.533 E.02242 ; infill
G1 X150.491 Y117.468 E1.56802 ; infill
G1 X149.987 Y117.468 E.02242 ; infill
G1 X125.053 Y92.533 E1.56802 ; infill
G1 X124.548 Y92.533 E.02242 ; infill
G1 X149.483 Y117.468 E1.56802 ; infill
G1 X148.978 Y117.468 E.02242 ; infill
G1 X124.044 Y92.533 E1.56802 ; infill
G1 X123.54 Y92.533 E.02242 ; infill
G1 X148.474 Y117.468 E1.56802 ; infill
G1 X147.97 Y117.468 E.02242 ; infill
G1 X123.036 Y92.533 E1.56802 ; infill
G1 X122.532 Y92.533 E.02242 ; infill
G1 X147.466 Y117.468 E1.56802 ; infill
G1 X146.962 Y117.468 E.02242 ; infill
G1 X122.027 Y92.533 E1.56802 ; infill
G1 X121.523 Y92.533 E.02242 ; infill
G1 X146.458 Y117.468 E1.56802 ; infill
G1 X145.953 Y117.468 E.02242 ; infill
M73 P3 R72
G1 X121.019 Y92.533 E1.56802 ; infill
G1 X120.515 Y92.533 E.02242 ; infill
G1 X145.449 Y117.468 E1.56802 ; infill
G1 X144.945 Y117.468 E.02242 ; infill
G1 X120.011 Y92.533 E1.56803 ; infill
G1 X119.506 Y92.533 E.02242 ; infill
G1 X144.441 Y117.468 E1.56803 ; infill
G1 X143.937 Y117.468 E.02242 ; infill
G1 X119.002 Y92.533 E1.56803 ; infill
G1 X118.498 Y92.533 E.02242 ; infill
M73 Q3 S72
G1 X143.432 Y117.468 E1.56803 ; infill
G1 X142.928 Y117.468 E.02242 ; infill
G1 X117.994 Y92.533 E1.56803 ; infill
G1 X117.489 Y92.533 E.02242 ; infill
G1 X142.424 Y117.468 E1.56803 ; infill
G1 X141.92 Y117.468 E.02242 ; infill
G1 X116.985 Y92.533 E1.56803 ; infill
G1 X116.481 Y92.533 E.02242 ; infill
G1 X141.416 Y117.468 E1.56803 ; infill
G1 X140.911 Y117.468 E.02242 ; infill
G1 X115.977 Y92.533 E1.56803 ; infill
G1 X115.473 Y92.533 E.02242 ; infill
M73 P4 R72
M73 Q4 S72
G1 X140.407 Y117.468 E1.56803 ; infill
G1 X139.903 Y117.468 E.02242 ; infill
G1 X114.968 Y92.533 E1.56803 ; infill
G1 X114.464 Y92.533 E.02242 ; infill
G1 X139.399 Y117.468 E1.56803 ; infill
G1 X138.895 Y117.468 E.02242 ; infill
G1 X113.96 Y92.533 E1.56804 ; infill
G1 X113.456 Y92.533 E.02242 ; infill
G1 X138.39 Y117.468 E1.56804 ; infill
G1 X137.886 Y117.468 E.02242 ; infill
G1 X112.952 Y92.533 E1.56804 ; infill
G1 X112.447 Y92.533 E.02242 ; infill
G1 X137.382 Y117.468 E1.56804 ; infill
G1 X136.878 Y117.468 E.02242 ; infill
G1 X111.943 Y92.533 E1.56804 ; infill
G1 X111.439 Y92.533 E.02242 ; infill
G1 X136.374 Y117.468 E1.56804 ; infill
G1 X135.869 Y117.468 E.02242 ; infill
G1 X110.935 Y92.533 E1.56804 ; infill
G1 X110.431 Y92.533 E.02242 ; infill
G1 X135.365 Y117.468 E1.56804 ; infill
G1 X134.861 Y117.468 E.02242 ; infill
G1 X109.926 Y92.533 E1.56804 ; infill
G1 X109.422 Y92.533 E.02242 ; infill
G1 X134.357 Y117.468 E1.56804 ; infill
G1 X133.853 Y117.468 E.02242 ; infill
G1 X108.918 Y92.533 E1.56804 ; infill
G1 X108.414 Y92.533 E.02242 ; infill
G1 X133.348 Y117.468 E1.56805 ; infill
G1 X132.844 Y117.468 E.02242 ; infill
G1 X107.91 Y92.533 E1.56805 ; infill
G1 X107.405 Y92.533 E.02242 ; infill
G1 X132.34 Y117.468 E1.56805 ; infill
G1 X131.836 Y117.468 E.02242 ; infill
G1 X106.901 Y92.533 E1.56805 ; infill
G1 X106.397 Y92.533 E.02242 ; infill
G1 X131.332 Y117.468 E1.56805 ; infill
G1 X130.827 Y117.468 E.02242 ; infill
G1 X105.893 Y92.533 E1.56805 ; infill
G1 X105.388 Y92.533 E.02242 ; infill
G1 X130.323 Y117.468 E1.56805 ; infill
G1 X129.819 Y117.468 E.02242 ; infill
G1 X104.884 Y92.533 E1.56805 ; infill
G1 X104.38 Y92.533 E.02242 ; infill
G1 X129.315 Y117.468 E1.56805 ; infill
G1 X128.811 Y117.468 E.02242 ; infill
M73 P4 R71
G1 X103.876 Y92.533 E1.56805 ; infill
G1 X103.372 Y92.533 E.02242 ; infill
G1 X128.306 Y117.468 E1.56805 ; infill
G1 X127.802 Y117.468 E.02242 ; infill
M73 P5 R71
M73 Q5 S72
G1 X102.867 Y92.533 E1.56805 ; infill
G1 X102.363 Y92.533 E.02242 ; infill
G1 X127.298 Y117.468 E1.56806 ; infill
G1 X126.794 Y117.468 E.02242 ; infill
M73 Q5 S71
G1 X101.859 Y92.533 E1.56806 ; infill
G1 X101.355 Y92.533 E.02242 ; infill
G1 X126.29 Y117.468 E1.56806 ; infill
G1 X125.786 Y117.468 E.02242 ; infill
G1 X100.851 Y92.533 E1.56806 ; infill
G1 X100.346 Y92.533 E.02242 ; infill
G1 X125.281 Y117.468 E1.56806 ; infill
G1 X124.777 Y117.468 E.02242 ; infill
G1 X99.842 Y92.533 E1.56806 ; infill
G1 X99.338 Y92.533 E.02242 ; infill
G1 X124.273 Y117.468 E1.56806 ; infill
G1 X123.769 Y117.468 E.02242 ; infill
G1 X98.834 Y92.533 E1.56806 ; infill
G1 X98.33 Y92.533 E.02242 ; infill
G1 X123.265 Y117.468 E1.56806 ; infill
G1 X122.76 Y117.468 E.02242 ; infill
G1 X97.825 Y92.533 E1.56806 ; infill
G1 X97.321 Y92.533 E.02242 ; infill
G1 X122.256 Y117.468 E1.56806 ; infill
G1 X121.752 Y117.468 E.02242 ; infill
G1 X96.817 Y92.533 E1.56806 ; infill
G1 X96.313 Y92.533 E.02242 ; infill
G1 X121.248 Y117.468 E1.56807 ; infill
G1 X120.744 Y117.468 E.02242 ; infill
G1 X95.809 Y92.533 E1.56807 ; infill
G1 X95.304 Y92.533 E.02242 ; infill
G1 X120.239 Y117.468 E1.56807 ; infill
G1 X119.735 Y117.468 E.02242 ; infill
G1 X94.8 Y92.533 E1.56807 ; infill
G1 X94.296 Y92.533 E.02242 ; infill
