; generated by PrusaSlicer 2.5.2 on 2023-05-06 at 14:27:43 UTC


;
;
; 

; external perimeters extrusion width = 0.60mm
; perimeters extrusion width = 0.50mm
; infill extrusion width = 0.50mm
; solid infill extrusion width = 0.50mm
; top infill extrusion width = 0.45mm
; support material extrusion width = 0.38mm
; first layer extrusion width = 0.42mm

M73 P0 R95
M73 Q0 S96
M201 X1000 Y1000 Z200 E5000 ; sets maximum accelerations, mm/sec^2
M203 X200 Y200 Z12 E120 ; sets maximum feedrates, mm / sec
M204 P1250 R1250 T1250 ; sets acceleration (P, T) and retract acceleration (R), mm/sec^2
M205 X8.00 Y8.00 Z0.40 E4.50 ; sets the jerk limits, mm/sec
M205 S0 T0 ; sets the minimum extruding and travel feed rate, mm/sec
M107 ; disable fan
;TYPE:Custom
M862.3 P "MK3S" ; printer model check
M862.1 P0.4 ; nozzle diameter check
M115 U3.11.0 ; tell printer latest fw version
G90 ; use absolute coordinates
M83 ; extruder relative mode
M104 S240 ; set extruder temp
M140 S95 ; set bed temp
M190 S95 ; wait for bed temp
M109 S240 ; wait for extruder temp
G28 W ; home all without mesh bed level
G80 ; mesh bed leveling

G1 Z0.2 F720
G1 Y-3 F1000 ; go outside print area
G92 E0
G1 X60 E9 F1000 ; intro line
G1 X100 E12.5 F1000 ; intro line

G92 E0
M221 S95

; Don't change E values below. Excessive value can damage the printer.

M907 E538 ; set extruder motor current
G21 ; set units to millimeters
G90 ; use absolute coordinates
M83 ; use relative distances for extrusion
M900 K0.08 ; Filament gcode LA 1.5
M900 K45 ; Filament gcode LA 1.0
M107 ; disable fan
;LAYER_CHANGE
;Z:0.3
;HEIGHT:0.3
;BEFORE_LAYER_CHANGE
G92 E0.0
;0.3


M73 Q0 S95
G1 E-1.4 F2100 ; retract
G1 Z.2 F720 ; lift Z
G1 Z.3 ; move to next layer (0)
;AFTER_LAYER_CHANGE
;0.3
G1 Z.5 ; lift Z
G1 X80.902 Y78.984 F10800 ; move to first skirt point
G1 Z.3 F720 ; restore layer Z
G1 E1.4 F2100 ;  ; unretract
M204 S800 ; adjust acceleration
;TYPE:Skirt/Brim
;WIDTH:0.42
G1 F1200
G1 X81.728 Y78.322 E.04695 ; skirt
G1 X82.8 Y77.846 E.05203 ; skirt
G1 X84 Y77.676 E.05374 ; skirt
G1 X166.058 Y77.677 E3.63966 ; skirt
G1 X166.9 Y77.771 E.03759 ; skirt
G1 X167.601 Y77.984 E.03249 ; skirt
G1 X168.354 Y78.373 E.03758 ; skirt
G1 X169.016 Y78.902 E.0376 ; skirt
G1 X169.562 Y79.55 E.03759 ; skirt
G1 X169.966 Y80.279 E.03696 ; skirt
G1 X170.207 Y81.006 E.03395 ; skirt
G1 X170.321 Y81.846 E.0376 ; skirt
G1 X170.321 Y128.154 E2.05401 ; skirt
G1 X170.154 Y129.2 E.04695 ; skirt
G1 X169.738 Y130.173 E.04695 ; skirt
G1 X169.098 Y131.016 E.04695 ; skirt
G1 X168.272 Y131.678 E.04695 ; skirt
G1 X167.2 Y132.154 E.05203 ; skirt
G1 X166 Y132.324 E.05374 ; skirt
G1 X83.942 Y132.323 E3.63966 ; skirt
G1 X82.893 Y132.179 E.04695 ; skirt
G1 X81.839 Y131.745 E.05058 ; skirt
G1 X80.984 Y131.098 E.04757 ; skirt
G1 X80.322 Y130.272 E.04694 ; skirt
G1 X79.846 Y129.2 E.05203 ; skirt
G1 X79.677 Y128.058 E.0512 ; skirt
G1 X79.679 Y81.846 E2.04973 ; skirt
G1 X79.846 Y80.8 E.04695 ; skirt
G1 X80.262 Y79.827 E.04695 ; skirt
G1 X80.866 Y79.032 E.04429 ; skirt
M204 S1000 ; adjust acceleration
; printing object 7F_chestbase_battery-Body.stl id:0 copy 0
;WIPE_START
G1 F8640
G1 X81.728 Y78.322 E-.25785 ; wipe and retract
G1 X82.8 Y77.846 E-.27086 ; wipe and retract
G1 X84 Y77.676 E-.27976 ; wipe and retract
G1 X86.259 Y77.676 E-.52153 ; wipe and retract
;WIPE_END
G1 E-.07 F2100 ; retract
G1 Z.5 F720 ; lift Z
G1 X83.53 Y81.44 F10800 ; move to first perimeter point
G1 Z.3 F720 ; restore layer Z
G1 E1.4 F2100 ;  ; unretract
M204 S800 ; adjust acceleration
;TYPE:Perimeter
;WIDTH:0.42
G1 F1200
G1 X83.699 Y81.31 E.00948 ; perimeter
G1 X84.057 Y81.239 E.01615 ; perimeter
G1 X165.872 Y81.24 E3.62889 ; perimeter
G1 X166.286 Y81.306 E.0186 ; perimeter
G1 X166.53 Y81.47 E.01305 ; perimeter
G1 X166.708 Y81.735 E.01418 ; perimeter
G1 X166.761 Y82.03 E.01328 ; perimeter
G1 X166.761 Y127.911 E2.03504 ; perimeter
G1 X166.736 Y128.164 E.01128 ; perimeter
G1 X166.602 Y128.447 E.01387 ; perimeter
G1 X166.486 Y128.552 E.00695 ; perimeter
G1 X166.265 Y128.698 E.01178 ; perimeter
G1 X165.963 Y128.761 E.01367 ; perimeter
G1 X84.145 Y128.761 E3.62901 ; perimeter
G1 X83.749 Y128.708 E.01772 ; perimeter
G1 X83.485 Y128.529 E.01417 ; perimeter
G1 X83.31 Y128.301 E.01274 ; perimeter
G1 X83.239 Y127.943 E.01615 ; perimeter
G1 X83.239 Y82.037 E2.03617 ; perimeter
G1 X83.292 Y81.749 E.01298 ; perimeter
G1 X83.482 Y81.476 E.01474 ; perimeter
M204 S1000 ; adjust acceleration
G1 X83.297 Y81.136 F10800 ; move to first perimeter point
M204 S800 ; adjust acceleration
;TYPE:External perimeter
G1 F1200
G1 X83.57 Y80.973 E.0141 ; perimeter
G1 X84.022 Y80.884 E.02044 ; perimeter
G1 X165.872 Y80.884 E3.63043 ; perimeter
G1 X166.425 Y80.972 E.02486 ; perimeter
G1 X166.787 Y81.213 E.01928 ; perimeter
G1 X167.033 Y81.582 E.01965 ; perimeter
G1 X167.116 Y82.013 E.01947 ; perimeter
G1 X167.116 Y127.911 E2.03581 ; perimeter
G1 X167.082 Y128.264 E.01574 ; perimeter
G1 X166.894 Y128.663 E.01955 ; perimeter
G1 X166.568 Y128.958 E.01949 ; perimeter
G1 X166.27 Y129.081 E.01433 ; perimeter
G1 X165.985 Y129.116 E.01273 ; perimeter
G1 X84.145 Y129.116 E3.62998 ; perimeter
G1 X83.844 Y129.095 E.01339 ; perimeter
M73 P0 R94
G1 X83.481 Y128.985 E.01683 ; perimeter
G1 X83.136 Y128.703 E.01976 ; perimeter
G1 X82.973 Y128.43 E.0141 ; perimeter
G1 X82.884 Y127.978 E.02044 ; perimeter
G1 X82.884 Y82.015 E2.03867 ; perimeter
G1 X82.905 Y81.844 E.00765 ; perimeter
G1 X83.015 Y81.481 E.01683 ; perimeter
G1 X83.259 Y81.183 E.01709 ; perimeter
M204 S1000 ; adjust acceleration
G1 X83.597 Y81.24 F10800 ; move inwards before travel
;WIPE_START
G1 F8640
G1 X83.57 Y80.973 E-.08657 ; wipe and retract
G1 X84.022 Y80.884 E-.10641 ; wipe and retract
G1 X88.946 Y80.884 E-1.13702 ; wipe and retract
;WIPE_END
G1 E-.07 F2100 ; retract
G1 Z.5 F720 ; lift Z
G1 X124.516 Y85.896 F10800 ; move to first perimeter point
G1 Z.3 F720 ; restore layer Z
G1 E1.4 F2100 ;  ; unretract
M204 S800 ; adjust acceleration
;TYPE:Perimeter
G1 F1200
G1 X125.038 Y85.841 E.02331 ; perimeter
G1 X125.599 Y85.925 E.02516 ; perimeter
G1 X126.128 Y86.153 E.02552 ; perimeter
G1 X126.471 Y86.413 E.01911 ; perimeter
G1 X126.756 Y86.736 E.01911 ; perimeter
G1 X126.972 Y87.109 E.01911 ; perimeter
G1 X127.109 Y87.518 E.01911 ; perimeter
G1 X127.163 Y87.945 E.01911 ; perimeter
G1 X127.131 Y88.375 E.01911 ; perimeter
G1 X127.015 Y88.79 E.01911 ; perimeter
G1 X126.818 Y89.173 E.01911 ; perimeter
G1 X126.55 Y89.51 E.01911 ; perimeter
G1 X126.22 Y89.787 E.01911 ; perimeter
G1 X125.841 Y89.994 E.01911 ; perimeter
G1 X125.43 Y90.121 E.01911 ; perimeter
G1 X125.001 Y90.164 E.01911 ; perimeter
G1 X124.572 Y90.121 E.01911 ; perimeter
G1 X124.126 Y89.975 E.02082 ; perimeter
G1 X123.642 Y89.679 E.02516 ; perimeter
G1 X123.283 Y89.32 E.02249 ; perimeter
G1 X123.028 Y88.891 E.02218 ; perimeter
G1 X122.891 Y88.482 E.01911 ; perimeter
G1 X122.842 Y88.161 E.01442 ; perimeter
G1 X122.869 Y87.625 E.0238 ; perimeter
G1 X122.985 Y87.21 E.01911 ; perimeter
G1 X123.182 Y86.827 E.01911 ; perimeter
G1 X123.45 Y86.49 E.01911 ; perimeter
G1 X123.78 Y86.213 E.01911 ; perimeter
G1 X124.159 Y86.006 E.01911 ; perimeter
G1 X124.458 Y85.914 E.01391 ; perimeter
M204 S1000 ; adjust acceleration
G1 X124.615 Y86.232 F10800 ; move to first perimeter point
M204 S800 ; adjust acceleration
;TYPE:External perimeter
G1 F1200
G1 X124.985 Y86.192 E.01654 ; perimeter
G1 X125.546 Y86.277 E.02516 ; perimeter
G1 X125.92 Y86.442 E.01812 ; perimeter
G1 X126.21 Y86.655 E.01598 ; perimeter
G1 X126.453 Y86.922 E.01598 ; perimeter
G1 X126.638 Y87.231 E.01598 ; perimeter
G1 X126.758 Y87.571 E.01598 ; perimeter
G1 X126.808 Y87.927 E.01598 ; perimeter
G1 X126.786 Y88.287 E.01598 ; perimeter
G1 X126.694 Y88.635 E.01598 ; perimeter
G1 X126.535 Y88.959 E.01598 ; perimeter
G1 X126.314 Y89.244 E.01598 ; perimeter
G1 X126.042 Y89.479 E.01598 ; perimeter
G1 X125.728 Y89.657 E.01598 ; perimeter
G1 X125.385 Y89.768 E.01598 ; perimeter
G1 X125.027 Y89.809 E.01598 ; perimeter
G1 X124.668 Y89.779 E.01598 ; perimeter
G1 X124.311 Y89.671 E.01654 ; perimeter
G1 X123.827 Y89.376 E.02516 ; perimeter
G1 X123.547 Y89.078 E.01812 ; perimeter
G1 X123.362 Y88.769 E.01598 ; perimeter
G1 X123.242 Y88.429 E.01598 ; perimeter
G1 X123.194 Y88.108 E.01442 ; perimeter
G1 X123.214 Y87.713 E.01754 ; perimeter
G1 X123.306 Y87.365 E.01598 ; perimeter
G1 X123.465 Y87.041 E.01598 ; perimeter
G1 X123.686 Y86.756 E.01598 ; perimeter
G1 X123.958 Y86.521 E.01598 ; perimeter
G1 X124.272 Y86.343 E.01598 ; perimeter
G1 X124.558 Y86.251 E.01332 ; perimeter
M204 S1000 ; adjust acceleration
G1 X124.73 Y85.878 F10800 ; move inwards before travel
;WIPE_START
G1 F8640
G1 X124.985 Y86.192 E-.09969 ; wipe and retract
G1 X125.546 Y86.277 E-.131 ; wipe and retract
G1 X125.92 Y86.442 E-.09432 ; wipe and retract
G1 X126.21 Y86.655 E-.0832 ; wipe and retract
G1 X126.453 Y86.922 E-.0832 ; wipe and retract
G1 X126.638 Y87.231 E-.0832 ; wipe and retract
G1 X126.758 Y87.571 E-.08319 ; wipe and retract
G1 X126.808 Y87.927 E-.0832 ; wipe and retract
G1 X126.786 Y88.287 E-.0832 ; wipe and retract
G1 X126.694 Y88.635 E-.0832 ; wipe and retract
G1 X126.535 Y88.959 E-.0832 ; wipe and retract
G1 X126.314 Y89.244 E-.0832 ; wipe and retract
G1 X126.042 Y89.479 E-.08319 ; wipe and retract
G1 X125.728 Y89.657 E-.0832 ; wipe and retract
G1 X125.385 Y89.768 E-.0832 ; wipe and retract
G1 X125.357 Y89.771 E-.0066 ; wipe and retract
;WIPE_END
G1 E-.07 F2100 ; retract
G1 Z.5 F720 ; lift Z
G1 X124.629 Y114.127 F10800 ; move to first perimeter point
G1 Z.3 F720 ; restore layer Z
G1 E1.4 F2100 ;  ; unretract
M204 S800 ; adjust acceleration
;TYPE:Perimeter
G1 F1200
G1 X124.125 Y113.975 E.02333 ; perimeter
G1 X123.641 Y113.679 E.02516 ; perimeter
G1 X123.284 Y113.321 E.02245 ; perimeter
G1 X123.028 Y112.891 E.02219 ; perimeter
G1 X122.891 Y112.482 E.01911 ; perimeter
G1 X122.842 Y112.161 E.01442 ; perimeter
G1 X122.865 Y111.643 E.02297 ; perimeter
G1 X122.985 Y111.21 E.01995 ; perimeter
G1 X123.182 Y110.827 E.01911 ; perimeter
G1 X123.45 Y110.49 E.01911 ; perimeter
G1 X123.876 Y110.157 E.02396 ; perimeter
G1 X124.159 Y110.006 E.01421 ; perimeter
G1 X124.57 Y109.879 E.01911 ; perimeter
G1 X124.999 Y109.836 E.01911 ; perimeter
G1 X125.428 Y109.879 E.01911 ; perimeter
G1 X125.84 Y110.006 E.01911 ; perimeter
G1 X126.218 Y110.212 E.01911 ; perimeter
G1 X126.548 Y110.489 E.01911 ; perimeter
G1 X126.817 Y110.825 E.01911 ; perimeter
G1 X127.024 Y111.247 E.02082 ; perimeter
G1 X127.15 Y111.8 E.02516 ; perimeter
G1 X127.142 Y112.321 E.0231 ; perimeter
G1 X127.015 Y112.79 E.02157 ; perimeter
G1 X126.818 Y113.173 E.01911 ; perimeter
G1 X126.55 Y113.51 E.01911 ; perimeter
G1 X126.22 Y113.787 E.01911 ; perimeter
G1 X125.841 Y113.994 E.01911 ; perimeter
G1 X125.43 Y114.121 E.01911 ; perimeter
G1 X125.001 Y114.164 E.01911 ; perimeter
G1 X124.689 Y114.133 E.01391 ; perimeter
M204 S1000 ; adjust acceleration
G1 X124.668 Y113.779 F10800 ; move to first perimeter point
M204 S800 ; adjust acceleration
;TYPE:External perimeter
G1 F1200
G1 X124.311 Y113.671 E.01656 ; perimeter
G1 X123.827 Y113.375 E.02516 ; perimeter
G1 X123.547 Y113.078 E.0181 ; perimeter
G1 X123.362 Y112.769 E.01598 ; perimeter
G1 X123.242 Y112.429 E.01598 ; perimeter
G1 X123.194 Y112.108 E.01442 ; perimeter
G1 X123.214 Y111.713 E.01754 ; perimeter
G1 X123.306 Y111.365 E.01598 ; perimeter
G1 X123.465 Y111.041 E.01598 ; perimeter
G1 X123.686 Y110.756 E.01598 ; perimeter
G1 X124.054 Y110.465 E.02082 ; perimeter
G1 X124.272 Y110.343 E.01108 ; perimeter
G1 X124.615 Y110.232 E.01598 ; perimeter
G1 X124.973 Y110.191 E.01598 ; perimeter
G1 X125.332 Y110.221 E.01598 ; perimeter
G1 X125.677 Y110.322 E.01598 ; perimeter
G1 X125.997 Y110.49 E.01598 ; perimeter
G1 X126.276 Y110.717 E.01598 ; perimeter
G1 X126.505 Y110.995 E.01598 ; perimeter
G1 X126.677 Y111.326 E.01654 ; perimeter
G1 X126.804 Y111.879 E.02516 ; perimeter
G1 X126.786 Y112.287 E.01812 ; perimeter
G1 X126.694 Y112.635 E.01598 ; perimeter
G1 X126.535 Y112.959 E.01598 ; perimeter
G1 X126.314 Y113.244 E.01598 ; perimeter
G1 X126.042 Y113.479 E.01598 ; perimeter
G1 X125.728 Y113.657 E.01598 ; perimeter
G1 X125.385 Y113.768 E.01598 ; perimeter
G1 X125.027 Y113.809 E.01598 ; perimeter
G1 X124.728 Y113.784 E.01332 ; perimeter
M204 S1000 ; adjust acceleration
G1 X124.424 Y114.061 F10800 ; move inwards before travel
;WIPE_START
G1 F8640
G1 X124.311 Y113.671 E-.09979 ; wipe and retract
G1 X123.827 Y113.375 E-.13099 ; wipe and retract
G1 X123.547 Y113.078 E-.09423 ; wipe and retract
G1 X123.362 Y112.769 E-.0832 ; wipe and retract
G1 X123.242 Y112.429 E-.0832 ; wipe and retract
G1 X123.194 Y112.108 E-.07506 ; wipe and retract
G1 X123.214 Y111.713 E-.09133 ; wipe and retract
G1 X123.306 Y111.365 E-.0832 ; wipe and retract
G1 X123.465 Y111.041 E-.0832 ; wipe and retract
G1 X123.686 Y110.756 E-.0832 ; wipe and retract
G1 X124.054 Y110.465 E-.10838 ; wipe and retract
G1 X124.272 Y110.343 E-.05767 ; wipe and retract
G1 X124.615 Y110.232 E-.0832 ; wipe and retract
G1 X124.973 Y110.191 E-.0832 ; wipe and retract
G1 X125.332 Y110.221 E-.0832 ; wipe and retract
G1 X125.361 Y110.23 E-.00696 ; wipe and retract
;WIPE_END
G1 E-.07 F2100 ; retract
G1 Z.5 F720 ; lift Z
G1 X165.524 Y81.346 F10800 ; move to first infill point
G1 Z.3 F720 ; restore layer Z
G1 E1.4 F2100 ;  ; unretract
M204 S800 ; adjust acceleration
;TYPE:Solid infill
;WIDTH:0.420299
G1 F1200
G1 X166.494 Y82.317 E.0609 ; infill
G1 X166.494 Y82.82 E.02234 ; infill
G1 X165.181 Y81.507 E.08246 ; infill
G1 X164.677 Y81.506 E.02234 ; infill
G1 X166.494 Y83.323 E.11406 ; infill
G1 X166.494 Y83.827 E.02234 ; infill
G1 X164.174 Y81.506 E.14566 ; infill
G1 X163.671 Y81.506 E.02234 ; infill
G1 X166.494 Y84.33 E.17726 ; infill
G1 X166.494 Y84.833 E.02234 ; infill
G1 X163.167 Y81.506 E.20886 ; infill
G1 X162.664 Y81.506 E.02234 ; infill
G1 X166.494 Y85.337 E.24046 ; infill
G1 X166.494 Y85.84 E.02234 ; infill
G1 X162.161 Y81.506 E.27206 ; infill
G1 X161.657 Y81.506 E.02234 ; infill
G1 X166.494 Y86.343 E.30366 ; infill
G1 X166.494 Y86.847 E.02234 ; infill
G1 X161.154 Y81.506 E.33526 ; infill
G1 X160.65 Y81.506 E.02234 ; infill
G1 X166.494 Y87.35 E.36686 ; infill
G1 X166.494 Y87.853 E.02234 ; infill
G1 X160.147 Y81.506 E.39846 ; infill
G1 X159.644 Y81.506 E.02234 ; infill
G1 X166.494 Y88.357 E.43006 ; infill
G1 X166.494 Y88.86 E.02234 ; infill
G1 X159.14 Y81.506 E.46166 ; infill
G1 X158.637 Y81.506 E.02234 ; infill
M73 Q1 S95
G1 X166.494 Y89.363 E.49326 ; infill
G1 X166.494 Y89.867 E.02234 ; infill
M73 P1 R94
G1 X158.134 Y81.506 E.52486 ; infill
G1 X157.63 Y81.506 E.02234 ; infill
G1 X166.494 Y90.37 E.55646 ; infill
G1 X166.494 Y90.873 E.02234 ; infill
G1 X157.127 Y81.506 E.58806 ; infill
G1 X156.624 Y81.506 E.02234 ; infill
G1 X166.494 Y91.377 E.61966 ; infill
G1 X166.494 Y91.88 E.02234 ; infill
G1 X156.12 Y81.506 E.65126 ; infill
G1 X155.617 Y81.506 E.02234 ; infill
G1 X166.494 Y92.383 E.68286 ; infill
G1 X166.494 Y92.887 E.02234 ; infill
G1 X155.114 Y81.506 E.71446 ; infill
M73 Q1 S94
G1 X154.61 Y81.506 E.02234 ; infill
G1 X166.494 Y93.39 E.74606 ; infill
G1 X166.494 Y93.893 E.02234 ; infill
G1 X154.107 Y81.506 E.77766 ; infill
G1 X153.604 Y81.506 E.02234 ; infill
G1 X166.494 Y94.397 E.80926 ; infill
G1 X166.494 Y94.9 E.02234 ; infill
G1 X153.1 Y81.506 E.84086 ; infill
G1 X152.597 Y81.506 E.02234 ; infill
G1 X166.494 Y95.404 E.87246 ; infill
G1 X166.494 Y95.907 E.02234 ; infill
G1 X152.094 Y81.506 E.90406 ; infill
G1 X151.59 Y81.506 E.02234 ; infill
G1 X166.494 Y96.41 E.93566 ; infill
G1 X166.494 Y96.914 E.02234 ; infill
G1 X151.087 Y81.506 E.96726 ; infill
G1 X150.584 Y81.506 E.02234 ; infill
G1 X166.494 Y97.417 E.99886 ; infill
G1 X166.494 Y97.92 E.02234 ; infill
G1 X150.08 Y81.506 E1.03046 ; infill
G1 X149.577 Y81.506 E.02234 ; infill
G1 X166.494 Y98.424 E1.06206 ; infill
G1 X166.494 Y98.927 E.02234 ; infill
G1 X149.073 Y81.506 E1.09366 ; infill
G1 X148.57 Y81.506 E.02234 ; infill
G1 X166.494 Y99.43 E1.12526 ; infill
G1 X166.494 Y99.934 E.02234 ; infill
G1 X148.067 Y81.506 E1.15686 ; infill
G1 X147.563 Y81.506 E.02234 ; infill
