; generated by PrusaSlicer 2.5.2 on 2023-05-06 at 19:34:15 UTC


;
;
; 

; external perimeters extrusion width = 0.60mm
; perimeters extrusion width = 0.50mm
; infill extrusion width = 0.50mm
; solid infill extrusion width = 0.50mm
; top infill extrusion width = 0.45mm
; support material extrusion width = 0.38mm
; first layer extrusion width = 0.42mm

; external perimeters extrusion width = 0.60mm
; perimeters extrusion width = 0.50mm
; infill extrusion width = 0.50mm
; solid infill extrusion width = 0.50mm
; top infill extrusion width = 0.45mm
; support material extrusion width = 0.38mm
; first layer extrusion width = 0.42mm

M73 P0 R78
M73 Q0 S79
M201 X1000 Y1000 Z200 E5000 ; sets maximum accelerations, mm/sec^2
M203 X200 Y200 Z12 E120 ; sets maximum feedrates, mm / sec
M204 P1250 R1250 T1250 ; sets acceleration (P, T) and retract acceleration (R), mm/sec^2
M205 X8.00 Y8.00 Z0.40 E4.50 ; sets the jerk limits, mm/sec
M205 S0 T0 ; sets the minimum extruding and travel feed rate, mm/sec
M107 ; disable fan
;TYPE:Custom
M862.3 P "MK3S" ; printer model check
M862.1 P0.4 ; nozzle diameter check
M115 U3.11.0 ; tell printer latest fw version
G90 ; use absolute coordinates
M83 ; extruder relative mode
M104 S240 ; set extruder temp
M140 S95 ; set bed temp
M190 S95 ; wait for bed temp
M109 S240 ; wait for extruder temp
G28 W ; home all without mesh bed level
G80 ; mesh bed leveling

G1 Z0.2 F720
G1 Y-3 F1000 ; go outside print area
G92 E0
G1 X60 E9 F1000 ; intro line
G1 X100 E12.5 F1000 ; intro line

G92 E0
M221 S95

; Don't change E values below. Excessive value can damage the printer.

M907 E538 ; set extruder motor current
G21 ; set units to millimeters
G90 ; use absolute coordinates
M83 ; use relative distances for extrusion
M900 K0.08 ; Filament gcode LA 1.5
M900 K45 ; Filament gcode LA 1.0
M107 ; disable fan
;LAYER_CHANGE
;Z:0.3
;HEIGHT:0.3
;BEFORE_LAYER_CHANGE
G92 E0.0
;0.3


G1 E-1.4 F2100 ; retract
G1 Z.2 F720 ; lift Z
G1 Z.3 ; move to next layer (0)
;AFTER_LAYER_CHANGE
;0.3
G1 Z.5 ; lift Z
G1 X74.06 Y63.998 F10800 ; move to first skirt point
G1 Z.3 F720 ; restore layer Z
G1 E1.4 F2100 ;  ; unretract
M204 S800 ; adjust acceleration
;TYPE:Skirt/Brim
;WIDTH:0.42
G1 F1200
G1 X75.105 Y63.129 E.06024 ; skirt
G1 X76.025 Y62.942 E.04163 ; skirt
G1 X126.032 Y62.942 E2.21808 ; skirt
G1 X177.555 Y63.111 E2.28531 ; skirt
G1 X178.855 Y63.507 E.06024 ; skirt
G1 X179.719 Y64.554 E.06024 ; skirt
G1 X179.903 Y65.467 E.04129 ; skirt
G1 X179.903 Y117.467 E2.30645 ; skirt
G1 X179.512 Y118.767 E.06024 ; skirt
G1 X178.467 Y119.635 E.06024 ; skirt
G1 X177.548 Y119.822 E.04163 ; skirt
G1 X127.54 Y119.822 E2.21808 ; skirt
G1 X76.017 Y119.654 E2.28531 ; skirt
G1 X74.718 Y119.258 E.06024 ; skirt
G1 X73.853 Y118.211 E.06024 ; skirt
G1 X73.669 Y117.298 E.04129 ; skirt
G1 X73.669 Y65.298 E2.30645 ; skirt
G1 X74.043 Y64.055 E.05758 ; skirt
M204 S1000 ; adjust acceleration
; printing object 8L_shoulder_joint-Body.stl id:0 copy 0
;WIPE_START
G1 F8640
G1 X75.105 Y63.129 E-.32524 ; wipe and retract
G1 X76.025 Y62.942 E-.21671 ; wipe and retract
G1 X79.437 Y62.942 E-.78805 ; wipe and retract
;WIPE_END
G1 E-.07 F2100 ; retract
G1 Z.5 F720 ; lift Z
G1 X128.313 Y66.232 F10800 ; move to first perimeter point
G1 Z.3 F720 ; restore layer Z
G1 E1.4 F2100 ;  ; unretract
M204 S800 ; adjust acceleration
;TYPE:Perimeter
;WIDTH:0.42
G1 F1200
G1 X176.782 Y66.232 E2.14982 ; perimeter
G1 X176.782 Y116.701 E2.23853 ; perimeter
G1 X128.313 Y116.701 E2.14982 ; perimeter
G1 X128.313 Y66.292 E2.23587 ; perimeter
M204 S1000 ; adjust acceleration
G1 X127.958 Y65.877 F10800 ; move to first perimeter point
M204 S800 ; adjust acceleration
;TYPE:External perimeter
G1 F1200
G1 X177.138 Y65.877 E2.18137 ; perimeter
G1 X177.138 Y117.057 E2.27008 ; perimeter
G1 X127.958 Y117.057 E2.18137 ; perimeter
G1 X127.958 Y65.937 E2.26742 ; perimeter
M204 S1000 ; adjust acceleration
G1 X128.343 Y65.983 F10800 ; move inwards before travel
;WIPE_START
M73 P0 R77
G1 F8640
G1 X133.718 Y65.93 E-1.33 ; wipe and retract
;WIPE_END
G1 E-.07 F2100 ; retract
G1 Z.5 F720 ; lift Z
G1 X146.38 Y88.283 F10800 ; move to first perimeter point
G1 Z.3 F720 ; restore layer Z
G1 E1.4 F2100 ;  ; unretract
M204 S800 ; adjust acceleration
;TYPE:Perimeter
G1 F1200
G1 X145.999 Y87.978 E.02163 ; perimeter
G1 X145.73 Y87.641 E.01911 ; perimeter
G1 X145.534 Y87.258 E.01911 ; perimeter
G1 X145.415 Y86.804 E.02083 ; perimeter
G1 X145.4 Y86.237 E.02516 ; perimeter
G1 X145.513 Y85.725 E.02322 ; perimeter
G1 X145.73 Y85.293 E.02144 ; perimeter
G1 X146.051 Y84.91 E.02218 ; perimeter
G1 X146.328 Y84.679 E.01601 ; perimeter
G1 X146.706 Y84.473 E.01911 ; perimeter
G1 X147.118 Y84.346 E.01911 ; perimeter
G1 X147.547 Y84.303 E.01911 ; perimeter
G1 X147.976 Y84.346 E.01911 ; perimeter
G1 X148.387 Y84.472 E.01911 ; perimeter
G1 X148.766 Y84.678 E.01911 ; perimeter
G1 X149.096 Y84.955 E.01911 ; perimeter
G1 X149.365 Y85.292 E.01911 ; perimeter
G1 X149.562 Y85.675 E.01911 ; perimeter
G1 X149.681 Y86.13 E.02083 ; perimeter
G1 X149.695 Y86.697 E.02516 ; perimeter
G1 X149.577 Y87.223 E.02391 ; perimeter
G1 X149.366 Y87.64 E.02075 ; perimeter
G1 X149.097 Y87.977 E.01911 ; perimeter
G1 X148.767 Y88.254 E.01911 ; perimeter
G1 X148.389 Y88.46 E.01911 ; perimeter
G1 X147.977 Y88.587 E.01911 ; perimeter
G1 X147.549 Y88.631 E.01911 ; perimeter
G1 X147.12 Y88.588 E.01911 ; perimeter
G1 X146.708 Y88.461 E.01911 ; perimeter
G1 X146.433 Y88.311 E.01389 ; perimeter
M204 S1000 ; adjust acceleration
G1 X146.551 Y87.977 F10800 ; move to first perimeter point
M204 S800 ; adjust acceleration
;TYPE:External perimeter
G1 F1200
G1 X146.272 Y87.75 E.01598 ; perimeter
G1 X146.043 Y87.471 E.01598 ; perimeter
G1 X145.874 Y87.153 E.01598 ; perimeter
G1 X145.77 Y86.795 E.01654 ; perimeter
G1 X145.756 Y86.228 E.02516 ; perimeter
G1 X145.854 Y85.831 E.01812 ; perimeter
G1 X146.013 Y85.508 E.01598 ; perimeter
G1 X146.286 Y85.177 E.01904 ; perimeter
G1 X146.506 Y84.987 E.01287 ; perimeter
G1 X146.82 Y84.81 E.01598 ; perimeter
G1 X147.162 Y84.699 E.01598 ; perimeter
G1 X147.52 Y84.657 E.01598 ; perimeter
G1 X147.879 Y84.688 E.01598 ; perimeter
G1 X148.225 Y84.789 E.01598 ; perimeter
G1 X148.544 Y84.956 E.01598 ; perimeter
G1 X148.824 Y85.184 E.01598 ; perimeter
G1 X149.053 Y85.462 E.01598 ; perimeter
G1 X149.222 Y85.78 E.01598 ; perimeter
G1 X149.325 Y86.138 E.01654 ; perimeter
G1 X149.34 Y86.706 E.02516 ; perimeter
G1 X149.242 Y87.102 E.01812 ; perimeter
G1 X149.082 Y87.425 E.01598 ; perimeter
G1 X148.862 Y87.71 E.01598 ; perimeter
G1 X148.59 Y87.946 E.01598 ; perimeter
G1 X148.276 Y88.123 E.01598 ; perimeter
G1 X147.933 Y88.235 E.01598 ; perimeter
G1 X147.413 Y88.264 E.02312 ; perimeter
G1 X146.903 Y88.157 E.02308 ; perimeter
G1 X146.605 Y88.004 E.01488 ; perimeter
M204 S1000 ; adjust acceleration
G1 X146.232 Y88.145 F10800 ; move inwards before travel
;WIPE_START
G1 F8640
G1 X146.272 Y87.75 E-.0968 ; wipe and retract
G1 X146.043 Y87.471 E-.0832 ; wipe and retract
G1 X145.874 Y87.153 E-.0832 ; wipe and retract
G1 X145.77 Y86.795 E-.08611 ; wipe and retract
G1 X145.756 Y86.228 E-.131 ; wipe and retract
G1 X145.854 Y85.831 E-.09431 ; wipe and retract
G1 X146.013 Y85.508 E-.0832 ; wipe and retract
G1 X146.286 Y85.177 E-.09914 ; wipe and retract
G1 X146.506 Y84.987 E-.06702 ; wipe and retract
G1 X146.82 Y84.81 E-.0832 ; wipe and retract
G1 X147.162 Y84.699 E-.0832 ; wipe and retract
G1 X147.52 Y84.657 E-.0832 ; wipe and retract
G1 X147.879 Y84.688 E-.0832 ; wipe and retract
G1 X148.225 Y84.789 E-.0832 ; wipe and retract
G1 X148.544 Y84.956 E-.08319 ; wipe and retract
G1 X148.567 Y84.975 E-.00684 ; wipe and retract
;WIPE_END
G1 E-.07 F2100 ; retract
G1 Z.5 F720 ; lift Z
G1 X152.063 Y89.363 F10800 ; move to first perimeter point
G1 Z.3 F720 ; restore layer Z
G1 E1.4 F2100 ;  ; unretract
M204 S800 ; adjust acceleration
;TYPE:Perimeter
G1 F1200
G1 X152.547 Y89.303 E.02162 ; perimeter
G1 X153.073 Y89.373 E.02352 ; perimeter
G1 X153.47 Y89.514 E.01869 ; perimeter
G1 X153.835 Y89.734 E.01891 ; perimeter
G1 X154.153 Y90.023 E.01907 ; perimeter
G1 X154.409 Y90.373 E.01923 ; perimeter
G1 X154.591 Y90.771 E.01942 ; perimeter
G1 X154.681 Y91.13 E.01638 ; perimeter
G1 X154.695 Y91.697 E.02516 ; perimeter
G1 X154.577 Y92.223 E.02391 ; perimeter
G1 X154.366 Y92.64 E.02075 ; perimeter
G1 X154.097 Y92.977 E.01911 ; perimeter
G1 X153.767 Y93.254 E.01911 ; perimeter
G1 X153.389 Y93.46 E.01911 ; perimeter
G1 X152.977 Y93.587 E.01911 ; perimeter
G1 X152.549 Y93.631 E.01911 ; perimeter
G1 X152.023 Y93.56 E.02352 ; perimeter
G1 X151.626 Y93.419 E.01869 ; perimeter
G1 X151.26 Y93.2 E.01891 ; perimeter
G1 X150.942 Y92.91 E.01907 ; perimeter
G1 X150.686 Y92.56 E.01923 ; perimeter
G1 X150.504 Y92.162 E.01942 ; perimeter
G1 X150.415 Y91.804 E.01638 ; perimeter
G1 X150.4 Y91.237 E.02516 ; perimeter
G1 X150.518 Y90.711 E.02391 ; perimeter
G1 X150.73 Y90.293 E.02075 ; perimeter
G1 X150.998 Y89.956 E.01911 ; perimeter
G1 X151.328 Y89.679 E.01911 ; perimeter
G1 X151.706 Y89.473 E.01911 ; perimeter
G1 X152.006 Y89.381 E.0139 ; perimeter
M204 S1000 ; adjust acceleration
G1 X152.162 Y89.699 F10800 ; move to first perimeter point
M204 S800 ; adjust acceleration
;TYPE:External perimeter
G1 F1200
G1 X152.52 Y89.657 E.01598 ; perimeter
G1 X152.976 Y89.715 E.02039 ; perimeter
G1 X153.307 Y89.831 E.01555 ; perimeter
G1 X153.614 Y90.012 E.01577 ; perimeter
G1 X153.881 Y90.252 E.01593 ; perimeter
G1 X154.097 Y90.543 E.01609 ; perimeter
G1 X154.251 Y90.876 E.01628 ; perimeter
G1 X154.325 Y91.138 E.01209 ; perimeter
G1 X154.34 Y91.706 E.02516 ; perimeter
G1 X154.242 Y92.102 E.01812 ; perimeter
M73 P1 R77
G1 X154.082 Y92.425 E.01598 ; perimeter
G1 X153.862 Y92.71 E.01598 ; perimeter
G1 X153.59 Y92.946 E.01598 ; perimeter
G1 X153.276 Y93.123 E.01598 ; perimeter
G1 X152.933 Y93.235 E.01598 ; perimeter
G1 X152.575 Y93.276 E.01598 ; perimeter
G1 X152.119 Y93.218 E.02039 ; perimeter
G1 X151.788 Y93.102 E.01555 ; perimeter
G1 X151.482 Y92.922 E.01577 ; perimeter
G1 X151.215 Y92.682 E.01593 ; perimeter
G1 X150.999 Y92.39 E.01609 ; perimeter
G1 X150.844 Y92.057 E.01628 ; perimeter
G1 X150.77 Y91.795 E.01209 ; perimeter
G1 X150.756 Y91.228 E.02516 ; perimeter
G1 X150.854 Y90.831 E.01812 ; perimeter
G1 X151.013 Y90.508 E.01598 ; perimeter
G1 X151.233 Y90.223 E.01598 ; perimeter
G1 X151.506 Y89.987 E.01598 ; perimeter
M73 Q1 S79
G1 X151.82 Y89.81 E.01598 ; perimeter
G1 X152.105 Y89.717 E.01332 ; perimeter
M204 S1000 ; adjust acceleration
G1 X152.272 Y89.355 F10800 ; move inwards before travel
;WIPE_START
G1 F8640
G1 X152.52 Y89.657 E-.09682 ; wipe and retract
G1 X152.976 Y89.715 E-.10613 ; wipe and retract
G1 X153.307 Y89.831 E-.08097 ; wipe and retract
G1 X153.614 Y90.012 E-.0821 ; wipe and retract
G1 X153.881 Y90.252 E-.08293 ; wipe and retract
G1 X154.097 Y90.543 E-.08377 ; wipe and retract
G1 X154.251 Y90.876 E-.08477 ; wipe and retract
G1 X154.325 Y91.138 E-.06294 ; wipe and retract
G1 X154.34 Y91.706 E-.13099 ; wipe and retract
G1 X154.242 Y92.102 E-.09431 ; wipe and retract
G1 X154.082 Y92.425 E-.0832 ; wipe and retract
G1 X153.862 Y92.71 E-.0832 ; wipe and retract
G1 X153.59 Y92.946 E-.08319 ; wipe and retract
G1 X153.276 Y93.123 E-.0832 ; wipe and retract
G1 X152.933 Y93.235 E-.0832 ; wipe and retract
G1 X152.898 Y93.239 E-.00827 ; wipe and retract
;WIPE_END
G1 E-.07 F2100 ; retract
G1 Z.5 F720 ; lift Z
G1 X156.656 Y94.501 F10800 ; move to first perimeter point
G1 Z.3 F720 ; restore layer Z
G1 E1.4 F2100 ;  ; unretract
M204 S800 ; adjust acceleration
;TYPE:Perimeter
G1 F1200
G1 X157.118 Y94.346 E.02162 ; perimeter
G1 X157.547 Y94.303 E.01911 ; perimeter
G1 X157.976 Y94.346 E.01911 ; perimeter
G1 X158.387 Y94.472 E.01911 ; perimeter
G1 X158.766 Y94.678 E.01911 ; perimeter
G1 X159.096 Y94.955 E.01911 ; perimeter
G1 X159.365 Y95.292 E.01911 ; perimeter
G1 X159.562 Y95.675 E.01911 ; perimeter
G1 X159.681 Y96.13 E.02083 ; perimeter
G1 X159.695 Y96.697 E.02516 ; perimeter
G1 X159.583 Y97.208 E.02322 ; perimeter
G1 X159.366 Y97.64 E.02144 ; perimeter
G1 X159.045 Y98.023 E.02218 ; perimeter
G1 X158.767 Y98.254 E.016 ; perimeter
G1 X158.389 Y98.46 E.01911 ; perimeter
G1 X157.977 Y98.587 E.01911 ; perimeter
G1 X157.549 Y98.631 E.01911 ; perimeter
G1 X157.12 Y98.588 E.01911 ; perimeter
G1 X156.708 Y98.461 E.01911 ; perimeter
G1 X156.329 Y98.255 E.01911 ; perimeter
G1 X155.999 Y97.978 E.01911 ; perimeter
G1 X155.73 Y97.641 E.01911 ; perimeter
G1 X155.534 Y97.258 E.01911 ; perimeter
G1 X155.415 Y96.804 E.02083 ; perimeter
G1 X155.4 Y96.237 E.02516 ; perimeter
G1 X155.533 Y95.677 E.02552 ; perimeter
G1 X155.73 Y95.293 E.01911 ; perimeter
G1 X155.998 Y94.956 E.01911 ; perimeter
G1 X156.328 Y94.679 E.01911 ; perimeter
G1 X156.603 Y94.529 E.0139 ; perimeter
M204 S1000 ; adjust acceleration
G1 X156.82 Y94.81 F10800 ; move to first perimeter point
M204 S800 ; adjust acceleration
;TYPE:External perimeter
G1 F1200
G1 X157.162 Y94.699 E.01598 ; perimeter
G1 X157.683 Y94.67 E.02312 ; perimeter
G1 X158.192 Y94.776 E.02308 ; perimeter
G1 X158.544 Y94.956 E.01754 ; perimeter
G1 X158.824 Y95.184 E.01598 ; perimeter
G1 X159.053 Y95.462 E.01598 ; perimeter
G1 X159.222 Y95.78 E.01598 ; perimeter
G1 X159.325 Y96.138 E.01654 ; perimeter
G1 X159.34 Y96.706 E.02516 ; perimeter
G1 X159.242 Y97.102 E.01812 ; perimeter
G1 X159.082 Y97.425 E.01598 ; perimeter
G1 X158.809 Y97.757 E.01905 ; perimeter
G1 X158.59 Y97.946 E.01287 ; perimeter
G1 X158.276 Y98.123 E.01598 ; perimeter
G1 X157.933 Y98.235 E.01598 ; perimeter
G1 X157.575 Y98.276 E.01598 ; perimeter
G1 X157.216 Y98.245 E.01598 ; perimeter
G1 X156.87 Y98.144 E.01598 ; perimeter
G1 X156.551 Y97.977 E.01598 ; perimeter
G1 X156.272 Y97.75 E.01598 ; perimeter
G1 X156.043 Y97.471 E.01598 ; perimeter
G1 X155.874 Y97.153 E.01598 ; perimeter
G1 X155.77 Y96.795 E.01654 ; perimeter
G1 X155.756 Y96.228 E.02516 ; perimeter
G1 X155.854 Y95.831 E.01812 ; perimeter
G1 X156.013 Y95.508 E.01598 ; perimeter
G1 X156.233 Y95.223 E.01598 ; perimeter
G1 X156.506 Y94.987 E.01598 ; perimeter
G1 X156.767 Y94.84 E.01332 ; perimeter
M204 S1000 ; adjust acceleration
G1 X156.859 Y94.452 F10800 ; move inwards before travel
;WIPE_START
G1 F8640
G1 X157.162 Y94.699 E-.09682 ; wipe and retract
G1 X157.683 Y94.67 E-.12036 ; wipe and retract
G1 X158.192 Y94.776 E-.12016 ; wipe and retract
G1 X158.544 Y94.956 E-.09132 ; wipe and retract
G1 X158.824 Y95.184 E-.0832 ; wipe and retract
G1 X159.053 Y95.462 E-.0832 ; wipe and retract
G1 X159.222 Y95.78 E-.0832 ; wipe and retract
G1 X159.325 Y96.138 E-.08611 ; wipe and retract
G1 X159.34 Y96.706 E-.13099 ; wipe and retract
G1 X159.242 Y97.102 E-.09431 ; wipe and retract
G1 X159.082 Y97.425 E-.0832 ; wipe and retract
G1 X158.809 Y97.757 E-.09914 ; wipe and retract
G1 X158.59 Y97.946 E-.06701 ; wipe and retract
G1 X158.276 Y98.123 E-.0832 ; wipe and retract
G1 X158.244 Y98.134 E-.00775 ; wipe and retract
;WIPE_END
G1 E-.07 F2100 ; retract
G1 Z.5 F720 ; lift Z
G1 X158.032 Y88.57 F10800 ; move to first perimeter point
G1 Z.3 F720 ; restore layer Z
G1 E1.4 F2100 ;  ; unretract
M204 S800 ; adjust acceleration
;TYPE:Perimeter
G1 F1200
G1 X157.549 Y88.631 E.02162 ; perimeter
G1 X157.023 Y88.56 E.02352 ; perimeter
G1 X156.626 Y88.419 E.01869 ; perimeter
G1 X156.26 Y88.2 E.01891 ; perimeter
G1 X155.942 Y87.91 E.01907 ; perimeter
G1 X155.686 Y87.56 E.01923 ; perimeter
G1 X155.504 Y87.162 E.01942 ; perimeter
G1 X155.415 Y86.804 E.01638 ; perimeter
G1 X155.4 Y86.237 E.02516 ; perimeter
G1 X155.508 Y85.74 E.02254 ; perimeter
G1 X155.73 Y85.293 E.02212 ; perimeter
G1 X155.998 Y84.956 E.01911 ; perimeter
G1 X156.328 Y84.679 E.01911 ; perimeter
G1 X156.706 Y84.473 E.01911 ; perimeter
G1 X157.118 Y84.346 E.01911 ; perimeter
G1 X157.547 Y84.303 E.01911 ; perimeter
G1 X157.976 Y84.346 E.01911 ; perimeter
G1 X158.387 Y84.472 E.01911 ; perimeter
G1 X158.766 Y84.678 E.01911 ; perimeter
G1 X159.096 Y84.955 E.01911 ; perimeter
G1 X159.365 Y85.292 E.01911 ; perimeter
G1 X159.562 Y85.675 E.01911 ; perimeter
G1 X159.681 Y86.13 E.02083 ; perimeter
G1 X159.695 Y86.697 E.02516 ; perimeter
