; generated by PrusaSlicer 2.5.2 on 2023-05-13 at 13:04:40 UTC


;
;
; 

; external perimeters extrusion width = 0.60mm
; perimeters extrusion width = 0.50mm
; infill extrusion width = 0.50mm
; solid infill extrusion width = 0.50mm
; top infill extrusion width = 0.45mm
; support material extrusion width = 0.38mm
; first layer extrusion width = 0.42mm

M73 P0 R109
M73 Q0 S110
M201 X1000 Y1000 Z200 E5000 ; sets maximum accelerations, mm/sec^2
M203 X200 Y200 Z12 E120 ; sets maximum feedrates, mm / sec
M204 P1250 R1250 T1250 ; sets acceleration (P, T) and retract acceleration (R), mm/sec^2
M205 X8.00 Y8.00 Z0.40 E4.50 ; sets the jerk limits, mm/sec
M205 S0 T0 ; sets the minimum extruding and travel feed rate, mm/sec
M107 ; disable fan
;TYPE:Custom
M862.3 P "MK3S" ; printer model check
M862.1 P0.4 ; nozzle diameter check
M115 U3.11.0 ; tell printer latest fw version
G90 ; use absolute coordinates
M83 ; extruder relative mode
M104 S240 ; set extruder temp
M140 S95 ; set bed temp
M190 S95 ; wait for bed temp
M109 S240 ; wait for extruder temp
G28 W ; home all without mesh bed level
G80 ; mesh bed leveling

G1 Z0.2 F720
G1 Y-3 F1000 ; go outside print area
G92 E0
G1 X60 E9 F1000 ; intro line
G1 X100 E12.5 F1000 ; intro line

G92 E0
M221 S95

; Don't change E values below. Excessive value can damage the printer.

M907 E538 ; set extruder motor current
G21 ; set units to millimeters
G90 ; use absolute coordinates
M83 ; use relative distances for extrusion
M900 K0.08 ; Filament gcode LA 1.5
M900 K45 ; Filament gcode LA 1.0
M107 ; disable fan
;LAYER_CHANGE
;Z:0.3
;HEIGHT:0.3
;BEFORE_LAYER_CHANGE
G92 E0.0
;0.3


G1 E-1.4 F2100 ; retract
G1 Z.2 F720 ; lift Z
G1 Z.3 ; move to next layer (0)
;AFTER_LAYER_CHANGE
;0.3
G1 Z.5 ; lift Z
G1 X64.513 Y84.542 F10800 ; move to first skirt point
G1 Z.3 F720 ; restore layer Z
G1 E1.4 F2100 ;  ; unretract
M204 S800 ; adjust acceleration
;TYPE:Skirt/Brim
;WIDTH:0.42
G1 F1200
G1 X66.159 Y83.509 E.0862 ; skirt
G1 X117.421 Y76.54 E2.29462 ; skirt
G1 X183.523 Y76.54 E2.93192 ; skirt
G1 X184.823 Y76.932 E.06024 ; skirt
G1 X185.691 Y77.976 E.06024 ; skirt
G1 X185.878 Y78.896 E.04163 ; skirt
G1 X185.878 Y126.473 E2.11025 ; skirt
G1 X185.487 Y127.773 E.06024 ; skirt
G1 X184.268 Y128.707 E.06813 ; skirt
G1 X170.374 Y133.339 E.64959 ; skirt
G1 X169.629 Y133.46 E.03347 ; skirt
G1 X156.475 Y133.439 E.58343 ; skirt
G1 X121.665 Y128.796 E1.55767 ; skirt
G1 X66.09 Y119.534 E2.49901 ; skirt
G1 X64.872 Y118.934 E.06024 ; skirt
M73 P0 R108
G1 X64.122 Y117.21 E.08337 ; skirt
G1 X64.122 Y85.843 E1.39129 ; skirt
G1 X64.496 Y84.6 E.05758 ; skirt
M204 S1000 ; adjust acceleration
; printing object 9L_upper_arm-Body.stl id:0 copy 0
;WIPE_START
G1 F8640
G1 X66.159 Y83.509 E-.45928 ; wipe and retract
G1 X69.896 Y83.001 E-.87072 ; wipe and retract
;WIPE_END
G1 E-.07 F2100 ; retract
G1 Z.5 F720 ; lift Z
G1 X183.523 Y126.473 F10800 ; move to first support material point
G1 Z.3 F720 ; restore layer Z
G1 E1.4 F2100 ;  ; unretract
M204 S800 ; adjust acceleration
;TYPE:Support material
G1 F1200
G1 X169.629 Y126.473 E.61625 ; support material
G1 X169.629 Y131.104 E.20542 ; support material
G1 X156.787 Y131.104 E.56962 ; support material
G1 X156.787 Y126.473 E.20542 ; support material
G1 X122.052 Y126.473 E1.54063 ; support material
G1 X122.052 Y124.157 E.10271 ; support material
G1 X117.421 Y124.157 E.20542 ; support material
G1 X117.421 Y121.841 E.10271 ; support material
G1 X112.79 Y121.841 E.20542 ; support material
G1 X112.79 Y119.526 E.10271 ; support material
G1 X105.843 Y119.526 E.30813 ; support material
G1 X105.843 Y117.21 E.10271 ; support material
G1 X66.477 Y117.21 E1.74605 ; support material
G1 X66.477 Y85.843 E1.39129 ; support material
G1 X105.843 Y85.843 E1.74605 ; support material
G1 X105.843 Y83.527 E.10271 ; support material
G1 X112.79 Y83.527 E.30813 ; support material
G1 X112.79 Y81.212 E.10271 ; support material
G1 X117.421 Y81.212 E.20542 ; support material
G1 X117.421 Y78.896 E.10271 ; support material
G1 X183.523 Y78.896 E2.93192 ; support material
G1 X183.523 Y126.419 E2.10788 ; support material
M204 S1000 ; adjust acceleration
G1 X87.678 Y97.331 F10800 ; move to first support material point
M204 S800 ; adjust acceleration
G1 F1200
M73 Q0 S109
G1 X87.363 Y97.354 E.01402 ; support material
G1 X87.052 Y97.408 E.01402 ; support material
G1 X86.747 Y97.493 E.01402 ; support material
G1 X86.453 Y97.608 E.01402 ; support material
G1 X86.171 Y97.751 E.01402 ; support material
G1 X85.905 Y97.922 E.01402 ; support material
G1 X85.658 Y98.118 E.01402 ; support material
G1 X85.452 Y98.317 E.01269 ; support material
G1 X85.227 Y98.58 E.01534 ; support material
G1 X85.049 Y98.841 E.01402 ; support material
G1 X84.897 Y99.118 E.01402 ; support material
G1 X84.785 Y99.381 E.01269 ; support material
G1 X84.67 Y99.754 E.0173 ; support material
G1 X84.614 Y100.035 E.01269 ; support material
G1 X84.583 Y100.379 E.01534 ; support material
G1 X84.584 Y100.665 E.01269 ; support material
G1 X84.616 Y100.979 E.01402 ; support material
G1 X84.68 Y101.289 E.01402 ; support material
G1 X84.774 Y101.591 E.01402 ; support material
G1 X84.897 Y101.882 E.01402 ; support material
G1 X85.049 Y102.159 E.01402 ; support material
G1 X85.227 Y102.42 E.01402 ; support material
G1 X85.431 Y102.661 E.01402 ; support material
G1 X85.658 Y102.882 E.01402 ; support material
G1 X85.905 Y103.078 E.01402 ; support material
G1 X86.171 Y103.249 E.01402 ; support material
G1 X86.453 Y103.392 E.01402 ; support material
G1 X86.747 Y103.507 E.01402 ; support material
G1 X87.052 Y103.592 E.01401 ; support material
G1 X87.363 Y103.646 E.01402 ; support material
G1 X87.678 Y103.669 E.01402 ; support material
G1 X87.994 Y103.661 E.01402 ; support material
G1 X88.307 Y103.621 E.01402 ; support material
G1 X88.615 Y103.55 E.01402 ; support material
G1 X88.915 Y103.448 E.01402 ; support material
G1 X89.203 Y103.318 E.01402 ; support material
G1 X89.476 Y103.159 E.01402 ; support material
G1 X89.732 Y102.974 E.01402 ; support material
G1 X89.968 Y102.764 E.01402 ; support material
G1 X90.183 Y102.532 E.01402 ; support material
G1 X90.373 Y102.28 E.01402 ; support material
G1 X90.537 Y102.01 E.01402 ; support material
G1 X90.674 Y101.725 E.01402 ; support material
G1 X90.777 Y101.441 E.01339 ; support material
G1 X90.856 Y101.135 E.01402 ; support material
G1 X90.904 Y100.823 E.01402 ; support material
G1 X90.92 Y100.507 E.01402 ; support material
G1 X90.905 Y100.191 E.01402 ; support material
G1 X90.859 Y99.879 E.01402 ; support material
G1 X90.781 Y99.572 E.01402 ; support material
G1 X90.674 Y99.275 E.01402 ; support material
G1 X90.537 Y98.99 E.01402 ; support material
G1 X90.373 Y98.72 E.01402 ; support material
G1 X90.183 Y98.468 E.01402 ; support material
G1 X89.968 Y98.236 E.01402 ; support material
G1 X89.732 Y98.026 E.01402 ; support material
G1 X89.476 Y97.841 E.01402 ; support material
G1 X89.203 Y97.682 E.01402 ; support material
G1 X88.915 Y97.552 E.01402 ; support material
G1 X88.615 Y97.45 E.01402 ; support material
G1 X88.307 Y97.379 E.01402 ; support material
G1 X87.994 Y97.339 E.01402 ; support material
G1 X87.731 Y97.331 E.01165 ; support material
M204 S1000 ; adjust acceleration
G1 X183.084 Y126.313 F10800 ; move to first support material point
M204 S800 ; adjust acceleration
G1 F1200
G1 X183.084 Y79.216 E2.08896 ; support material
G1 X182.689 Y79.216 E.01753 ; support material
G1 X182.689 Y126.153 E2.08186 ; support material
G1 X182.294 Y126.153 E.01753 ; support material
G1 X182.294 Y79.216 E2.08186 ; support material
G1 X181.899 Y79.216 E.01753 ; support material
G1 X181.899 Y126.153 E2.08186 ; support material
G1 X181.504 Y126.153 E.01753 ; support material
G1 X181.504 Y79.216 E2.08186 ; support material
G1 X181.109 Y79.216 E.01753 ; support material
G1 X181.109 Y126.153 E2.08186 ; support material
G1 X180.714 Y126.153 E.01753 ; support material
G1 X180.714 Y79.216 E2.08186 ; support material
G1 X180.318 Y79.216 E.01753 ; support material
G1 X180.318 Y126.153 E2.08186 ; support material
G1 X179.923 Y126.153 E.01753 ; support material
G1 X179.923 Y79.216 E2.08186 ; support material
G1 X179.528 Y79.216 E.01753 ; support material
M73 P1 R108
M73 Q1 S109
G1 X179.528 Y126.153 E2.08186 ; support material
G1 X179.133 Y126.153 E.01753 ; support material
G1 X179.133 Y79.216 E2.08186 ; support material
G1 X178.738 Y79.216 E.01753 ; support material
G1 X178.738 Y126.153 E2.08186 ; support material
G1 X178.343 Y126.153 E.01753 ; support material
G1 X178.343 Y79.216 E2.08186 ; support material
G1 X177.948 Y79.216 E.01753 ; support material
G1 X177.948 Y126.153 E2.08186 ; support material
G1 X177.553 Y126.153 E.01753 ; support material
G1 X177.553 Y79.216 E2.08186 ; support material
G1 X177.157 Y79.216 E.01753 ; support material
M73 P1 R107
G1 X177.157 Y126.153 E2.08186 ; support material
G1 X176.762 Y126.153 E.01753 ; support material
G1 X176.762 Y79.216 E2.08186 ; support material
G1 X176.367 Y79.216 E.01753 ; support material
G1 X176.367 Y126.153 E2.08186 ; support material
G1 X175.972 Y126.153 E.01753 ; support material
G1 X175.972 Y79.216 E2.08186 ; support material
G1 X175.577 Y79.216 E.01753 ; support material
G1 X175.577 Y126.153 E2.08186 ; support material
G1 X175.182 Y126.153 E.01753 ; support material
G1 X175.182 Y79.216 E2.08186 ; support material
G1 X174.787 Y79.216 E.01753 ; support material
G1 X174.787 Y126.153 E2.08186 ; support material
G1 X174.391 Y126.153 E.01753 ; support material
G1 X174.392 Y79.216 E2.08186 ; support material
G1 X173.996 Y79.216 E.01753 ; support material
G1 X173.996 Y126.153 E2.08186 ; support material
G1 X173.601 Y126.153 E.01753 ; support material
G1 X173.601 Y79.216 E2.08186 ; support material
G1 X173.206 Y79.216 E.01753 ; support material
M73 Q1 S108
G1 X173.206 Y126.153 E2.08186 ; support material
G1 X172.811 Y126.153 E.01753 ; support material
G1 X172.811 Y79.216 E2.08186 ; support material
G1 X172.416 Y79.216 E.01753 ; support material
G1 X172.416 Y126.153 E2.08186 ; support material
G1 X172.021 Y126.153 E.01753 ; support material
G1 X172.021 Y79.216 E2.08186 ; support material
G1 X171.626 Y79.216 E.01753 ; support material
G1 X171.626 Y126.153 E2.08186 ; support material
G1 X171.23 Y126.153 E.01753 ; support material
G1 X171.23 Y79.216 E2.08186 ; support material
G1 X170.835 Y79.216 E.01753 ; support material
G1 X170.835 Y126.153 E2.08186 ; support material
G1 X170.44 Y126.153 E.01753 ; support material
G1 X170.44 Y79.216 E2.08186 ; support material
G1 X170.045 Y79.216 E.01753 ; support material
G1 X170.045 Y126.153 E2.08186 ; support material
G1 X169.65 Y126.153 E.01753 ; support material
G1 X169.65 Y79.216 E2.08186 ; support material
G1 X169.255 Y79.216 E.01753 ; support material
G1 X169.255 Y130.784 E2.28728 ; support material
G1 X168.86 Y130.784 E.01753 ; support material
G1 X168.86 Y79.216 E2.28728 ; support material
G1 X168.465 Y79.216 E.01753 ; support material
M73 P2 R107
M73 Q2 S108
G1 X168.465 Y130.784 E2.28728 ; support material
G1 X168.069 Y130.784 E.01753 ; support material
G1 X168.069 Y79.216 E2.28728 ; support material
G1 X167.674 Y79.216 E.01753 ; support material
G1 X167.674 Y130.784 E2.28728 ; support material
G1 X167.279 Y130.784 E.01753 ; support material
M73 P2 R106
G1 X167.279 Y79.216 E2.28728 ; support material
G1 X166.884 Y79.216 E.01753 ; support material
G1 X166.884 Y130.784 E2.28728 ; support material
G1 X166.489 Y130.784 E.01753 ; support material
G1 X166.489 Y79.216 E2.28728 ; support material
G1 X166.094 Y79.216 E.01753 ; support material
G1 X166.094 Y130.784 E2.28728 ; support material
G1 X165.699 Y130.784 E.01753 ; support material
G1 X165.699 Y79.216 E2.28728 ; support material
G1 X165.303 Y79.216 E.01753 ; support material
G1 X165.303 Y130.784 E2.28728 ; support material
G1 X164.908 Y130.784 E.01753 ; support material
G1 X164.908 Y79.216 E2.28728 ; support material
G1 X164.513 Y79.216 E.01753 ; support material
G1 X164.513 Y130.784 E2.28728 ; support material
G1 X164.118 Y130.784 E.01753 ; support material
M73 Q2 S107
G1 X164.118 Y79.216 E2.28728 ; support material
G1 X163.723 Y79.216 E.01753 ; support material
G1 X163.723 Y130.784 E2.28728 ; support material
G1 X163.328 Y130.784 E.01753 ; support material
G1 X163.328 Y79.216 E2.28728 ; support material
G1 X162.933 Y79.216 E.01753 ; support material
G1 X162.933 Y130.784 E2.28728 ; support material
G1 X162.538 Y130.784 E.01753 ; support material
G1 X162.538 Y79.216 E2.28728 ; support material
G1 X162.142 Y79.216 E.01753 ; support material
G1 X162.142 Y130.784 E2.28728 ; support material
G1 X161.747 Y130.784 E.01753 ; support material
G1 X161.747 Y79.216 E2.28728 ; support material
G1 X161.352 Y79.216 E.01753 ; support material
G1 X161.352 Y130.784 E2.28728 ; support material
G1 X160.957 Y130.784 E.01753 ; support material
G1 X160.957 Y79.216 E2.28728 ; support material
G1 X160.562 Y79.216 E.01753 ; support material
G1 X160.562 Y130.784 E2.28728 ; support material
G1 X160.167 Y130.784 E.01753 ; support material
G1 X160.167 Y79.216 E2.28728 ; support material
G1 X159.772 Y79.216 E.01753 ; support material
G1 X159.772 Y130.784 E2.28728 ; support material
G1 X159.376 Y130.784 E.01753 ; support material
G1 X159.376 Y79.216 E2.28728 ; support material
G1 X158.981 Y79.216 E.01753 ; support material
G1 X158.981 Y130.784 E2.28728 ; support material
G1 X158.586 Y130.784 E.01753 ; support material
M73 P3 R106
M73 Q3 S107
G1 X158.586 Y79.216 E2.28728 ; support material
G1 X158.191 Y79.216 E.01753 ; support material
M73 P3 R105
G1 X158.191 Y130.784 E2.28728 ; support material
G1 X157.796 Y130.784 E.01753 ; support material
G1 X157.796 Y79.216 E2.28728 ; support material
G1 X157.401 Y79.216 E.01753 ; support material
G1 X157.401 Y130.784 E2.28728 ; support material
G1 X157.107 Y130.784 E.01305 ; support material
G1 X157.107 Y126.153 E.20542 ; support material
G1 X157.006 Y126.153 E.00448 ; support material
G1 X157.006 Y79.216 E2.08186 ; support material
G1 X156.611 Y79.216 E.01753 ; support material
G1 X156.611 Y126.153 E2.08186 ; support material
G1 X156.215 Y126.153 E.01753 ; support material
G1 X156.215 Y79.216 E2.08186 ; support material
G1 X155.82 Y79.216 E.01753 ; support material
G1 X155.82 Y126.153 E2.08186 ; support material
G1 X155.425 Y126.153 E.01753 ; support material
G1 X155.425 Y79.216 E2.08186 ; support material
G1 X155.03 Y79.216 E.01753 ; support material
G1 X155.03 Y126.153 E2.08186 ; support material
G1 X154.635 Y126.153 E.01753 ; support material
M73 Q3 S106
G1 X154.635 Y79.216 E2.08186 ; support material
G1 X154.24 Y79.216 E.01753 ; support material
G1 X154.24 Y126.153 E2.08186 ; support material
G1 X153.845 Y126.153 E.01753 ; support material
G1 X153.845 Y79.216 E2.08186 ; support material
G1 X153.45 Y79.216 E.01753 ; support material
G1 X153.45 Y126.153 E2.08186 ; support material
G1 X153.054 Y126.153 E.01753 ; support material
G1 X153.054 Y79.216 E2.08186 ; support material
G1 X152.659 Y79.216 E.01753 ; support material
G1 X152.659 Y126.153 E2.08186 ; support material
G1 X152.264 Y126.153 E.01753 ; support material
G1 X152.264 Y79.216 E2.08186 ; support material
G1 X151.869 Y79.216 E.01753 ; support material
G1 X151.869 Y126.153 E2.08186 ; support material
G1 X151.474 Y126.153 E.01753 ; support material
G1 X151.474 Y79.216 E2.08186 ; support material
G1 X151.079 Y79.216 E.01753 ; support material
G1 X151.079 Y126.153 E2.08186 ; support material
G1 X150.684 Y126.153 E.01753 ; support material
G1 X150.684 Y79.216 E2.08186 ; support material
G1 X150.288 Y79.216 E.01753 ; support material
G1 X150.288 Y126.153 E2.08186 ; support material
G1 X149.893 Y126.153 E.01753 ; support material
G1 X149.893 Y79.216 E2.08186 ; support material
G1 X149.498 Y79.216 E.01753 ; support material
G1 X149.498 Y126.153 E2.08186 ; support material
G1 X149.103 Y126.153 E.01753 ; support material
G1 X149.103 Y79.216 E2.08186 ; support material
G1 X148.708 Y79.216 E.01753 ; support material
M73 P3 R104
G1 X148.708 Y126.153 E2.08186 ; support material
G1 X148.313 Y126.153 E.01753 ; support material
