; generated by PrusaSlicer 2.5.2 on 2023-05-13 at 10:26:59 UTC


;
;
; 

; external perimeters extrusion width = 0.60mm
; perimeters extrusion width = 0.50mm
; infill extrusion width = 0.50mm
; solid infill extrusion width = 0.50mm
; top infill extrusion width = 0.45mm
; support material extrusion width = 0.38mm
; first layer extrusion width = 0.42mm

M73 P0 R109
M73 Q0 S110
M201 X1000 Y1000 Z200 E5000 ; sets maximum accelerations, mm/sec^2
M203 X200 Y200 Z12 E120 ; sets maximum feedrates, mm / sec
M204 P1250 R1250 T1250 ; sets acceleration (P, T) and retract acceleration (R), mm/sec^2
M205 X8.00 Y8.00 Z0.40 E4.50 ; sets the jerk limits, mm/sec
M205 S0 T0 ; sets the minimum extruding and travel feed rate, mm/sec
M107 ; disable fan
;TYPE:Custom
M862.3 P "MK3S" ; printer model check
M862.1 P0.4 ; nozzle diameter check
M115 U3.11.0 ; tell printer latest fw version
G90 ; use absolute coordinates
M83 ; extruder relative mode
M104 S240 ; set extruder temp
M140 S95 ; set bed temp
M190 S95 ; wait for bed temp
M109 S240 ; wait for extruder temp
G28 W ; home all without mesh bed level
G80 ; mesh bed leveling

G1 Z0.2 F720
G1 Y-3 F1000 ; go outside print area
G92 E0
G1 X60 E9 F1000 ; intro line
G1 X100 E12.5 F1000 ; intro line

G92 E0
M221 S95

; Don't change E values below. Excessive value can damage the printer.

M907 E538 ; set extruder motor current
G21 ; set units to millimeters
G90 ; use absolute coordinates
M83 ; use relative distances for extrusion
M900 K0.08 ; Filament gcode LA 1.5
M900 K45 ; Filament gcode LA 1.0
M107 ; disable fan
;LAYER_CHANGE
;Z:0.3
;HEIGHT:0.3
;BEFORE_LAYER_CHANGE
G92 E0.0
;0.3


G1 E-1.4 F2100 ; retract
G1 Z.2 F720 ; lift Z
G1 Z.3 ; move to next layer (0)
;AFTER_LAYER_CHANGE
;0.3
G1 Z.5 ; lift Z
G1 X63.079 Y87.921 F10800 ; move to first skirt point
G1 Z.3 F720 ; restore layer Z
G1 E1.4 F2100 ;  ; unretract
M204 S800 ; adjust acceleration
;TYPE:Skirt/Brim
;WIDTH:0.42
G1 F1200
G1 X64.656 Y86.898 E.08337 ; skirt
G1 X120.231 Y77.635 E2.49901 ; skirt
G1 X155.041 Y72.993 E1.55767 ; skirt
G1 X168.195 Y72.972 E.58343 ; skirt
G1 X168.94 Y73.093 E.03347 ; skirt
G1 X182.833 Y77.724 E.64959 ; skirt
G1 X183.943 Y78.507 E.06024 ; skirt
G1 X184.444 Y79.959 E.06813 ; skirt
G1 X184.444 Y127.535 E2.11025 ; skirt
G1 X184.052 Y128.836 E.06024 ; skirt
G1 X183.008 Y129.704 E.06024 ; skirt
G1 X182.088 Y129.891 E.04163 ; skirt
G1 X115.987 Y129.891 E2.93192 ; skirt
G1 X64.725 Y122.922 E2.29462 ; skirt
G1 X63.489 Y122.359 E.06024 ; skirt
M73 P0 R108
G1 X62.688 Y120.588 E.0862 ; skirt
G1 X62.688 Y89.221 E1.39129 ; skirt
G1 X63.062 Y87.978 E.05758 ; skirt
M204 S1000 ; adjust acceleration
; printing object 9R_upper_arm-Body.stl id:0 copy 0
;WIPE_START
G1 F8640
G1 X64.656 Y86.898 E-.44468 ; wipe and retract
G1 X68.438 Y86.267 E-.88532 ; wipe and retract
;WIPE_END
G1 E-.07 F2100 ; retract
G1 Z.5 F720 ; lift Z
G1 X168.195 Y79.959 F10800 ; move to first support material point
G1 Z.3 F720 ; restore layer Z
G1 E1.4 F2100 ;  ; unretract
M204 S800 ; adjust acceleration
;TYPE:Support material
G1 F1200
G1 X182.088 Y79.959 E.61625 ; support material
G1 X182.088 Y127.535 E2.11025 ; support material
G1 X115.987 Y127.535 E2.93192 ; support material
G1 X115.987 Y125.22 E.10271 ; support material
G1 X111.356 Y125.22 E.20542 ; support material
G1 X111.356 Y122.904 E.10271 ; support material
G1 X104.409 Y122.904 E.30813 ; support material
G1 X104.409 Y120.588 E.10271 ; support material
G1 X65.043 Y120.588 E1.74605 ; support material
G1 X65.043 Y89.221 E1.39129 ; support material
G1 X104.409 Y89.221 E1.74605 ; support material
G1 X104.409 Y86.906 E.10271 ; support material
G1 X111.356 Y86.906 E.30813 ; support material
G1 X111.356 Y84.59 E.10271 ; support material
G1 X115.987 Y84.59 E.20542 ; support material
G1 X115.987 Y82.274 E.10271 ; support material
G1 X120.618 Y82.274 E.20542 ; support material
G1 X120.618 Y79.959 E.10271 ; support material
G1 X155.352 Y79.959 E1.54063 ; support material
G1 X155.352 Y75.327 E.20542 ; support material
G1 X168.195 Y75.327 E.56962 ; support material
G1 X168.195 Y79.905 E.20305 ; support material
M204 S1000 ; adjust acceleration
G1 X86.222 Y102.539 F10800 ; move to first support material point
M204 S800 ; adjust acceleration
G1 F1200
G1 X85.907 Y102.563 E.01402 ; support material
G1 X85.609 Y102.614 E.01339 ; support material
G1 X85.305 Y102.698 E.01402 ; support material
G1 X85.01 Y102.812 E.01402 ; support material
G1 X84.728 Y102.955 E.01402 ; support material
G1 X84.462 Y103.125 E.01402 ; support material
G1 X84.214 Y103.321 E.01402 ; support material
G1 X83.986 Y103.541 E.01402 ; support material
G1 X83.782 Y103.782 E.01402 ; support material
G1 X83.603 Y104.042 E.01401 ; support material
G1 X83.45 Y104.319 E.01402 ; support material
G1 X83.326 Y104.609 E.01402 ; support material
G1 X83.231 Y104.911 E.01402 ; support material
G1 X83.167 Y105.22 E.01402 ; support material
G1 X83.134 Y105.534 E.01402 ; support material
G1 X83.132 Y105.821 E.01269 ; support material
G1 X83.163 Y106.165 E.01534 ; support material
G1 X83.224 Y106.475 E.01402 ; support material
G1 X83.315 Y106.778 E.01402 ; support material
G1 X83.424 Y107.042 E.01269 ; support material
G1 X83.586 Y107.348 E.01534 ; support material
G1 X83.746 Y107.585 E.01269 ; support material
G1 X83.996 Y107.885 E.0173 ; support material
G1 X84.201 Y108.084 E.01269 ; support material
G1 X84.448 Y108.281 E.01401 ; support material
G1 X84.713 Y108.453 E.01402 ; support material
G1 X84.994 Y108.597 E.01402 ; support material
G1 X85.288 Y108.713 E.01402 ; support material
G1 X85.593 Y108.798 E.01402 ; support material
G1 X85.904 Y108.853 E.01402 ; support material
G1 X86.242 Y108.877 E.01503 ; support material
G1 X86.535 Y108.869 E.013 ; support material
G1 X86.848 Y108.83 E.01402 ; support material
G1 X87.157 Y108.76 E.01402 ; support material
G1 X87.456 Y108.66 E.01402 ; support material
G1 X87.744 Y108.53 E.01402 ; support material
G1 X88.018 Y108.372 E.01402 ; support material
G1 X88.275 Y108.188 E.01402 ; support material
G1 X88.512 Y107.979 E.01402 ; support material
G1 X88.727 Y107.747 E.01401 ; support material
G1 X88.918 Y107.495 E.01402 ; support material
G1 X89.076 Y107.238 E.01339 ; support material
G1 X89.214 Y106.954 E.01402 ; support material
G1 X89.324 Y106.658 E.01402 ; support material
G1 X89.403 Y106.352 E.01402 ; support material
G1 X89.452 Y106.04 E.01402 ; support material
G1 X89.469 Y105.724 E.01402 ; support material
G1 X89.455 Y105.408 E.01402 ; support material
G1 X89.41 Y105.096 E.01401 ; support material
G1 X89.333 Y104.789 E.01402 ; support material
G1 X89.227 Y104.491 E.01402 ; support material
G1 X89.091 Y104.206 E.01402 ; support material
G1 X88.928 Y103.936 E.01402 ; support material
G1 X88.738 Y103.683 E.01402 ; support material
G1 X88.524 Y103.45 E.01402 ; support material
G1 X88.288 Y103.24 E.01402 ; support material
G1 X88.033 Y103.054 E.01401 ; support material
G1 X87.76 Y102.895 E.01402 ; support material
G1 X87.472 Y102.763 E.01402 ; support material
G1 X87.173 Y102.661 E.01402 ; support material
G1 X86.865 Y102.589 E.01402 ; support material
G1 X86.552 Y102.548 E.01402 ; support material
G1 X86.275 Y102.539 E.01228 ; support material
M204 S1000 ; adjust acceleration
G1 X181.65 Y127.375 F10800 ; move to first support material point
M204 S800 ; adjust acceleration
G1 F1200
G1 X181.65 Y80.279 E2.08896 ; support material
G1 X181.255 Y80.279 E.01753 ; support material
G1 X181.255 Y127.215 E2.08186 ; support material
G1 X180.86 Y127.215 E.01753 ; support material
M73 Q0 S109
G1 X180.86 Y80.279 E2.08186 ; support material
G1 X180.465 Y80.279 E.01753 ; support material
G1 X180.465 Y127.215 E2.08186 ; support material
G1 X180.07 Y127.215 E.01753 ; support material
G1 X180.07 Y80.279 E2.08186 ; support material
G1 X179.674 Y80.279 E.01753 ; support material
G1 X179.674 Y127.215 E2.08186 ; support material
G1 X179.279 Y127.215 E.01753 ; support material
G1 X179.279 Y80.279 E2.08186 ; support material
G1 X178.884 Y80.279 E.01753 ; support material
G1 X178.884 Y127.215 E2.08186 ; support material
G1 X178.489 Y127.215 E.01753 ; support material
G1 X178.489 Y80.279 E2.08186 ; support material
G1 X178.094 Y80.279 E.01753 ; support material
M73 P1 R108
M73 Q1 S109
G1 X178.094 Y127.215 E2.08186 ; support material
G1 X177.699 Y127.215 E.01753 ; support material
G1 X177.699 Y80.279 E2.08186 ; support material
G1 X177.304 Y80.279 E.01753 ; support material
G1 X177.304 Y127.215 E2.08186 ; support material
G1 X176.909 Y127.215 E.01753 ; support material
G1 X176.909 Y80.279 E2.08186 ; support material
G1 X176.513 Y80.279 E.01753 ; support material
G1 X176.513 Y127.215 E2.08186 ; support material
G1 X176.118 Y127.215 E.01753 ; support material
G1 X176.118 Y80.279 E2.08186 ; support material
G1 X175.723 Y80.279 E.01753 ; support material
G1 X175.723 Y127.215 E2.08186 ; support material
G1 X175.328 Y127.215 E.01753 ; support material
M73 P1 R107
G1 X175.328 Y80.279 E2.08186 ; support material
G1 X174.933 Y80.279 E.01753 ; support material
G1 X174.933 Y127.215 E2.08186 ; support material
G1 X174.538 Y127.215 E.01753 ; support material
G1 X174.538 Y80.279 E2.08186 ; support material
G1 X174.143 Y80.279 E.01753 ; support material
G1 X174.143 Y127.215 E2.08186 ; support material
G1 X173.747 Y127.215 E.01753 ; support material
G1 X173.747 Y80.279 E2.08186 ; support material
G1 X173.352 Y80.279 E.01753 ; support material
G1 X173.352 Y127.215 E2.08186 ; support material
G1 X172.957 Y127.215 E.01753 ; support material
G1 X172.957 Y80.279 E2.08186 ; support material
G1 X172.562 Y80.279 E.01753 ; support material
G1 X172.562 Y127.215 E2.08186 ; support material
G1 X172.167 Y127.215 E.01753 ; support material
G1 X172.167 Y80.279 E2.08186 ; support material
G1 X171.772 Y80.279 E.01753 ; support material
G1 X171.772 Y127.215 E2.08186 ; support material
G1 X171.377 Y127.215 E.01753 ; support material
G1 X171.377 Y80.279 E2.08186 ; support material
G1 X170.982 Y80.279 E.01753 ; support material
M73 Q1 S108
G1 X170.982 Y127.215 E2.08186 ; support material
G1 X170.586 Y127.215 E.01753 ; support material
G1 X170.586 Y80.279 E2.08186 ; support material
G1 X170.191 Y80.279 E.01753 ; support material
G1 X170.191 Y127.215 E2.08186 ; support material
G1 X169.796 Y127.215 E.01753 ; support material
G1 X169.796 Y80.279 E2.08186 ; support material
G1 X169.401 Y80.279 E.01753 ; support material
G1 X169.401 Y127.215 E2.08186 ; support material
G1 X169.006 Y127.215 E.01753 ; support material
G1 X169.006 Y80.279 E2.08186 ; support material
G1 X168.611 Y80.279 E.01753 ; support material
G1 X168.611 Y127.215 E2.08186 ; support material
G1 X168.216 Y127.215 E.01753 ; support material
G1 X168.216 Y80.279 E2.08186 ; support material
G1 X167.875 Y80.279 E.01513 ; support material
G1 X167.875 Y75.648 E.20542 ; support material
G1 X167.821 Y75.648 E.0024 ; support material
G1 X167.821 Y127.215 E2.28728 ; support material
G1 X167.425 Y127.215 E.01753 ; support material
G1 X167.425 Y75.648 E2.28728 ; support material
G1 X167.03 Y75.648 E.01753 ; support material
M73 P2 R107
M73 Q2 S108
G1 X167.03 Y127.215 E2.28728 ; support material
G1 X166.635 Y127.215 E.01753 ; support material
G1 X166.635 Y75.648 E2.28728 ; support material
G1 X166.24 Y75.648 E.01753 ; support material
G1 X166.24 Y127.215 E2.28728 ; support material
G1 X165.845 Y127.215 E.01753 ; support material
M73 P2 R106
G1 X165.845 Y75.648 E2.28728 ; support material
G1 X165.45 Y75.648 E.01753 ; support material
G1 X165.45 Y127.215 E2.28728 ; support material
G1 X165.055 Y127.215 E.01753 ; support material
G1 X165.055 Y75.648 E2.28728 ; support material
G1 X164.659 Y75.648 E.01753 ; support material
G1 X164.659 Y127.215 E2.28728 ; support material
G1 X164.264 Y127.215 E.01753 ; support material
G1 X164.264 Y75.648 E2.28728 ; support material
G1 X163.869 Y75.648 E.01753 ; support material
G1 X163.869 Y127.215 E2.28728 ; support material
G1 X163.474 Y127.215 E.01753 ; support material
G1 X163.474 Y75.648 E2.28728 ; support material
G1 X163.079 Y75.648 E.01753 ; support material
G1 X163.079 Y127.215 E2.28728 ; support material
G1 X162.684 Y127.215 E.01753 ; support material
G1 X162.684 Y75.648 E2.28728 ; support material
G1 X162.289 Y75.648 E.01753 ; support material
G1 X162.289 Y127.215 E2.28728 ; support material
G1 X161.894 Y127.215 E.01753 ; support material
G1 X161.894 Y75.648 E2.28728 ; support material
G1 X161.498 Y75.648 E.01753 ; support material
M73 Q2 S107
G1 X161.498 Y127.215 E2.28728 ; support material
G1 X161.103 Y127.215 E.01753 ; support material
G1 X161.103 Y75.648 E2.28728 ; support material
G1 X160.708 Y75.648 E.01753 ; support material
G1 X160.708 Y127.215 E2.28728 ; support material
G1 X160.313 Y127.215 E.01753 ; support material
G1 X160.313 Y75.648 E2.28728 ; support material
G1 X159.918 Y75.648 E.01753 ; support material
G1 X159.918 Y127.215 E2.28728 ; support material
G1 X159.523 Y127.215 E.01753 ; support material
G1 X159.523 Y75.648 E2.28728 ; support material
G1 X159.128 Y75.648 E.01753 ; support material
G1 X159.128 Y127.215 E2.28728 ; support material
G1 X158.732 Y127.215 E.01753 ; support material
G1 X158.732 Y75.648 E2.28728 ; support material
G1 X158.337 Y75.648 E.01753 ; support material
G1 X158.337 Y127.215 E2.28728 ; support material
G1 X157.942 Y127.215 E.01753 ; support material
G1 X157.942 Y75.648 E2.28728 ; support material
G1 X157.547 Y75.648 E.01753 ; support material
G1 X157.547 Y127.215 E2.28728 ; support material
G1 X157.152 Y127.215 E.01753 ; support material
M73 P3 R106
M73 Q3 S107
G1 X157.152 Y75.648 E2.28728 ; support material
G1 X156.757 Y75.648 E.01753 ; support material
M73 P3 R105
G1 X156.757 Y127.215 E2.28728 ; support material
G1 X156.362 Y127.215 E.01753 ; support material
G1 X156.362 Y75.648 E2.28728 ; support material
G1 X155.967 Y75.648 E.01753 ; support material
G1 X155.967 Y127.215 E2.28728 ; support material
G1 X155.571 Y127.215 E.01753 ; support material
G1 X155.571 Y80.279 E2.08186 ; support material
G1 X155.176 Y80.279 E.01753 ; support material
G1 X155.176 Y127.215 E2.08186 ; support material
G1 X154.781 Y127.215 E.01753 ; support material
G1 X154.781 Y80.279 E2.08186 ; support material
G1 X154.386 Y80.279 E.01753 ; support material
G1 X154.386 Y127.215 E2.08186 ; support material
G1 X153.991 Y127.215 E.01753 ; support material
G1 X153.991 Y80.279 E2.08186 ; support material
G1 X153.596 Y80.279 E.01753 ; support material
G1 X153.596 Y127.215 E2.08186 ; support material
G1 X153.201 Y127.215 E.01753 ; support material
G1 X153.201 Y80.279 E2.08186 ; support material
G1 X152.805 Y80.279 E.01753 ; support material
G1 X152.805 Y127.215 E2.08186 ; support material
G1 X152.41 Y127.215 E.01753 ; support material
G1 X152.41 Y80.279 E2.08186 ; support material
G1 X152.015 Y80.279 E.01753 ; support material
M73 Q3 S106
G1 X152.015 Y127.215 E2.08186 ; support material
G1 X151.62 Y127.215 E.01753 ; support material
G1 X151.62 Y80.279 E2.08186 ; support material
G1 X151.225 Y80.279 E.01753 ; support material
G1 X151.225 Y127.215 E2.08186 ; support material
G1 X150.83 Y127.215 E.01753 ; support material
G1 X150.83 Y80.279 E2.08186 ; support material
G1 X150.435 Y80.279 E.01753 ; support material
G1 X150.435 Y127.215 E2.08186 ; support material
G1 X150.04 Y127.215 E.01753 ; support material
G1 X150.04 Y80.279 E2.08186 ; support material
G1 X149.644 Y80.279 E.01753 ; support material
G1 X149.644 Y127.215 E2.08186 ; support material
G1 X149.249 Y127.215 E.01753 ; support material
G1 X149.249 Y80.279 E2.08186 ; support material
G1 X148.854 Y80.279 E.01753 ; support material
G1 X148.854 Y127.215 E2.08186 ; support material
G1 X148.459 Y127.215 E.01753 ; support material
G1 X148.459 Y80.279 E2.08186 ; support material
G1 X148.064 Y80.279 E.01753 ; support material
G1 X148.064 Y127.215 E2.08186 ; support material
G1 X147.669 Y127.215 E.01753 ; support material
G1 X147.669 Y80.279 E2.08186 ; support material
G1 X147.274 Y80.279 E.01753 ; support material
G1 X147.274 Y127.215 E2.08186 ; support material
G1 X146.879 Y127.215 E.01753 ; support material
M73 P3 R104
