; generated by PrusaSlicer 2.5.0 on 2023-03-11 at 17:54:56 UTC


;
;
; 

; external perimeters extrusion width = 0.60mm
; perimeters extrusion width = 0.50mm
; infill extrusion width = 0.50mm
; solid infill extrusion width = 0.50mm
; top infill extrusion width = 0.45mm
; first layer extrusion width = 0.42mm

M73 P0 R9
M73 Q0 S9
M201 X1000 Y1000 Z200 E5000 ; sets maximum accelerations, mm/sec^2
M203 X200 Y200 Z12 E120 ; sets maximum feedrates, mm / sec
M204 P1250 R1250 T1250 ; sets acceleration (P, T) and retract acceleration (R), mm/sec^2
M205 X8.00 Y8.00 Z0.40 E4.50 ; sets the jerk limits, mm/sec
M205 S0 T0 ; sets the minimum extruding and travel feed rate, mm/sec
M107 ; disable fan
;TYPE:Custom
M862.3 P "MK3S" ; printer model check
M862.1 P0.4 ; nozzle diameter check
M115 U3.11.0 ; tell printer latest fw version
G90 ; use absolute coordinates
M83 ; extruder relative mode
M104 S240 ; set extruder temp
M140 S95 ; set bed temp
M190 S95 ; wait for bed temp
M109 S240 ; wait for extruder temp
G28 W ; home all without mesh bed level
G80 ; mesh bed leveling

G1 Z0.2 F720
G1 Y-3 F1000 ; go outside print area
G92 E0
G1 X60 E9 F1000 ; intro line
G1 X100 E12.5 F1000 ; intro line

G92 E0
M221 S95

; Don't change E values below. Excessive value can damage the printer.

M907 E538 ; set extruder motor current
G21 ; set units to millimeters
G90 ; use absolute coordinates
M83 ; use relative distances for extrusion
M900 K0.08 ; Filament gcode LA 1.5
M900 K45 ; Filament gcode LA 1.0
M107 ; disable fan
;LAYER_CHANGE
;Z:0.3
;HEIGHT:0.3
;BEFORE_LAYER_CHANGE
G92 E0.0
;0.3


G1 E-1.4 F2100 ; retract
M73 P1 R9
M73 Q1 S9
G1 Z.2 F720 ; lift Z
G1 Z.3 ; move to next layer (0)
;AFTER_LAYER_CHANGE
;0.3
G1 Z.5 ; lift Z
G1 X112.681 Y102.095 F10800 ; move to first skirt point
G1 Z.3 F720 ; restore layer Z
G1 E1.4 F2100 ;  ; unretract
M204 S800 ; adjust acceleration
;TYPE:Skirt/Brim
;WIDTH:0.42
G1 F1200
G1 X113.746 Y101.096 E.06472 ; skirt
G1 X115 Y100.789 E.05729 ; skirt
G1 X135 Y100.789 E.8871 ; skirt
G1 X136.405 Y101.181 E.06472 ; skirt
G1 X137.404 Y102.246 E.06472 ; skirt
G1 X137.711 Y103.5 E.05729 ; skirt
G1 X137.711 Y106.5 E.13306 ; skirt
G1 X137.319 Y107.905 E.06472 ; skirt
G1 X136.254 Y108.904 E.06472 ; skirt
G1 X135 Y109.211 E.05729 ; skirt
G1 X115 Y109.211 E.8871 ; skirt
G1 X113.595 Y108.819 E.06472 ; skirt
G1 X112.596 Y107.754 E.06472 ; skirt
G1 X112.289 Y106.5 E.05729 ; skirt
G1 X112.289 Y103.5 E.13306 ; skirt
G1 X112.665 Y102.152 E.06206 ; skirt
M204 S1000 ; adjust acceleration
G1 X113.018 Y102.259 F10800 ; move to first skirt point
M204 S800 ; adjust acceleration
G1 F1200
G1 X113.036 Y102.2 E.00274 ; skirt
G1 X114.08 Y101.331 E.06024 ; skirt
G1 X115 Y101.144 E.04163 ; skirt
G1 X135 Y101.144 E.8871 ; skirt
G1 X136.3 Y101.536 E.06024 ; skirt
M73 Q2 S9
G1 X137.169 Y102.58 E.06024 ; skirt
M73 P2 R9
G1 X137.356 Y103.5 E.04163 ; skirt
G1 X137.356 Y106.5 E.13306 ; skirt
G1 X136.964 Y107.8 E.06024 ; skirt
G1 X135.92 Y108.669 E.06024 ; skirt
G1 X135 Y108.856 E.04163 ; skirt
G1 X115 Y108.856 E.8871 ; skirt
G1 X113.7 Y108.464 E.06024 ; skirt
G1 X112.831 Y107.42 E.06024 ; skirt
G1 X112.644 Y106.5 E.04163 ; skirt
G1 X112.644 Y103.5 E.13306 ; skirt
G1 X113.001 Y102.316 E.05484 ; skirt
M204 S1000 ; adjust acceleration
; printing object bearing_outer_test-Body.stl id:0 copy 0
;WIPE_START
G1 F8640
G1 X113.036 Y102.2 E-.02813 ; wipe and retract
G1 X114.08 Y101.331 E-.31359 ; wipe and retract
G1 X115 Y101.144 E-.21671 ; wipe and retract
G1 X118.342 Y101.144 E-.77157 ; wipe and retract
;WIPE_END
G1 E-.07 F2100 ; retract
G1 Z.5 F720 ; lift Z
G1 X115.766 Y104.266 F10800 ; move to first perimeter point
G1 Z.3 F720 ; restore layer Z
G1 E1.4 F2100 ;  ; unretract
M204 S800 ; adjust acceleration
;TYPE:Perimeter
;WIDTH:0.42
G1 F1200
G1 X134.234 Y104.266 E.81918 ; perimeter
G1 X134.234 Y105.734 E.06515 ; perimeter
G1 X115.766 Y105.734 E.81918 ; perimeter
G1 X115.766 Y104.326 E.06249 ; perimeter
M204 S1000 ; adjust acceleration
G1 X115.41 Y103.91 F10800 ; move to first perimeter point
M204 S800 ; adjust acceleration
;TYPE:External perimeter
G1 F1200
G1 X134.59 Y103.91 E.85072 ; perimeter
G1 X134.59 Y106.09 E.09669 ; perimeter
G1 X115.41 Y106.09 E.85072 ; perimeter
M73 Q3 S9
G1 X115.41 Y103.97 E.09403 ; perimeter
M204 S1000 ; adjust acceleration
M73 P3 R9
G1 X115.81 Y103.925 F10800 ; move inwards before travel
;WIPE_START
G1 F8640
G1 X121.17 Y103.952 E-1.33 ; wipe and retract
;WIPE_END
G1 E-.07 F2100 ; retract
G1 Z.5 F720 ; lift Z
G1 X134.128 Y105.11 F10800 ; move to first infill point
G1 Z.3 F720 ; restore layer Z
G1 E1.4 F2100 ;  ; unretract
M204 S800 ; adjust acceleration
;TYPE:Solid infill
;WIDTH:0.428763
G1 F1200
G1 X133.55 Y104.532 E.03711 ; infill
G1 X133.035 Y104.532 E.02342 ; infill
G1 X133.968 Y105.465 E.05995 ; infill
G1 X133.455 Y105.468 E.0233 ; infill
G1 X132.52 Y104.532 E.06012 ; infill
G1 X132.004 Y104.532 E.02342 ; infill
G1 X132.94 Y105.468 E.06012 ; infill
G1 X132.424 Y105.468 E.02342 ; infill
G1 X131.489 Y104.532 E.06012 ; infill
G1 X130.974 Y104.532 E.02342 ; infill
G1 X131.909 Y105.468 E.06012 ; infill
G1 X131.394 Y105.468 E.02342 ; infill
G1 X130.458 Y104.532 E.06012 ; infill
G1 X129.943 Y104.532 E.02342 ; infill
G1 X130.878 Y105.468 E.06012 ; infill
G1 X130.363 Y105.468 E.02342 ; infill
G1 X129.428 Y104.532 E.06012 ; infill
G1 X128.912 Y104.532 E.02342 ; infill
G1 X129.848 Y105.468 E.06012 ; infill
G1 X129.332 Y105.468 E.02342 ; infill
G1 X128.397 Y104.532 E.06012 ; infill
G1 X127.882 Y104.532 E.02342 ; infill
G1 X128.817 Y105.468 E.06012 ; infill
G1 X128.302 Y105.468 E.02342 ; infill
G1 X127.366 Y104.532 E.06012 ; infill
G1 X126.851 Y104.532 E.02342 ; infill
G1 X127.787 Y105.468 E.06012 ; infill
G1 X127.271 Y105.468 E.02342 ; infill
G1 X126.336 Y104.532 E.06012 ; infill
G1 X125.821 Y104.532 E.02342 ; infill
G1 X126.756 Y105.468 E.06012 ; infill
G1 X126.241 Y105.468 E.02342 ; infill
G1 X125.305 Y104.532 E.06012 ; infill
G1 X124.79 Y104.532 E.02342 ; infill
G1 X125.725 Y105.468 E.06012 ; infill
G1 X125.21 Y105.468 E.02342 ; infill
G1 X124.275 Y104.532 E.06012 ; infill
G1 X123.759 Y104.532 E.02342 ; infill
G1 X124.695 Y105.468 E.06012 ; infill
G1 X124.179 Y105.468 E.02342 ; infill
G1 X123.244 Y104.532 E.06012 ; infill
G1 X122.729 Y104.532 E.02342 ; infill
G1 X123.664 Y105.468 E.06012 ; infill
G1 X123.149 Y105.468 E.02342 ; infill
G1 X122.213 Y104.532 E.06012 ; infill
G1 X121.698 Y104.532 E.02342 ; infill
G1 X122.633 Y105.468 E.06012 ; infill
G1 X122.118 Y105.468 E.02342 ; infill
G1 X121.183 Y104.532 E.06012 ; infill
G1 X120.667 Y104.532 E.02342 ; infill
G1 X121.603 Y105.468 E.06012 ; infill
G1 X121.087 Y105.468 E.02342 ; infill
G1 X120.152 Y104.532 E.06012 ; infill
G1 X119.637 Y104.532 E.02342 ; infill
G1 X120.572 Y105.468 E.06012 ; infill
G1 X120.057 Y105.468 E.02342 ; infill
G1 X119.121 Y104.532 E.06012 ; infill
G1 X118.606 Y104.532 E.02342 ; infill
G1 X119.542 Y105.468 E.06012 ; infill
G1 X119.026 Y105.468 E.02342 ; infill
G1 X118.091 Y104.532 E.06012 ; infill
G1 X117.576 Y104.532 E.02342 ; infill
G1 X118.511 Y105.468 E.06012 ; infill
G1 X117.996 Y105.468 E.02342 ; infill
G1 X117.06 Y104.532 E.06012 ; infill
G1 X116.545 Y104.532 E.02342 ; infill
G1 X117.48 Y105.468 E.06012 ; infill
G1 X116.965 Y105.468 E.02342 ; infill
G1 X116.032 Y104.535 E.05994 ; infill
G1 X116.032 Y105.05 E.02342 ; infill
G1 X116.61 Y105.628 E.03711 ; infill
M204 S1000 ; adjust acceleration
; stop printing object bearing_outer_test-Body.stl id:0 copy 0
;LAYER_CHANGE
;Z:0.6
;HEIGHT:0.3
;BEFORE_LAYER_CHANGE
G92 E0.0
;0.6


;WIPE_START
G1 F8640
G1 X116.032 Y105.05 E-.18853 ; wipe and retract
G1 X116.032 Y104.535 E-.11899 ; wipe and retract
G1 X116.965 Y105.468 E-.30454 ; wipe and retract
G1 X117.48 Y105.468 E-.11899 ; wipe and retract
G1 X116.545 Y104.532 E-.30544 ; wipe and retract
G1 X117.06 Y104.532 E-.11899 ; wipe and retract
G1 X117.595 Y105.067 E-.17453 ; wipe and retract
;WIPE_END
G1 E-.07 F2100 ; retract
G1 Z.5 F720 ; lift Z
G1 Z.6 ; move to next layer (1)
;AFTER_LAYER_CHANGE
;0.6
M140 S90 ; set bed temperature
G1 Z.8 ; lift Z
G1 X117.595 Y109.211 F10800 ; move to first skirt point
G1 Z.6 F720 ; restore layer Z
M73 Q4 S9
G1 E1.4 F2100 ;  ; unretract
;TYPE:Skirt/Brim
;WIDTH:0.42
G1 F1084
G1 X115 Y109.211 E.11509 ; skirt
G1 X113.595 Y108.819 E.06472 ; skirt
G1 X112.596 Y107.754 E.06472 ; skirt
M73 P4 R9
G1 X112.289 Y106.5 E.05729 ; skirt
G1 X112.289 Y103.5 E.13306 ; skirt
G1 X112.681 Y102.095 E.06472 ; skirt
G1 X113.746 Y101.096 E.06472 ; skirt
G1 X115 Y100.789 E.05729 ; skirt
G1 X135 Y100.789 E.8871 ; skirt
G1 X136.405 Y101.181 E.06472 ; skirt
G1 X137.404 Y102.246 E.06472 ; skirt
G1 X137.711 Y103.5 E.05729 ; skirt
G1 X137.711 Y106.5 E.13306 ; skirt
G1 X137.319 Y107.905 E.06472 ; skirt
G1 X136.254 Y108.904 E.06472 ; skirt
G1 X135 Y109.211 E.05729 ; skirt
G1 X117.655 Y109.211 E.76935 ; skirt
G1 X117.655 Y108.856 F10800 ; move to first skirt point
G1 F1084
G1 X115 Y108.856 E.11775 ; skirt
G1 X113.7 Y108.464 E.06024 ; skirt
G1 X112.831 Y107.42 E.06024 ; skirt
G1 X112.644 Y106.5 E.04163 ; skirt
G1 X112.644 Y103.5 E.13306 ; skirt
G1 X113.036 Y102.2 E.06024 ; skirt
G1 X114.08 Y101.331 E.06024 ; skirt
G1 X115 Y101.144 E.04163 ; skirt
G1 X135 Y101.144 E.8871 ; skirt
G1 X136.3 Y101.536 E.06024 ; skirt
G1 X137.169 Y102.58 E.06024 ; skirt
G1 X137.356 Y103.5 E.04163 ; skirt
G1 X137.356 Y106.5 E.13306 ; skirt
G1 X136.964 Y107.8 E.06024 ; skirt
M73 Q5 S9
G1 X135.92 Y108.669 E.06024 ; skirt
G1 X135 Y108.856 E.04163 ; skirt
G1 X117.715 Y108.856 E.76669 ; skirt
; printing object bearing_outer_test-Body.stl id:0 copy 0
;WIPE_START
G1 F8640
M73 P5 R9
G1 X115 Y108.856 E-.62683 ; wipe and retract
G1 X113.7 Y108.464 E-.31359 ; wipe and retract
G1 X112.831 Y107.42 E-.31359 ; wipe and retract
G1 X112.766 Y107.097 E-.07598 ; wipe and retract
;WIPE_END
G1 E-.07 F2100 ; retract
G1 Z.8 F720 ; lift Z
G1 X115.786 Y105.714 F10800 ; move to first perimeter point
G1 Z.6 F720 ; restore layer Z
G1 E1.4 F2100 ;  ; unretract
M204 S800 ; adjust acceleration
;TYPE:Perimeter
;WIDTH:0.5
G1 F1084
G1 X115.786 Y104.286 E.07763 ; perimeter
G1 X134.214 Y104.286 E1.00129 ; perimeter
G1 X134.214 Y105.714 E.07763 ; perimeter
G1 X115.846 Y105.714 E.99803 ; perimeter
M204 S1000 ; adjust acceleration
G1 X115.3 Y106.2 F10800 ; move to first perimeter point
M204 S800 ; adjust acceleration
;TYPE:External perimeter
;WIDTH:0.6
G1 F1084
G1 X115.3 Y103.8 E.16033 ; perimeter
G1 X134.7 Y103.8 E1.29602 ; perimeter
G1 X134.7 Y106.2 E.16033 ; perimeter
G1 X115.36 Y106.2 E1.29202 ; perimeter
M204 S1000 ; adjust acceleration
G1 X115.486 Y105.846 F10800 ; move inwards before travel
;WIPE_START
M73 P6 R9
M73 Q6 S9
G1 F8640
G1 X115.3 Y103.8 E-.55434 ; wipe and retract
G1 X118.659 Y103.8 E-.77566 ; wipe and retract
;WIPE_END
G1 E-.07 F2100 ; retract
G1 Z.8 F720 ; lift Z
G1 X134.084 Y104.687 F10800 ; move to first infill point
G1 Z.6 F720 ; restore layer Z
G1 E1.4 F2100 ;  ; unretract
;TYPE:Solid infill
;WIDTH:0.507392
G1 F1084
G1 X133.383 Y105.388 E.05472 ; infill
G1 X132.757 Y105.388 E.03462 ; infill
G1 X133.532 Y104.612 E.06059 ; infill
G1 X132.906 Y104.612 E.03462 ; infill
G1 X132.13 Y105.388 E.06059 ; infill
G1 X131.504 Y105.388 E.03462 ; infill
G1 X132.279 Y104.612 E.06059 ; infill
G1 X131.653 Y104.612 E.03462 ; infill
G1 X130.877 Y105.388 E.06059 ; infill
G1 X130.251 Y105.388 E.03462 ; infill
G1 X131.026 Y104.612 E.06059 ; infill
G1 X130.4 Y104.612 E.03462 ; infill
G1 X129.624 Y105.388 E.06059 ; infill
G1 X128.998 Y105.388 E.03462 ; infill
G1 X129.773 Y104.612 E.06059 ; infill
G1 X129.147 Y104.612 E.03462 ; infill
G1 X128.371 Y105.388 E.06059 ; infill
G1 X127.745 Y105.388 E.03462 ; infill
G1 X128.52 Y104.612 E.06059 ; infill
G1 X127.894 Y104.612 E.03462 ; infill
G1 X127.118 Y105.388 E.06059 ; infill
G1 X126.492 Y105.388 E.03462 ; infill
G1 X127.267 Y104.612 E.06059 ; infill
G1 X126.641 Y104.612 E.03462 ; infill
G1 X125.865 Y105.388 E.06059 ; infill
G1 X125.239 Y105.388 E.03462 ; infill
G1 X126.014 Y104.612 E.06059 ; infill
G1 X125.388 Y104.612 E.03462 ; infill
G1 X124.612 Y105.388 E.06059 ; infill
G1 X123.986 Y105.388 E.03462 ; infill
G1 X124.761 Y104.612 E.06059 ; infill
G1 X124.135 Y104.612 E.03462 ; infill
G1 X123.359 Y105.388 E.06059 ; infill
G1 X122.733 Y105.388 E.03462 ; infill
G1 X123.508 Y104.612 E.06059 ; infill
G1 X122.882 Y104.612 E.03462 ; infill
G1 X122.106 Y105.388 E.06059 ; infill
G1 X121.48 Y105.388 E.03462 ; infill
G1 X122.255 Y104.612 E.06059 ; infill
G1 X121.629 Y104.612 E.03462 ; infill
G1 X120.853 Y105.388 E.06059 ; infill
G1 X120.227 Y105.388 E.03462 ; infill
G1 X121.002 Y104.612 E.06059 ; infill
G1 X120.376 Y104.612 E.03462 ; infill
G1 X119.6 Y105.388 E.06059 ; infill
G1 X118.974 Y105.388 E.03462 ; infill
G1 X119.749 Y104.612 E.06059 ; infill
G1 X119.122 Y104.612 E.03462 ; infill
G1 X118.347 Y105.388 E.06059 ; infill
G1 X117.721 Y105.388 E.03462 ; infill
G1 X118.496 Y104.612 E.06059 ; infill
G1 X117.869 Y104.612 E.03462 ; infill
G1 X117.094 Y105.388 E.06059 ; infill
G1 X116.468 Y105.388 E.03462 ; infill
G1 X117.243 Y104.612 E.06059 ; infill
G1 X116.616 Y104.612 E.03462 ; infill
G1 X115.916 Y105.312 E.05471 ; infill
; stop printing object bearing_outer_test-Body.stl id:0 copy 0
;LAYER_CHANGE
;Z:0.9
;HEIGHT:0.3
;BEFORE_LAYER_CHANGE
G92 E0.0
;0.9


;WIPE_START
G1 F8640
G1 X116.616 Y104.612 E-.22863 ; wipe and retract
G1 X117.243 Y104.612 E-.14466 ; wipe and retract
G1 X116.468 Y105.388 E-.25318 ; wipe and retract
G1 X117.094 Y105.388 E-.14466 ; wipe and retract
G1 X117.869 Y104.612 E-.25318 ; wipe and retract
G1 X118.496 Y104.612 E-.14466 ; wipe and retract
G1 X118.003 Y105.105 E-.16101 ; wipe and retract
;WIPE_END
G1 E-.07 F2100 ; retract
G1 Z.8 F720 ; lift Z
G1 Z.9 ; move to next layer (2)
;AFTER_LAYER_CHANGE
;0.9
G1 Z1.1 ; lift Z
G1 X118.003 Y109.211 F10800 ; move to first skirt point
G1 Z.9 F720 ; restore layer Z
G1 E1.4 F2100 ;  ; unretract
;TYPE:Skirt/Brim
;WIDTH:0.42
G1 F1084
G1 X115 Y109.211 E.13319 ; skirt
G1 X113.595 Y108.819 E.06472 ; skirt
G1 X112.596 Y107.754 E.06472 ; skirt
G1 X112.289 Y106.5 E.05729 ; skirt
G1 X112.289 Y103.5 E.13306 ; skirt
M73 P6 R8
G1 X112.681 Y102.095 E.06472 ; skirt
G1 X113.746 Y101.096 E.06472 ; skirt
G1 X115 Y100.789 E.05729 ; skirt
G1 X135 Y100.789 E.8871 ; skirt
G1 X136.405 Y101.181 E.06472 ; skirt
M73 P7 R8
M73 Q7 S8
G1 X137.404 Y102.246 E.06472 ; skirt
G1 X137.711 Y103.5 E.05729 ; skirt
G1 X137.711 Y106.5 E.13306 ; skirt
G1 X137.319 Y107.905 E.06472 ; skirt
G1 X136.254 Y108.904 E.06472 ; skirt
G1 X135 Y109.211 E.05729 ; skirt
G1 X118.063 Y109.211 E.75124 ; skirt
G1 X118.063 Y108.856 F10800 ; move to first skirt point
G1 F1084
G1 X115 Y108.856 E.13585 ; skirt
G1 X113.7 Y108.464 E.06024 ; skirt
G1 X112.831 Y107.42 E.06024 ; skirt
G1 X112.644 Y106.5 E.04163 ; skirt
G1 X112.644 Y103.5 E.13306 ; skirt
G1 X113.036 Y102.2 E.06024 ; skirt
G1 X114.08 Y101.331 E.06024 ; skirt
G1 X115 Y101.144 E.04163 ; skirt
G1 X135 Y101.144 E.8871 ; skirt
G1 X136.3 Y101.536 E.06024 ; skirt
G1 X137.169 Y102.58 E.06024 ; skirt
G1 X137.356 Y103.5 E.04163 ; skirt
G1 X137.356 Y106.5 E.13306 ; skirt
G1 X136.964 Y107.8 E.06024 ; skirt
G1 X135.92 Y108.669 E.06024 ; skirt
G1 X135 Y108.856 E.04163 ; skirt
G1 X118.123 Y108.856 E.74858 ; skirt
; printing object bearing_outer_test-Body.stl id:0 copy 0
;WIPE_START
G1 F8640
M73 Q8 S8
G1 X115 Y108.856 E-.72109 ; wipe and retract
G1 X113.7 Y108.464 E-.31359 ; wipe and retract
G1 X112.882 Y107.481 E-.29532 ; wipe and retract
;WIPE_END
G1 E-.07 F2100 ; retract
G1 Z1.1 F720 ; lift Z
G1 X115.786 Y105.714 F10800 ; move to first perimeter point
G1 Z.9 F720 ; restore layer Z
M73 P8 R8
G1 E1.4 F2100 ;  ; unretract
M204 S800 ; adjust acceleration
;TYPE:Perimeter
;WIDTH:0.5
G1 F1084
G1 X115.786 Y104.286 E.07763 ; perimeter
G1 X134.214 Y104.286 E1.00129 ; perimeter
G1 X134.214 Y105.714 E.07763 ; perimeter
G1 X115.846 Y105.714 E.99803 ; perimeter
M204 S1000 ; adjust acceleration
G1 X115.3 Y106.2 F10800 ; move to first perimeter point
M204 S800 ; adjust acceleration
;TYPE:External perimeter
;WIDTH:0.6
G1 F1084
G1 X115.3 Y103.8 E.16033 ; perimeter
