; generated by PrusaSlicer 2.6.0 on 2023-07-02 at 14:58:11 UTC


;
;
; 

; external perimeters extrusion width = 0.60mm
; perimeters extrusion width = 0.50mm
; infill extrusion width = 0.50mm
; solid infill extrusion width = 0.50mm
; top infill extrusion width = 0.45mm
; support material extrusion width = 0.38mm
; first layer extrusion width = 0.42mm

M73 P0 R73
M73 Q0 S74
M201 X1000 Y1000 Z200 E5000 ; sets maximum accelerations, mm/sec^2
M203 X200 Y200 Z12 E120 ; sets maximum feedrates, mm / sec
M204 S1250 T1250 ; sets acceleration (S) and retract acceleration (R), mm/sec^2
M205 X8.00 Y8.00 Z0.40 E4.50 ; sets the jerk limits, mm/sec
M205 S0 T0 ; sets the minimum extruding and travel feed rate, mm/sec
;TYPE:Custom
M862.3 P "MK3S" ; printer model check
M862.1 P0.4 ; nozzle diameter check
M115 U3.11.0 ; tell printer latest fw version
G90 ; use absolute coordinates
M83 ; extruder relative mode
M104 S240 ; set extruder temp
M140 S95 ; set bed temp
M190 S95 ; wait for bed temp
M109 S240 ; wait for extruder temp
G28 W ; home all without mesh bed level
G80 ; mesh bed leveling

G1 Z0.2 F720
G1 Y-3 F1000 ; go outside print area
G92 E0
G1 X60 E9 F1000 ; intro line
G1 X100 E12.5 F1000 ; intro line

G92 E0
M221 S95

; Don't change E values below. Excessive value can damage the printer.

M907 E538 ; set extruder motor current
G21 ; set units to millimeters
G90 ; use absolute coordinates
M83 ; use relative distances for extrusion
M900 K0.08 ; Filament gcode LA 1.5
M900 K45 ; Filament gcode LA 1.0
M107 ; disable fan
;LAYER_CHANGE
;Z:0.3
;HEIGHT:0.3
;BEFORE_LAYER_CHANGE
G92 E0.0
;0.3


G1 E-1.4 F2100 ; retract
G1 Z.2 F720 ; lift Z
G1 Z.3 ; move to next layer (0)
;AFTER_LAYER_CHANGE
;0.3
G1 Z.5 ; lift Z
G1 X91.036 Y71.2 F10800 ; move to first skirt point
G1 Z.3 F720 ; restore layer Z
G1 E1.4 F2100 ;  ; unretract
M204 S800 ; adjust acceleration
;TYPE:Skirt/Brim
;WIDTH:0.42
G1 F1200
G1 X92.08 Y70.331 E.06025 ; skirt
G1 X93 Y70.144 E.04164 ; skirt
G1 X157 Y70.144 E2.83871 ; skirt
G1 X158.3 Y70.536 E.06023 ; skirt
G1 X159.169 Y71.58 E.06025 ; skirt
G1 X159.356 Y72.5 E.04164 ; skirt
G1 X159.356 Y137.5 E2.88306 ; skirt
G1 X158.964 Y138.8 E.06023 ; skirt
G1 X157.92 Y139.669 E.06025 ; skirt
G1 X157 Y139.856 E.04164 ; skirt
G1 X93 Y139.856 E2.83871 ; skirt
G1 X91.7 Y139.464 E.06023 ; skirt
G1 X90.831 Y138.42 E.06025 ; skirt
G1 X90.644 Y137.5 E.04164 ; skirt
G1 X90.644 Y72.5 E2.88306 ; skirt
G1 X91.019 Y71.257 E.05759 ; skirt
M204 S1000 ; adjust acceleration
; printing object camAndDisplayHolder-Body.stl id:0 copy 0
;WIPE_START
M73 Q0 S73
G1 F8640
G1 X92.08 Y70.331 E-.32517 ; wipe and retract
G1 X93 Y70.144 E-.21677 ; wipe and retract
G1 X96.716 Y70.144 E-.85806 ; wipe and retract
;WIPE_END
G1 Z.5 F720 ; lift Z
G1 X93.766 Y73.266 F10800 ; move to first perimeter point
G1 Z.3 F720 ; restore layer Z
G1 E1.4 F2100 ;  ; unretract
M204 S800 ; adjust acceleration
;TYPE:Perimeter
;WIDTH:0.42
G1 F1200
G1 X156.234 Y73.266 E2.77075 ; perimeter
G1 X156.234 Y136.734 E2.81511 ; perimeter
G1 X93.766 Y136.734 E2.77075 ; perimeter
G1 X93.766 Y73.326 E2.81245 ; perimeter
M204 S1000 ; adjust acceleration
G1 X93.41 Y72.91 F10800 ; move to first perimeter point
M204 S800 ; adjust acceleration
;TYPE:External perimeter
G1 F1200
G1 X156.59 Y72.91 E2.80233 ; perimeter
G1 X156.59 Y137.09 E2.84669 ; perimeter
G1 X93.41 Y137.09 E2.80233 ; perimeter
M73 P0 R72
G1 X93.41 Y72.97 E2.84403 ; perimeter
M204 S1000 ; adjust acceleration
G1 X93.796 Y73.015 F10800 ; move inwards before travel
;WIPE_START
M73 P1 R72
M73 Q1 S73
G1 F8640
G1 X99.473 Y72.964 E-1.4 ; wipe and retract
;WIPE_END
G1 Z.5 F720 ; lift Z
G1 X156.128 Y74.093 F10800 ; move to first infill point
G1 Z.3 F720 ; restore layer Z
G1 E1.4 F2100 ;  ; unretract
M204 S800 ; adjust acceleration
;TYPE:Solid infill
;WIDTH:0.421006
G1 F1200
G1 X155.567 Y73.532 E.03529 ; infill
G1 X155.062 Y73.532 E.02246 ; infill
G1 X155.968 Y74.438 E.05699 ; infill
G1 X155.968 Y74.942 E.02242 ; infill
G1 X154.558 Y73.532 E.0887 ; infill
G1 X154.054 Y73.532 E.02242 ; infill
G1 X155.968 Y75.446 E.1204 ; infill
G1 X155.968 Y75.951 E.02246 ; infill
G1 X153.549 Y73.532 E.15217 ; infill
G1 X153.045 Y73.532 E.02242 ; infill
G1 X155.968 Y76.455 E.18387 ; infill
G1 X155.968 Y76.959 E.02242 ; infill
G1 X152.541 Y73.532 E.21557 ; infill
G1 X152.036 Y73.532 E.02246 ; infill
G1 X155.968 Y77.464 E.24734 ; infill
G1 X155.968 Y77.968 E.02242 ; infill
G1 X151.532 Y73.532 E.27904 ; infill
G1 X151.028 Y73.532 E.02242 ; infill
G1 X155.968 Y78.472 E.31075 ; infill
G1 X155.968 Y78.977 E.02246 ; infill
G1 X150.523 Y73.532 E.34252 ; infill
G1 X150.019 Y73.532 E.02242 ; infill
G1 X155.968 Y79.481 E.37422 ; infill
G1 X155.968 Y79.985 E.02242 ; infill
G1 X149.515 Y73.532 E.40592 ; infill
G1 X149.01 Y73.532 E.02246 ; infill
G1 X155.968 Y80.49 E.43769 ; infill
G1 X155.968 Y80.994 E.02242 ; infill
G1 X148.506 Y73.532 E.46939 ; infill
G1 X148.002 Y73.532 E.02242 ; infill
G1 X155.968 Y81.498 E.5011 ; infill
G1 X155.968 Y82.003 E.02246 ; infill
G1 X147.497 Y73.532 E.53286 ; infill
G1 X146.993 Y73.532 E.02242 ; infill
G1 X155.968 Y82.507 E.56457 ; infill
G1 X155.968 Y83.011 E.02242 ; infill
G1 X146.489 Y73.532 E.59627 ; infill
G1 X145.984 Y73.532 E.02246 ; infill
G1 X155.968 Y83.516 E.62804 ; infill
G1 X155.968 Y84.02 E.02242 ; infill
G1 X145.48 Y73.532 E.65974 ; infill
G1 X144.975 Y73.532 E.02246 ; infill
G1 X155.968 Y84.525 E.69151 ; infill
G1 X155.968 Y85.029 E.02242 ; infill
G1 X144.471 Y73.532 E.72321 ; infill
G1 X143.967 Y73.532 E.02242 ; infill
G1 X155.968 Y85.533 E.75492 ; infill
G1 X155.968 Y86.038 E.02246 ; infill
G1 X143.462 Y73.532 E.78668 ; infill
G1 X142.958 Y73.532 E.02242 ; infill
G1 X155.968 Y86.542 E.81839 ; infill
G1 X155.968 Y87.046 E.02242 ; infill
G1 X142.454 Y73.532 E.85009 ; infill
G1 X141.949 Y73.532 E.02246 ; infill
G1 X155.968 Y87.551 E.88186 ; infill
G1 X155.968 Y88.055 E.02242 ; infill
G1 X141.445 Y73.532 E.91356 ; infill
G1 X140.941 Y73.532 E.02242 ; infill
G1 X155.968 Y88.559 E.94527 ; infill
G1 X155.968 Y89.064 E.02246 ; infill
G1 X140.436 Y73.532 E.97703 ; infill
G1 X139.932 Y73.532 E.02242 ; infill
G1 X155.968 Y89.568 E1.00874 ; infill
G1 X155.968 Y90.072 E.02242 ; infill
G1 X139.428 Y73.532 E1.04044 ; infill
G1 X138.923 Y73.532 E.02246 ; infill
G1 X155.968 Y90.577 E1.07221 ; infill
G1 X155.968 Y91.081 E.02242 ; infill
G1 X138.419 Y73.532 E1.10391 ; infill
G1 X137.915 Y73.532 E.02242 ; infill
G1 X155.968 Y91.585 E1.13562 ; infill
G1 X155.968 Y92.09 E.02246 ; infill
G1 X137.41 Y73.532 E1.16738 ; infill
G1 X136.906 Y73.532 E.02242 ; infill
G1 X155.968 Y92.594 E1.19909 ; infill
G1 X155.968 Y93.098 E.02242 ; infill
G1 X136.402 Y73.532 E1.23079 ; infill
G1 X135.897 Y73.532 E.02246 ; infill
G1 X155.968 Y93.603 E1.26256 ; infill
G1 X155.968 Y94.107 E.02242 ; infill
G1 X135.393 Y73.532 E1.29426 ; infill
G1 X134.889 Y73.532 E.02242 ; infill
G1 X155.968 Y94.611 E1.32596 ; infill
G1 X155.968 Y95.116 E.02246 ; infill
M73 Q1 S72
G1 X134.384 Y73.532 E1.35773 ; infill
G1 X133.88 Y73.532 E.02242 ; infill
G1 X155.968 Y95.62 E1.38944 ; infill
G1 X155.968 Y96.124 E.02242 ; infill
G1 X133.376 Y73.532 E1.42114 ; infill
G1 X132.871 Y73.532 E.02246 ; infill
G1 X155.968 Y96.629 E1.45291 ; infill
G1 X155.968 Y97.133 E.02242 ; infill
G1 X132.367 Y73.532 E1.48461 ; infill
G1 X131.863 Y73.532 E.02242 ; infill
M73 P2 R72
M73 Q2 S72
G1 X155.968 Y97.637 E1.51631 ; infill
G1 X155.968 Y98.142 E.02246 ; infill
G1 X131.358 Y73.532 E1.54808 ; infill
G1 X130.854 Y73.532 E.02242 ; infill
G1 X155.968 Y98.646 E1.57978 ; infill
G1 X155.968 Y99.15 E.02242 ; infill
G1 X130.35 Y73.532 E1.61149 ; infill
G1 X129.845 Y73.532 E.02246 ; infill
G1 X155.968 Y99.655 E1.64326 ; infill
G1 X155.968 Y100.159 E.02242 ; infill
M73 P2 R71
G1 X129.341 Y73.532 E1.67496 ; infill
G1 X128.836 Y73.532 E.02246 ; infill
G1 X155.968 Y100.664 E1.70673 ; infill
G1 X155.968 Y101.168 E.02242 ; infill
G1 X128.332 Y73.532 E1.73843 ; infill
G1 X127.828 Y73.532 E.02242 ; infill
G1 X155.968 Y101.672 E1.77013 ; infill
G1 X155.968 Y102.177 E.02246 ; infill
G1 X127.323 Y73.532 E1.8019 ; infill
G1 X126.819 Y73.532 E.02242 ; infill
G1 X155.968 Y102.681 E1.8336 ; infill
G1 X155.968 Y103.185 E.02242 ; infill
G1 X126.315 Y73.532 E1.86531 ; infill
G1 X125.81 Y73.532 E.02246 ; infill
G1 X155.968 Y103.69 E1.89708 ; infill
G1 X155.968 Y104.194 E.02242 ; infill
G1 X125.306 Y73.532 E1.92878 ; infill
G1 X124.802 Y73.532 E.02242 ; infill
G1 X155.968 Y104.698 E1.96048 ; infill
G1 X155.968 Y105.203 E.02246 ; infill
G1 X124.297 Y73.532 E1.99225 ; infill
G1 X123.793 Y73.532 E.02242 ; infill
G1 X155.968 Y105.707 E2.02395 ; infill
G1 X155.968 Y106.211 E.02242 ; infill
G1 X123.289 Y73.532 E2.05566 ; infill
G1 X122.784 Y73.532 E.02246 ; infill
G1 X155.968 Y106.716 E2.08742 ; infill
G1 X155.968 Y107.22 E.02242 ; infill
G1 X122.28 Y73.532 E2.11913 ; infill
G1 X121.776 Y73.532 E.02242 ; infill
G1 X155.968 Y107.724 E2.15083 ; infill
G1 X155.968 Y108.229 E.02246 ; infill
M73 P3 R71
G1 X121.271 Y73.532 E2.1826 ; infill
G1 X120.767 Y73.532 E.02242 ; infill
M73 Q3 S72
G1 X155.968 Y108.733 E2.2143 ; infill
G1 X155.968 Y109.237 E.02242 ; infill
G1 X120.263 Y73.532 E2.24601 ; infill
G1 X119.758 Y73.532 E.02246 ; infill
M73 Q3 S71
G1 X155.968 Y109.742 E2.27777 ; infill
G1 X155.968 Y110.246 E.02242 ; infill
G1 X119.254 Y73.532 E2.30948 ; infill
G1 X118.75 Y73.532 E.02242 ; infill
G1 X155.968 Y110.75 E2.34118 ; infill
G1 X155.968 Y111.255 E.02246 ; infill
G1 X118.245 Y73.532 E2.37295 ; infill
G1 X117.741 Y73.532 E.02242 ; infill
G1 X155.968 Y111.759 E2.40465 ; infill
G1 X155.968 Y112.263 E.02242 ; infill
G1 X117.237 Y73.532 E2.43636 ; infill
G1 X116.732 Y73.532 E.02246 ; infill
G1 X155.968 Y112.768 E2.46812 ; infill
G1 X155.968 Y113.272 E.02242 ; infill
M73 P3 R70
G1 X116.228 Y73.532 E2.49983 ; infill
G1 X115.724 Y73.532 E.02242 ; infill
G1 X155.968 Y113.776 E2.53153 ; infill
G1 X155.968 Y114.281 E.02246 ; infill
G1 X115.219 Y73.532 E2.5633 ; infill
G1 X114.715 Y73.532 E.02242 ; infill
G1 X155.968 Y114.785 E2.595 ; infill
G1 X155.968 Y115.29 E.02246 ; infill
G1 X114.211 Y73.532 E2.62674 ; infill
G1 X113.706 Y73.532 E.02246 ; infill
G1 X155.968 Y115.794 E2.65847 ; infill
G1 X155.968 Y116.298 E.02242 ; infill
M73 P4 R70
G1 X113.202 Y73.532 E2.69018 ; infill
G1 X112.697 Y73.532 E.02246 ; infill
M73 Q4 S71
G1 X155.968 Y116.803 E2.72194 ; infill
G1 X155.968 Y117.307 E.02242 ; infill
G1 X112.193 Y73.532 E2.75365 ; infill
G1 X111.689 Y73.532 E.02242 ; infill
G1 X155.968 Y117.811 E2.78535 ; infill
G1 X155.968 Y118.316 E.02246 ; infill
G1 X111.184 Y73.532 E2.81712 ; infill
G1 X110.68 Y73.532 E.02242 ; infill
G1 X155.968 Y118.82 E2.84882 ; infill
G1 X155.968 Y119.324 E.02242 ; infill
G1 X110.176 Y73.532 E2.88053 ; infill
G1 X109.671 Y73.532 E.02246 ; infill
G1 X155.968 Y119.829 E2.91229 ; infill
G1 X155.968 Y120.333 E.02242 ; infill
M73 Q4 S70
G1 X109.167 Y73.532 E2.944 ; infill
G1 X108.663 Y73.532 E.02242 ; infill
G1 X155.968 Y120.837 E2.9757 ; infill
G1 X155.968 Y121.342 E.02246 ; infill
G1 X108.158 Y73.532 E3.00747 ; infill
G1 X107.654 Y73.532 E.02242 ; infill
G1 X155.968 Y121.846 E3.03917 ; infill
G1 X155.968 Y122.35 E.02242 ; infill
G1 X107.15 Y73.532 E3.07087 ; infill
G1 X106.645 Y73.532 E.02246 ; infill
M73 P4 R69
G1 X155.968 Y122.855 E3.10264 ; infill
G1 X155.968 Y123.359 E.02242 ; infill
M73 P5 R69
M73 Q5 S70
G1 X106.141 Y73.532 E3.13434 ; infill
G1 X105.637 Y73.532 E.02242 ; infill
G1 X155.968 Y123.863 E3.16605 ; infill
G1 X155.968 Y124.368 E.02246 ; infill
G1 X105.132 Y73.532 E3.19782 ; infill
G1 X104.628 Y73.532 E.02242 ; infill
G1 X155.968 Y124.872 E3.22952 ; infill
G1 X155.968 Y125.376 E.02242 ; infill
G1 X104.124 Y73.532 E3.26122 ; infill
G1 X103.619 Y73.532 E.02246 ; infill
G1 X155.968 Y125.881 E3.29299 ; infill
G1 X155.968 Y126.385 E.02242 ; infill
G1 X103.115 Y73.532 E3.32469 ; infill
G1 X102.611 Y73.532 E.02242 ; infill
G1 X155.968 Y126.889 E3.3564 ; infill
G1 X155.968 Y127.394 E.02246 ; infill
G1 X102.106 Y73.532 E3.38816 ; infill
G1 X101.602 Y73.532 E.02242 ; infill
G1 X155.968 Y127.898 E3.41987 ; infill
G1 X155.968 Y128.402 E.02242 ; infill
M73 Q5 S69
G1 X101.098 Y73.532 E3.45157 ; infill
G1 X100.593 Y73.532 E.02246 ; infill
G1 X155.968 Y128.907 E3.48334 ; infill
G1 X155.968 Y129.411 E.02242 ; infill
M73 P6 R69
M73 Q6 S69
G1 X100.089 Y73.532 E3.51504 ; infill
G1 X99.585 Y73.532 E.02242 ; infill
G1 X155.968 Y129.915 E3.54675 ; infill
G1 X155.968 Y130.42 E.02246 ; infill
G1 X99.08 Y73.532 E3.57851 ; infill
G1 X98.576 Y73.532 E.02242 ; infill
M73 P6 R68
G1 X155.968 Y130.924 E3.61022 ; infill
G1 X155.968 Y131.429 E.02246 ; infill
G1 X98.071 Y73.532 E3.64198 ; infill
G1 X97.567 Y73.532 E.02242 ; infill
G1 X155.968 Y131.933 E3.67369 ; infill
G1 X155.968 Y132.437 E.02242 ; infill
G1 X97.063 Y73.532 E3.70539 ; infill
G1 X96.558 Y73.532 E.02246 ; infill
G1 X155.968 Y132.942 E3.73716 ; infill
G1 X155.968 Y133.446 E.02242 ; infill
G1 X96.054 Y73.532 E3.76886 ; infill
G1 X95.55 Y73.532 E.02242 ; infill
G1 X155.968 Y133.95 E3.80057 ; infill
G1 X155.968 Y134.455 E.02246 ; infill
M73 P7 R68
G1 X95.045 Y73.532 E3.83233 ; infill
G1 X94.541 Y73.532 E.02242 ; infill
M73 Q7 S69
G1 X155.968 Y134.959 E3.86404 ; infill
G1 X155.968 Y135.463 E.02242 ; infill
G1 X94.032 Y73.532 E3.8959 ; infill
G1 X94.032 Y74.032 E.02224 ; infill
M73 Q7 S68
G1 X155.968 Y135.968 E3.89606 ; infill
G1 X155.968 Y136.468 E.02224 ; infill
G1 X94.032 Y74.537 E3.8959 ; infill
G1 X94.032 Y75.041 E.02242 ; infill
G1 X155.459 Y136.468 E3.86404 ; infill
G1 X154.955 Y136.468 E.02242 ; infill
G1 X94.032 Y75.545 E3.83233 ; infill
G1 X94.032 Y76.05 E.02246 ; infill
M73 P7 R67
G1 X154.45 Y136.468 E3.80057 ; infill
G1 X153.946 Y136.468 E.02242 ; infill
G1 X94.032 Y76.554 E3.76886 ; infill
G1 X94.032 Y77.058 E.02242 ; infill
G1 X153.442 Y136.468 E3.73716 ; infill
G1 X152.937 Y136.468 E.02246 ; infill
M73 P8 R67
G1 X94.032 Y77.563 E3.70539 ; infill
G1 X94.032 Y78.067 E.02242 ; infill
M73 Q8 S68
G1 X152.433 Y136.468 E3.67369 ; infill
G1 X151.929 Y136.468 E.02242 ; infill
G1 X94.032 Y78.571 E3.64198 ; infill
G1 X94.032 Y79.076 E.02246 ; infill
G1 X151.424 Y136.468 E3.61022 ; infill
G1 X150.92 Y136.468 E.02242 ; infill
G1 X94.032 Y79.58 E3.57851 ; infill
G1 X94.032 Y80.084 E.02242 ; infill
G1 X150.416 Y136.468 E3.54681 ; infill
G1 X149.911 Y136.468 E.02246 ; infill
G1 X94.032 Y80.589 E3.51504 ; infill
G1 X94.032 Y81.093 E.02242 ; infill
M73 Q8 S67
G1 X149.407 Y136.468 E3.48334 ; infill
G1 X148.903 Y136.468 E.02242 ; infill
G1 X94.032 Y81.597 E3.45164 ; infill
G1 X94.032 Y82.102 E.02246 ; infill
G1 X148.398 Y136.468 E3.41987 ; infill
G1 X147.894 Y136.468 E.02242 ; infill
G1 X94.032 Y82.606 E3.38816 ; infill
G1 X94.032 Y83.11 E.02242 ; infill
M73 P9 R66
G1 X147.39 Y136.468 E3.35646 ; infill
G1 X146.885 Y136.468 E.02246 ; infill
M73 Q9 S67
G1 X94.032 Y83.615 E3.32469 ; infill
G1 X94.032 Y84.119 E.02242 ; infill
G1 X146.381 Y136.468 E3.29299 ; infill
G1 X145.877 Y136.468 E.02242 ; infill
G1 X94.032 Y84.623 E3.26129 ; infill
G1 X94.032 Y85.128 E.02246 ; infill
G1 X145.372 Y136.468 E3.22952 ; infill
G1 X144.868 Y136.468 E.02242 ; infill
G1 X94.032 Y85.632 E3.19782 ; infill
G1 X94.032 Y86.137 E.02246 ; infill
G1 X144.363 Y136.468 E3.16605 ; infill
G1 X143.859 Y136.468 E.02242 ; infill
G1 X94.032 Y86.641 E3.13434 ; infill
G1 X94.032 Y87.145 E.02242 ; infill
G1 X143.355 Y136.468 E3.10264 ; infill
G1 X142.85 Y136.468 E.02246 ; infill
G1 X94.032 Y87.65 E3.07087 ; infill
G1 X94.032 Y88.154 E.02242 ; infill
G1 X142.346 Y136.468 E3.03917 ; infill
G1 X141.842 Y136.468 E.02242 ; infill
G1 X94.032 Y88.658 E3.00747 ; infill
G1 X94.032 Y89.163 E.02246 ; infill
M73 Q9 S66
G1 X141.337 Y136.468 E2.9757 ; infill
G1 X140.833 Y136.468 E.02242 ; infill
M73 P10 R66
G1 X94.032 Y89.667 E2.944 ; infill
G1 X94.032 Y90.171 E.02242 ; infill
M73 Q10 S66
G1 X140.329 Y136.468 E2.91229 ; infill
G1 X139.824 Y136.468 E.02246 ; infill
G1 X94.032 Y90.676 E2.88053 ; infill
G1 X94.032 Y91.18 E.02242 ; infill
G1 X139.32 Y136.468 E2.84882 ; infill
G1 X138.816 Y136.468 E.02242 ; infill
M73 P10 R65
