; generated by PrusaSlicer 2.6.0 on 2023-07-09 at 15:52:16 UTC


;
;
; 

; external perimeters extrusion width = 0.60mm
; perimeters extrusion width = 0.50mm
; infill extrusion width = 0.50mm
; solid infill extrusion width = 0.50mm
; top infill extrusion width = 0.45mm
; support material extrusion width = 0.38mm
; first layer extrusion width = 0.42mm

M73 P0 R63
M73 Q0 S63
M201 X1000 Y1000 Z200 E5000 ; sets maximum accelerations, mm/sec^2
M203 X200 Y200 Z12 E120 ; sets maximum feedrates, mm / sec
M204 S1250 T1250 ; sets acceleration (S) and retract acceleration (R), mm/sec^2
M205 X8.00 Y8.00 Z0.40 E4.50 ; sets the jerk limits, mm/sec
M205 S0 T0 ; sets the minimum extruding and travel feed rate, mm/sec
;TYPE:Custom
M862.3 P "MK3S" ; printer model check
M862.1 P0.4 ; nozzle diameter check
M115 U3.11.0 ; tell printer latest fw version
G90 ; use absolute coordinates
M83 ; extruder relative mode
M104 S240 ; set extruder temp
M140 S95 ; set bed temp
M190 S95 ; wait for bed temp
M109 S240 ; wait for extruder temp
G28 W ; home all without mesh bed level
G80 ; mesh bed leveling

G1 Z0.2 F720
G1 Y-3 F1000 ; go outside print area
G92 E0
G1 X60 E9 F1000 ; intro line
G1 X100 E12.5 F1000 ; intro line

G92 E0
M221 S95

; Don't change E values below. Excessive value can damage the printer.

M907 E538 ; set extruder motor current
G21 ; set units to millimeters
G90 ; use absolute coordinates
M83 ; use relative distances for extrusion
M900 K0.08 ; Filament gcode LA 1.5
M900 K45 ; Filament gcode LA 1.0
M107 ; disable fan
;LAYER_CHANGE
;Z:0.3
;HEIGHT:0.3
;BEFORE_LAYER_CHANGE
G92 E0.0
;0.3


G1 E-1.4 F2100 ; retract
G1 Z.2 F720 ; lift Z
G1 Z.3 ; move to next layer (0)
;AFTER_LAYER_CHANGE
;0.3
G1 Z.5 ; lift Z
G1 X105.336 Y71.7 F10800 ; move to first skirt point
G1 Z.3 F720 ; restore layer Z
G1 E1.4 F2100 ;  ; unretract
M204 S800 ; adjust acceleration
;TYPE:Skirt/Brim
;WIDTH:0.42
G1 F1200
G1 X106.38 Y70.831 E.06025 ; skirt
G1 X107.3 Y70.644 E.04164 ; skirt
G1 X142.7 Y70.644 E1.57016 ; skirt
G1 X144 Y71.036 E.06023 ; skirt
G1 X144.869 Y72.08 E.06025 ; skirt
G1 X145.056 Y73 E.04164 ; skirt
G1 X145.056 Y137 E2.83871 ; skirt
G1 X144.664 Y138.3 E.06023 ; skirt
G1 X143.62 Y139.169 E.06025 ; skirt
G1 X142.7 Y139.356 E.04164 ; skirt
G1 X107.3 Y139.356 E1.57016 ; skirt
G1 X106 Y138.964 E.06023 ; skirt
G1 X105.131 Y137.92 E.06025 ; skirt
G1 X104.944 Y137 E.04164 ; skirt
G1 X104.944 Y73 E2.83871 ; skirt
G1 X105.319 Y71.757 E.05759 ; skirt
M204 S1000 ; adjust acceleration
; printing object camAndDisplayHolder2-Body.stl id:0 copy 0
;WIPE_START
G1 F8640
G1 X106.38 Y70.831 E-.32517 ; wipe and retract
G1 X107.3 Y70.644 E-.21677 ; wipe and retract
G1 X111.016 Y70.644 E-.85806 ; wipe and retract
;WIPE_END
G1 Z.5 F720 ; lift Z
G1 X108.066 Y73.766 F10800 ; move to first perimeter point
G1 Z.3 F720 ; restore layer Z
G1 E1.4 F2100 ;  ; unretract
M204 S800 ; adjust acceleration
;TYPE:Perimeter
;WIDTH:0.42
G1 F1200
G1 X141.934 Y73.766 E1.50221 ; perimeter
G1 X141.934 Y136.234 E2.77075 ; perimeter
G1 X108.066 Y136.234 E1.50221 ; perimeter
G1 X108.066 Y73.826 E2.76809 ; perimeter
M204 S1000 ; adjust acceleration
G1 X107.71 Y73.41 F10800 ; move to first perimeter point
M204 S800 ; adjust acceleration
;TYPE:External perimeter
G1 F1200
G1 X142.29 Y73.41 E1.53379 ; perimeter
G1 X142.29 Y136.59 E2.80233 ; perimeter
G1 X107.71 Y136.59 E1.53379 ; perimeter
G1 X107.71 Y73.47 E2.79967 ; perimeter
M204 S1000 ; adjust acceleration
M73 P0 R62
G1 X108.085 Y73.55 F10800 ; move inwards before travel
;WIPE_START
G1 F8640
G1 X113.773 Y73.459 E-1.4 ; wipe and retract
;WIPE_END
G1 Z.5 F720 ; lift Z
G1 X128.152 Y100.887 F10800 ; move to first perimeter point
G1 Z.3 F720 ; restore layer Z
M73 P1 R62
M73 Q1 S63
G1 E1.4 F2100 ;  ; unretract
M204 S800 ; adjust acceleration
;TYPE:Perimeter
G1 F1200
G1 X127.756 Y100.586 E.02206 ; perimeter
G1 X127.472 Y100.249 E.01955 ; perimeter
G1 X127.261 Y99.862 E.01955 ; perimeter
G1 X127.13 Y99.441 E.01956 ; perimeter
G1 X127.086 Y99.002 E.01957 ; perimeter
G1 X127.13 Y98.563 E.01957 ; perimeter
G1 X127.259 Y98.142 E.01953 ; perimeter
G1 X127.47 Y97.755 E.01955 ; perimeter
G1 X127.753 Y97.417 E.01955 ; perimeter
G1 X128.097 Y97.141 E.01956 ; perimeter
G1 X128.489 Y96.94 E.01954 ; perimeter
G1 X128.902 Y96.821 E.01906 ; perimeter
G1 X129.255 Y96.787 E.01573 ; perimeter
G1 X129.682 Y96.819 E.01899 ; perimeter
G1 X130.056 Y96.917 E.01715 ; perimeter
G1 X130.499 Y97.139 E.02198 ; perimeter
G1 X130.844 Y97.414 E.01957 ; perimeter
G1 X131.128 Y97.751 E.01955 ; perimeter
G1 X131.339 Y98.138 E.01955 ; perimeter
G1 X131.47 Y98.559 E.01956 ; perimeter
G1 X131.514 Y98.998 E.01957 ; perimeter
G1 X131.47 Y99.437 E.01957 ; perimeter
G1 X131.341 Y99.858 E.01953 ; perimeter
G1 X131.13 Y100.245 E.01955 ; perimeter
G1 X130.858 Y100.574 E.01893 ; perimeter
G1 X130.594 Y100.796 E.0153 ; perimeter
G1 X130.212 Y101.017 E.01957 ; perimeter
G1 X129.795 Y101.158 E.01952 ; perimeter
G1 X129.357 Y101.213 E.01958 ; perimeter
G1 X128.918 Y101.181 E.01952 ; perimeter
G1 X128.493 Y101.062 E.01958 ; perimeter
G1 X128.206 Y100.914 E.01432 ; perimeter
M204 S1000 ; adjust acceleration
G1 X128.315 Y100.577 F10800 ; move to first perimeter point
M204 S800 ; adjust acceleration
;TYPE:External perimeter
G1 F1200
G1 X128.022 Y100.351 E.01641 ; perimeter
G1 X127.78 Y100.071 E.01642 ; perimeter
G1 X127.598 Y99.749 E.01641 ; perimeter
G1 X127.483 Y99.396 E.01647 ; perimeter
G1 X127.441 Y99.029 E.01638 ; perimeter
G1 X127.472 Y98.66 E.01642 ; perimeter
G1 X127.576 Y98.304 E.01645 ; perimeter
G1 X127.748 Y97.976 E.01643 ; perimeter
G1 X127.981 Y97.689 E.0164 ; perimeter
G1 X128.267 Y97.454 E.01642 ; perimeter
G1 X128.594 Y97.28 E.01643 ; perimeter
G1 X128.945 Y97.175 E.01625 ; perimeter
G1 X129.236 Y97.142 E.01299 ; perimeter
G1 X129.595 Y97.164 E.01595 ; perimeter
G1 X129.936 Y97.252 E.01562 ; perimeter
G1 X130.285 Y97.423 E.01724 ; perimeter
G1 X130.578 Y97.649 E.01641 ; perimeter
G1 X130.82 Y97.929 E.01642 ; perimeter
G1 X131.002 Y98.251 E.01641 ; perimeter
G1 X131.117 Y98.604 E.01647 ; perimeter
G1 X131.159 Y98.971 E.01638 ; perimeter
G1 X131.128 Y99.34 E.01642 ; perimeter
G1 X131.024 Y99.696 E.01645 ; perimeter
G1 X130.852 Y100.024 E.01643 ; perimeter
G1 X130.622 Y100.308 E.01621 ; perimeter
G1 X130.408 Y100.493 E.01255 ; perimeter
G1 X130.091 Y100.683 E.01639 ; perimeter
G1 X129.742 Y100.806 E.01641 ; perimeter
G1 X129.375 Y100.858 E.01644 ; perimeter
G1 X129.005 Y100.836 E.01644 ; perimeter
G1 X128.647 Y100.741 E.01643 ; perimeter
G1 X128.369 Y100.604 E.01375 ; perimeter
M204 S1000 ; adjust acceleration
G1 X127.989 Y100.751 F10800 ; move inwards before travel
;WIPE_START
G1 F8640
G1 X128.022 Y100.351 E-.09916 ; wipe and retract
G1 X127.78 Y100.071 E-.08545 ; wipe and retract
G1 X127.598 Y99.749 E-.08541 ; wipe and retract
G1 X127.483 Y99.396 E-.08572 ; wipe and retract
G1 X127.441 Y99.029 E-.08529 ; wipe and retract
G1 X127.472 Y98.66 E-.0855 ; wipe and retract
G1 X127.576 Y98.304 E-.08564 ; wipe and retract
G1 X127.748 Y97.976 E-.08552 ; wipe and retract
G1 X127.981 Y97.689 E-.08536 ; wipe and retract
G1 X128.267 Y97.454 E-.08547 ; wipe and retract
G1 X128.594 Y97.28 E-.08553 ; wipe and retract
G1 X128.945 Y97.175 E-.0846 ; wipe and retract
G1 X129.236 Y97.142 E-.06762 ; wipe and retract
G1 X129.595 Y97.164 E-.08305 ; wipe and retract
G1 X129.936 Y97.252 E-.08132 ; wipe and retract
G1 X130.285 Y97.423 E-.08974 ; wipe and retract
G1 X130.421 Y97.528 E-.03962 ; wipe and retract
;WIPE_END
G1 Z.5 F720 ; lift Z
G1 X128.851 Y108.836 F10800 ; move to first perimeter point
G1 Z.3 F720 ; restore layer Z
G1 E1.4 F2100 ;  ; unretract
M204 S800 ; adjust acceleration
;TYPE:Perimeter
G1 F1200
G1 X129.255 Y108.787 E.01805 ; perimeter
G1 X129.682 Y108.819 E.01899 ; perimeter
G1 X130.107 Y108.938 E.01958 ; perimeter
G1 X130.499 Y109.139 E.01954 ; perimeter
G1 X130.844 Y109.414 E.01957 ; perimeter
G1 X131.128 Y109.751 E.01955 ; perimeter
G1 X131.339 Y110.138 E.01955 ; perimeter
G1 X131.47 Y110.559 E.01956 ; perimeter
G1 X131.514 Y110.998 E.01957 ; perimeter
G1 X131.47 Y111.437 E.01957 ; perimeter
G1 X131.341 Y111.858 E.01953 ; perimeter
G1 X131.13 Y112.245 E.01955 ; perimeter
G1 X130.847 Y112.583 E.01955 ; perimeter
G1 X130.513 Y112.853 E.01905 ; perimeter
G1 X130.201 Y113.022 E.01574 ; perimeter
G1 X129.795 Y113.158 E.01899 ; perimeter
G1 X129.357 Y113.213 E.01958 ; perimeter
G1 X128.918 Y113.181 E.01952 ; perimeter
G1 X128.493 Y113.062 E.01958 ; perimeter
G1 X128.101 Y112.861 E.01954 ; perimeter
G1 X127.756 Y112.586 E.01957 ; perimeter
G1 X127.472 Y112.249 E.01955 ; perimeter
G1 X127.261 Y111.862 E.01955 ; perimeter
G1 X127.13 Y111.441 E.01956 ; perimeter
G1 X127.086 Y111.002 E.01957 ; perimeter
G1 X127.13 Y110.563 E.01957 ; perimeter
G1 X127.259 Y110.142 E.01953 ; perimeter
G1 X127.47 Y109.755 E.01955 ; perimeter
G1 X127.753 Y109.417 E.01955 ; perimeter
G1 X128.097 Y109.141 E.01956 ; perimeter
G1 X128.489 Y108.94 E.01954 ; perimeter
G1 X128.794 Y108.853 E.01407 ; perimeter
M204 S1000 ; adjust acceleration
G1 X128.267 Y109.454 F10800 ; move to first perimeter point
M204 S800 ; adjust acceleration
;TYPE:External perimeter
G1 F1200
G1 X128.594 Y109.28 E.01643 ; perimeter
G1 X128.945 Y109.175 E.01625 ; perimeter
G1 X129.236 Y109.142 E.01299 ; perimeter
G1 X129.595 Y109.164 E.01595 ; perimeter
G1 X129.953 Y109.259 E.01643 ; perimeter
G1 X130.285 Y109.423 E.01642 ; perimeter
G1 X130.578 Y109.649 E.01641 ; perimeter
G1 X130.82 Y109.929 E.01642 ; perimeter
G1 X131.002 Y110.251 E.01641 ; perimeter
G1 X131.117 Y110.604 E.01647 ; perimeter
G1 X131.159 Y110.971 E.01638 ; perimeter
G1 X131.128 Y111.34 E.01642 ; perimeter
G1 X131.024 Y111.696 E.01645 ; perimeter
G1 X130.852 Y112.024 E.01643 ; perimeter
G1 X130.619 Y112.311 E.0164 ; perimeter
G1 X130.336 Y112.544 E.01626 ; perimeter
G1 X130.08 Y112.688 E.01303 ; perimeter
G1 X129.742 Y112.806 E.01588 ; perimeter
G1 X129.375 Y112.858 E.01644 ; perimeter
G1 X129.005 Y112.836 E.01644 ; perimeter
G1 X128.647 Y112.741 E.01643 ; perimeter
G1 X128.315 Y112.577 E.01642 ; perimeter
G1 X128.022 Y112.351 E.01641 ; perimeter
G1 X127.78 Y112.071 E.01642 ; perimeter
G1 X127.598 Y111.749 E.01641 ; perimeter
G1 X127.483 Y111.396 E.01647 ; perimeter
G1 X127.441 Y111.029 E.01638 ; perimeter
G1 X127.472 Y110.66 E.01642 ; perimeter
G1 X127.576 Y110.304 E.01645 ; perimeter
G1 X127.748 Y109.976 E.01643 ; perimeter
G1 X127.981 Y109.689 E.0164 ; perimeter
G1 X128.221 Y109.492 E.01377 ; perimeter
M204 S1000 ; adjust acceleration
G1 X128.243 Y109.084 F10800 ; move inwards before travel
;WIPE_START
G1 F8640
G1 X128.594 Y109.28 E-.09907 ; wipe and retract
G1 X128.945 Y109.175 E-.0846 ; wipe and retract
G1 X129.236 Y109.142 E-.06762 ; wipe and retract
G1 X129.595 Y109.164 E-.08305 ; wipe and retract
G1 X129.953 Y109.259 E-.08552 ; wipe and retract
G1 X130.285 Y109.423 E-.0855 ; wipe and retract
G1 X130.578 Y109.649 E-.08544 ; wipe and retract
G1 X130.82 Y109.929 E-.08545 ; wipe and retract
G1 X131.002 Y110.251 E-.08541 ; wipe and retract
G1 X131.117 Y110.604 E-.08572 ; wipe and retract
G1 X131.159 Y110.971 E-.08529 ; wipe and retract
G1 X131.128 Y111.34 E-.0855 ; wipe and retract
G1 X131.024 Y111.696 E-.08564 ; wipe and retract
G1 X130.852 Y112.024 E-.08552 ; wipe and retract
G1 X130.619 Y112.311 E-.08536 ; wipe and retract
G1 X130.336 Y112.544 E-.08464 ; wipe and retract
G1 X130.182 Y112.63 E-.04067 ; wipe and retract
;WIPE_END
G1 Z.5 F720 ; lift Z
G1 X118.448 Y109.113 F10800 ; move to first perimeter point
G1 Z.3 F720 ; restore layer Z
G1 E1.4 F2100 ;  ; unretract
M204 S800 ; adjust acceleration
;TYPE:Perimeter
G1 F1200
G1 X118.844 Y109.414 E.02206 ; perimeter
G1 X119.128 Y109.751 E.01955 ; perimeter
G1 X119.339 Y110.138 E.01955 ; perimeter
G1 X119.47 Y110.559 E.01956 ; perimeter
G1 X119.514 Y110.998 E.01957 ; perimeter
G1 X119.47 Y111.437 E.01957 ; perimeter
G1 X119.341 Y111.858 E.01953 ; perimeter
G1 X119.13 Y112.245 E.01955 ; perimeter
G1 X118.918 Y112.511 E.01509 ; perimeter
G1 X118.532 Y112.842 E.02255 ; perimeter
G1 X118.111 Y113.06 E.02103 ; perimeter
G1 X117.686 Y113.18 E.01959 ; perimeter
G1 X117.247 Y113.213 E.01953 ; perimeter
G1 X116.809 Y113.159 E.01957 ; perimeter
G1 X116.391 Y113.019 E.01955 ; perimeter
G1 X116.009 Y112.799 E.01955 ; perimeter
G1 X115.686 Y112.516 E.01905 ; perimeter
G1 X115.465 Y112.239 E.01572 ; perimeter
G1 X115.261 Y111.862 E.01901 ; perimeter
G1 X115.13 Y111.441 E.01956 ; perimeter
G1 X115.086 Y111.002 E.01957 ; perimeter
G1 X115.13 Y110.563 E.01957 ; perimeter
G1 X115.259 Y110.142 E.01953 ; perimeter
G1 X115.47 Y109.755 E.01955 ; perimeter
G1 X115.753 Y109.417 E.01955 ; perimeter
G1 X116.097 Y109.141 E.01956 ; perimeter
G1 X116.489 Y108.94 E.01954 ; perimeter
G1 X116.912 Y108.82 E.0195 ; perimeter
G1 X117.327 Y108.786 E.01847 ; perimeter
G1 X117.683 Y108.82 E.01586 ; perimeter
G1 X118.107 Y108.938 E.01952 ; perimeter
G1 X118.394 Y109.086 E.01432 ; perimeter
M204 S1000 ; adjust acceleration
G1 X118.285 Y109.423 F10800 ; move to first perimeter point
M204 S800 ; adjust acceleration
;TYPE:External perimeter
G1 F1200
G1 X118.578 Y109.649 E.01641 ; perimeter
G1 X118.82 Y109.929 E.01642 ; perimeter
G1 X119.002 Y110.251 E.01641 ; perimeter
G1 X119.117 Y110.604 E.01647 ; perimeter
G1 X119.159 Y110.971 E.01638 ; perimeter
G1 X119.128 Y111.34 E.01642 ; perimeter
G1 X119.024 Y111.696 E.01645 ; perimeter
G1 X118.852 Y112.024 E.01643 ; perimeter
G1 X118.642 Y112.287 E.01493 ; perimeter
G1 X118.333 Y112.546 E.01788 ; perimeter
G1 X118.006 Y112.72 E.01643 ; perimeter
G1 X117.651 Y112.826 E.01643 ; perimeter
G1 X117.282 Y112.859 E.01643 ; perimeter
G1 X116.914 Y112.819 E.01642 ; perimeter
G1 X116.561 Y112.706 E.01644 ; perimeter
G1 X116.238 Y112.526 E.0164 ; perimeter
G1 X115.959 Y112.289 E.01624 ; perimeter
G1 X115.774 Y112.062 E.01299 ; perimeter
G1 X115.598 Y111.749 E.01593 ; perimeter
G1 X115.483 Y111.396 E.01647 ; perimeter
G1 X115.441 Y111.029 E.01638 ; perimeter
G1 X115.472 Y110.66 E.01642 ; perimeter
G1 X115.576 Y110.304 E.01645 ; perimeter
G1 X115.748 Y109.976 E.01643 ; perimeter
G1 X115.981 Y109.689 E.0164 ; perimeter
G1 X116.267 Y109.454 E.01642 ; perimeter
G1 X116.594 Y109.28 E.01643 ; perimeter
G1 X116.948 Y109.174 E.01639 ; perimeter
G1 X117.535 Y109.157 E.02605 ; perimeter
G1 X117.953 Y109.259 E.01908 ; perimeter
G1 X118.231 Y109.396 E.01375 ; perimeter
M204 S1000 ; adjust acceleration
G1 X118.61 Y109.247 F10800 ; move inwards before travel
;WIPE_START
G1 F8640
G1 X118.578 Y109.649 E-.09916 ; wipe and retract
G1 X118.82 Y109.929 E-.08545 ; wipe and retract
G1 X119.002 Y110.251 E-.08541 ; wipe and retract
G1 X119.117 Y110.604 E-.08572 ; wipe and retract
G1 X119.159 Y110.971 E-.08529 ; wipe and retract
G1 X119.128 Y111.34 E-.0855 ; wipe and retract
G1 X119.024 Y111.696 E-.08564 ; wipe and retract
G1 X118.852 Y112.024 E-.08552 ; wipe and retract
G1 X118.642 Y112.287 E-.07771 ; wipe and retract
G1 X118.333 Y112.546 E-.0931 ; wipe and retract
G1 X118.006 Y112.72 E-.08553 ; wipe and retract
G1 X117.651 Y112.826 E-.08555 ; wipe and retract
G1 X117.282 Y112.859 E-.08554 ; wipe and retract
G1 X116.914 Y112.819 E-.08547 ; wipe and retract
G1 X116.561 Y112.706 E-.08558 ; wipe and retract
G1 X116.238 Y112.526 E-.08538 ; wipe and retract
G1 X116.177 Y112.474 E-.01845 ; wipe and retract
;WIPE_END
G1 Z.5 F720 ; lift Z
G1 X118.548 Y100.822 F10800 ; move to first perimeter point
G1 Z.3 F720 ; restore layer Z
G1 E1.4 F2100 ;  ; unretract
M204 S800 ; adjust acceleration
;TYPE:Perimeter
G1 F1200
G1 X118.111 Y101.06 E.02207 ; perimeter
G1 X117.7 Y101.178 E.01897 ; perimeter
G1 X117.357 Y101.213 E.01529 ; perimeter
G1 X116.918 Y101.181 E.01952 ; perimeter
G1 X116.493 Y101.062 E.01958 ; perimeter
G1 X116.101 Y100.861 E.01954 ; perimeter
G1 X115.756 Y100.586 E.01957 ; perimeter
G1 X115.472 Y100.249 E.01955 ; perimeter
G1 X115.261 Y99.862 E.01955 ; perimeter
G1 X115.13 Y99.441 E.01956 ; perimeter
G1 X115.089 Y99.108 E.01488 ; perimeter
G1 X115.13 Y98.563 E.02424 ; perimeter
G1 X115.259 Y98.142 E.01953 ; perimeter
G1 X115.47 Y97.755 E.01955 ; perimeter
