; generated by PrusaSlicer 2.6.0 on 2023-06-30 at 15:59:37 UTC


;
;
; 

; external perimeters extrusion width = 0.60mm
; perimeters extrusion width = 0.50mm
; infill extrusion width = 0.50mm
; solid infill extrusion width = 0.50mm
; top infill extrusion width = 0.45mm
; support material extrusion width = 0.38mm
; first layer extrusion width = 0.42mm

M73 P0 R30
M73 Q0 S30
M201 X1000 Y1000 Z200 E5000 ; sets maximum accelerations, mm/sec^2
M203 X200 Y200 Z12 E120 ; sets maximum feedrates, mm / sec
M204 S1250 T1250 ; sets acceleration (S) and retract acceleration (R), mm/sec^2
M205 X8.00 Y8.00 Z0.40 E4.50 ; sets the jerk limits, mm/sec
M205 S0 T0 ; sets the minimum extruding and travel feed rate, mm/sec
;TYPE:Custom
M862.3 P "MK3S" ; printer model check
M862.1 P0.4 ; nozzle diameter check
M115 U3.11.0 ; tell printer latest fw version
G90 ; use absolute coordinates
M83 ; extruder relative mode
M104 S240 ; set extruder temp
M140 S95 ; set bed temp
M190 S95 ; wait for bed temp
M109 S240 ; wait for extruder temp
G28 W ; home all without mesh bed level
G80 ; mesh bed leveling

G1 Z0.2 F720
G1 Y-3 F1000 ; go outside print area
G92 E0
G1 X60 E9 F1000 ; intro line
G1 X100 E12.5 F1000 ; intro line

G92 E0
M221 S95

; Don't change E values below. Excessive value can damage the printer.

M907 E538 ; set extruder motor current
G21 ; set units to millimeters
G90 ; use absolute coordinates
M83 ; use relative distances for extrusion
M900 K0.08 ; Filament gcode LA 1.5
M900 K45 ; Filament gcode LA 1.0
M107 ; disable fan
;LAYER_CHANGE
;Z:0.3
;HEIGHT:0.3
;BEFORE_LAYER_CHANGE
G92 E0.0
;0.3


M73 P0 R29
G1 E-1.4 F2100 ; retract
G1 Z.2 F720 ; lift Z
G1 Z.3 ; move to next layer (0)
;AFTER_LAYER_CHANGE
;0.3
G1 Z.5 ; lift Z
G1 X95.536 Y73.7 F10800 ; move to first skirt point
G1 Z.3 F720 ; restore layer Z
G1 E1.4 F2100 ;  ; unretract
M204 S800 ; adjust acceleration
;TYPE:Skirt/Brim
;WIDTH:0.42
G1 F1200
G1 X96.58 Y72.831 E.06025 ; skirt
G1 X97.5 Y72.644 E.04164 ; skirt
G1 X152.5 Y72.644 E2.43951 ; skirt
G1 X153.8 Y73.036 E.06023 ; skirt
G1 X154.669 Y74.08 E.06025 ; skirt
G1 X154.856 Y75 E.04164 ; skirt
G1 X154.856 Y135 E2.66129 ; skirt
G1 X154.464 Y136.3 E.06023 ; skirt
G1 X153.42 Y137.169 E.06025 ; skirt
G1 X152.5 Y137.356 E.04164 ; skirt
G1 X97.5 Y137.356 E2.43951 ; skirt
G1 X96.2 Y136.964 E.06023 ; skirt
G1 X95.331 Y135.92 E.06025 ; skirt
M73 Q0 S29
G1 X95.144 Y135 E.04164 ; skirt
G1 X95.144 Y75 E2.66129 ; skirt
G1 X95.519 Y73.757 E.05759 ; skirt
M204 S1000 ; adjust acceleration
; printing object headPlate-Body.stl id:0 copy 0
;WIPE_START
M73 P1 R29
M73 Q1 S29
G1 F8640
G1 X96.58 Y72.831 E-.32517 ; wipe and retract
G1 X97.5 Y72.644 E-.21677 ; wipe and retract
G1 X101.216 Y72.644 E-.85806 ; wipe and retract
;WIPE_END
G1 Z.5 F720 ; lift Z
G1 X98.266 Y75.766 F10800 ; move to first perimeter point
G1 Z.3 F720 ; restore layer Z
G1 E1.4 F2100 ;  ; unretract
M204 S800 ; adjust acceleration
;TYPE:Perimeter
;WIDTH:0.42
G1 F1200
G1 X151.734 Y75.766 E2.37156 ; perimeter
G1 X151.734 Y134.234 E2.59333 ; perimeter
G1 X98.266 Y134.234 E2.37156 ; perimeter
G1 X98.266 Y75.826 E2.59067 ; perimeter
M204 S1000 ; adjust acceleration
G1 X97.91 Y75.41 F10800 ; move to first perimeter point
M204 S800 ; adjust acceleration
;TYPE:External perimeter
G1 F1200
G1 X152.09 Y75.41 E2.40314 ; perimeter
G1 X152.09 Y134.59 E2.62491 ; perimeter
G1 X97.91 Y134.59 E2.40314 ; perimeter
M73 P2 R29
M73 Q2 S29
G1 X97.91 Y75.47 E2.62225 ; perimeter
M204 S1000 ; adjust acceleration
G1 X98.295 Y75.519 F10800 ; move inwards before travel
;WIPE_START
G1 F8640
G1 X103.973 Y75.463 E-1.4 ; wipe and retract
;WIPE_END
G1 Z.5 F720 ; lift Z
G1 X151.628 Y76.594 F10800 ; move to first infill point
G1 Z.3 F720 ; restore layer Z
G1 E1.4 F2100 ;  ; unretract
M204 S800 ; adjust acceleration
;TYPE:Solid infill
;WIDTH:0.421396
G1 F1200
G1 X151.066 Y76.032 E.03539 ; infill
G1 X150.561 Y76.032 E.02249 ; infill
G1 X151.468 Y76.939 E.05712 ; infill
G1 X151.468 Y77.444 E.02249 ; infill
G1 X150.056 Y76.032 E.08892 ; infill
G1 X149.551 Y76.032 E.02249 ; infill
G1 X151.468 Y77.949 E.12072 ; infill
G1 X151.468 Y78.454 E.02249 ; infill
G1 X149.046 Y76.032 E.15252 ; infill
G1 X148.541 Y76.032 E.02249 ; infill
G1 X151.468 Y78.959 E.18432 ; infill
G1 X151.468 Y79.464 E.02249 ; infill
G1 X148.037 Y76.032 E.21609 ; infill
G1 X147.532 Y76.032 E.02249 ; infill
G1 X151.468 Y79.968 E.24786 ; infill
G1 X151.468 Y80.473 E.02249 ; infill
G1 X147.027 Y76.032 E.27966 ; infill
G1 X146.522 Y76.032 E.02249 ; infill
G1 X151.468 Y80.978 E.31147 ; infill
G1 X151.468 Y81.483 E.02249 ; infill
G1 X146.017 Y76.032 E.34327 ; infill
G1 X145.512 Y76.032 E.02249 ; infill
G1 X151.468 Y81.988 E.37507 ; infill
G1 X151.468 Y82.493 E.02249 ; infill
G1 X145.007 Y76.032 E.40687 ; infill
G1 X144.502 Y76.032 E.02249 ; infill
G1 X151.468 Y82.998 E.43867 ; infill
G1 X151.468 Y83.503 E.02249 ; infill
G1 X143.997 Y76.032 E.47047 ; infill
G1 X143.492 Y76.032 E.02249 ; infill
G1 X151.468 Y84.008 E.50228 ; infill
G1 X151.468 Y84.512 E.02244 ; infill
G1 X142.988 Y76.032 E.53401 ; infill
G1 X142.483 Y76.032 E.02249 ; infill
G1 X151.468 Y85.017 E.56582 ; infill
G1 X151.468 Y85.522 E.02249 ; infill
G1 X141.978 Y76.032 E.59762 ; infill
G1 X141.473 Y76.032 E.02249 ; infill
G1 X151.468 Y86.027 E.62942 ; infill
G1 X151.468 Y86.532 E.02249 ; infill
G1 X140.968 Y76.032 E.66122 ; infill
G1 X140.463 Y76.032 E.02249 ; infill
G1 X151.468 Y87.037 E.69302 ; infill
G1 X151.468 Y87.542 E.02249 ; infill
G1 X139.958 Y76.032 E.72482 ; infill
G1 X139.453 Y76.032 E.02249 ; infill
G1 X151.468 Y88.047 E.75662 ; infill
G1 X151.468 Y88.552 E.02249 ; infill
M73 P3 R29
M73 Q3 S29
G1 X138.948 Y76.032 E.78843 ; infill
G1 X138.443 Y76.032 E.02249 ; infill
G1 X151.468 Y89.057 E.82023 ; infill
G1 X151.468 Y89.561 E.02244 ; infill
G1 X137.939 Y76.032 E.85197 ; infill
G1 X137.434 Y76.032 E.02249 ; infill
G1 X151.468 Y90.066 E.88377 ; infill
G1 X151.468 Y90.571 E.02249 ; infill
G1 X136.929 Y76.032 E.91557 ; infill
G1 X136.424 Y76.032 E.02249 ; infill
G1 X151.468 Y91.076 E.94737 ; infill
G1 X151.468 Y91.581 E.02249 ; infill
G1 X135.919 Y76.032 E.97917 ; infill
G1 X135.414 Y76.032 E.02249 ; infill
G1 X151.468 Y92.086 E1.01097 ; infill
G1 X151.468 Y92.591 E.02249 ; infill
M73 P3 R28
G1 X134.909 Y76.032 E1.04278 ; infill
G1 X134.404 Y76.032 E.02249 ; infill
G1 X151.468 Y93.096 E1.07458 ; infill
G1 X151.468 Y93.601 E.02249 ; infill
G1 X133.899 Y76.032 E1.10638 ; infill
G1 X133.395 Y76.032 E.02244 ; infill
G1 X151.468 Y94.105 E1.13812 ; infill
G1 X151.468 Y94.61 E.02249 ; infill
G1 X132.89 Y76.032 E1.16992 ; infill
G1 X132.385 Y76.032 E.02249 ; infill
G1 X151.468 Y95.115 E1.20172 ; infill
G1 X151.468 Y95.62 E.02249 ; infill
G1 X131.88 Y76.032 E1.23352 ; infill
G1 X131.375 Y76.032 E.02249 ; infill
M73 P4 R28
M73 Q4 S29
G1 X151.468 Y96.125 E1.26532 ; infill
G1 X151.468 Y96.63 E.02249 ; infill
G1 X130.87 Y76.032 E1.29713 ; infill
G1 X130.365 Y76.032 E.02249 ; infill
G1 X151.468 Y97.135 E1.32893 ; infill
G1 X151.468 Y97.64 E.02249 ; infill
M73 Q4 S28
G1 X129.86 Y76.032 E1.36073 ; infill
G1 X129.355 Y76.032 E.02249 ; infill
G1 X151.468 Y98.145 E1.39253 ; infill
G1 X151.468 Y98.65 E.02249 ; infill
G1 X128.85 Y76.032 E1.42433 ; infill
G1 X128.346 Y76.032 E.02244 ; infill
G1 X151.468 Y99.154 E1.45607 ; infill
G1 X151.468 Y99.659 E.02249 ; infill
G1 X127.841 Y76.032 E1.48787 ; infill
G1 X127.336 Y76.032 E.02249 ; infill
G1 X151.468 Y100.164 E1.51967 ; infill
G1 X151.468 Y100.669 E.02249 ; infill
G1 X126.831 Y76.032 E1.55147 ; infill
G1 X126.326 Y76.032 E.02249 ; infill
G1 X151.468 Y101.174 E1.58328 ; infill
G1 X151.468 Y101.679 E.02249 ; infill
M73 P5 R28
G1 X125.821 Y76.032 E1.61508 ; infill
G1 X125.316 Y76.032 E.02249 ; infill
M73 Q5 S28
G1 X151.468 Y102.184 E1.64688 ; infill
G1 X151.468 Y102.689 E.02249 ; infill
G1 X124.811 Y76.032 E1.67868 ; infill
G1 X124.306 Y76.032 E.02249 ; infill
G1 X151.468 Y103.194 E1.71048 ; infill
G1 X151.468 Y103.698 E.02244 ; infill
G1 X123.802 Y76.032 E1.74222 ; infill
G1 X123.297 Y76.032 E.02249 ; infill
G1 X151.468 Y104.203 E1.77402 ; infill
G1 X151.468 Y104.708 E.02249 ; infill
G1 X122.792 Y76.032 E1.80582 ; infill
G1 X122.287 Y76.032 E.02249 ; infill
G1 X151.468 Y105.213 E1.83763 ; infill
G1 X151.468 Y105.718 E.02249 ; infill
G1 X121.782 Y76.032 E1.86943 ; infill
G1 X121.277 Y76.032 E.02249 ; infill
M73 P6 R28
G1 X151.468 Y106.223 E1.90123 ; infill
G1 X151.468 Y106.728 E.02249 ; infill
M73 Q6 S28
G1 X120.772 Y76.032 E1.93303 ; infill
G1 X120.267 Y76.032 E.02249 ; infill
G1 X151.468 Y107.233 E1.96483 ; infill
G1 X151.468 Y107.738 E.02249 ; infill
G1 X119.762 Y76.032 E1.99663 ; infill
G1 X119.257 Y76.032 E.02249 ; infill
G1 X151.468 Y108.243 E2.02843 ; infill
G1 X151.468 Y108.747 E.02244 ; infill
G1 X118.753 Y76.032 E2.06017 ; infill
G1 X118.248 Y76.032 E.02249 ; infill
G1 X151.468 Y109.252 E2.09197 ; infill
G1 X151.468 Y109.757 E.02249 ; infill
M73 P6 R27
G1 X117.743 Y76.032 E2.12378 ; infill
G1 X117.238 Y76.032 E.02249 ; infill
M73 P7 R27
G1 X151.468 Y110.262 E2.15558 ; infill
G1 X151.468 Y110.767 E.02249 ; infill
M73 Q7 S28
G1 X116.733 Y76.032 E2.18738 ; infill
G1 X116.228 Y76.032 E.02249 ; infill
G1 X151.468 Y111.272 E2.21918 ; infill
G1 X151.468 Y111.777 E.02249 ; infill
G1 X115.723 Y76.032 E2.25098 ; infill
G1 X115.218 Y76.032 E.02249 ; infill
M73 Q7 S27
G1 X151.468 Y112.282 E2.28278 ; infill
G1 X151.468 Y112.787 E.02249 ; infill
G1 X114.713 Y76.032 E2.31459 ; infill
G1 X114.209 Y76.032 E.02244 ; infill
G1 X151.468 Y113.291 E2.34632 ; infill
G1 X151.468 Y113.796 E.02249 ; infill
M73 P8 R27
G1 X113.704 Y76.032 E2.37813 ; infill
G1 X113.199 Y76.032 E.02249 ; infill
M73 Q8 S27
G1 X151.468 Y114.301 E2.40993 ; infill
G1 X151.468 Y114.806 E.02249 ; infill
G1 X112.694 Y76.032 E2.44173 ; infill
G1 X112.189 Y76.032 E.02249 ; infill
G1 X151.468 Y115.311 E2.47353 ; infill
G1 X151.468 Y115.816 E.02249 ; infill
G1 X111.684 Y76.032 E2.50533 ; infill
G1 X111.179 Y76.032 E.02249 ; infill
G1 X151.468 Y116.321 E2.53713 ; infill
G1 X151.468 Y116.826 E.02249 ; infill
G1 X110.674 Y76.032 E2.56893 ; infill
G1 X110.169 Y76.032 E.02249 ; infill
M73 P9 R27
M73 Q9 S27
G1 X151.468 Y117.331 E2.60074 ; infill
G1 X151.468 Y117.836 E.02249 ; infill
G1 X109.664 Y76.032 E2.63254 ; infill
G1 X109.16 Y76.032 E.02244 ; infill
G1 X151.468 Y118.34 E2.66428 ; infill
G1 X151.468 Y118.845 E.02249 ; infill
G1 X108.655 Y76.032 E2.69608 ; infill
G1 X108.15 Y76.032 E.02249 ; infill
G1 X151.468 Y119.35 E2.72788 ; infill
G1 X151.468 Y119.855 E.02249 ; infill
G1 X107.645 Y76.032 E2.75968 ; infill
G1 X107.14 Y76.032 E.02249 ; infill
M73 P10 R26
M73 Q10 S27
G1 X151.468 Y120.36 E2.79148 ; infill
G1 X151.468 Y120.865 E.02249 ; infill
G1 X106.635 Y76.032 E2.82328 ; infill
G1 X106.13 Y76.032 E.02249 ; infill
G1 X151.468 Y121.37 E2.85509 ; infill
G1 X151.468 Y121.875 E.02249 ; infill
G1 X105.625 Y76.032 E2.88689 ; infill
G1 X105.12 Y76.032 E.02249 ; infill
G1 X151.468 Y122.38 E2.91869 ; infill
G1 X151.468 Y122.885 E.02249 ; infill
M73 P11 R26
M73 Q10 S26
G1 X104.615 Y76.032 E2.95049 ; infill
G1 X104.111 Y76.032 E.02244 ; infill
M73 Q11 S26
G1 X151.468 Y123.389 E2.98223 ; infill
G1 X151.468 Y123.894 E.02249 ; infill
G1 X103.606 Y76.032 E3.01403 ; infill
G1 X103.101 Y76.032 E.02249 ; infill
G1 X151.468 Y124.399 E3.04583 ; infill
G1 X151.468 Y124.904 E.02249 ; infill
G1 X102.596 Y76.032 E3.07763 ; infill
G1 X102.091 Y76.032 E.02249 ; infill
G1 X151.468 Y125.409 E3.10943 ; infill
G1 X151.468 Y125.914 E.02249 ; infill
M73 P12 R26
M73 Q12 S26
G1 X101.586 Y76.032 E3.14124 ; infill
G1 X101.081 Y76.032 E.02249 ; infill
G1 X151.468 Y126.419 E3.17304 ; infill
G1 X151.468 Y126.924 E.02249 ; infill
G1 X100.576 Y76.032 E3.20484 ; infill
G1 X100.071 Y76.032 E.02249 ; infill
G1 X151.468 Y127.429 E3.23664 ; infill
G1 X151.468 Y127.933 E.02244 ; infill
G1 X99.567 Y76.032 E3.26838 ; infill
G1 X99.062 Y76.032 E.02249 ; infill
M73 P13 R26
M73 Q13 S26
G1 X151.468 Y128.438 E3.30018 ; infill
G1 X151.468 Y128.943 E.02249 ; infill
G1 X98.557 Y76.032 E3.33198 ; infill
G1 X98.532 Y76.032 E.00111 ; infill
M73 P13 R25
G1 X98.532 Y76.513 E.02142 ; infill
G1 X151.468 Y129.448 E3.33353 ; infill
G1 X151.468 Y129.953 E.02249 ; infill
G1 X98.532 Y77.018 E3.33353 ; infill
G1 X98.532 Y77.523 E.02249 ; infill
M73 P14 R25
G1 X151.468 Y130.458 E3.33353 ; infill
G1 X151.468 Y130.963 E.02249 ; infill
M73 Q14 S25
G1 X98.532 Y78.027 E3.33356 ; infill
G1 X98.532 Y78.532 E.02249 ; infill
G1 X151.468 Y131.468 E3.33356 ; infill
G1 X151.468 Y131.973 E.02249 ; infill
G1 X98.532 Y79.037 E3.33356 ; infill
G1 X98.532 Y79.542 E.02249 ; infill
G1 X151.468 Y132.478 E3.33356 ; infill
G1 X151.468 Y132.982 E.02244 ; infill
M73 P15 R25
G1 X98.532 Y80.047 E3.33353 ; infill
G1 X98.532 Y80.552 E.02249 ; infill
M73 Q15 S25
G1 X151.468 Y133.487 E3.33353 ; infill
G1 X151.468 Y133.968 E.02142 ; infill
G1 X151.443 Y133.968 E.00111 ; infill
G1 X98.532 Y81.057 E3.33198 ; infill
G1 X98.532 Y81.562 E.02249 ; infill
G1 X150.938 Y133.968 E3.30018 ; infill
G1 X150.433 Y133.968 E.02249 ; infill
G1 X98.532 Y82.067 E3.26838 ; infill
G1 X98.532 Y82.572 E.02249 ; infill
M73 P16 R25
M73 Q16 S25
G1 X149.928 Y133.968 E3.23658 ; infill
G1 X149.424 Y133.968 E.02244 ; infill
G1 X98.532 Y83.076 E3.20484 ; infill
G1 X98.532 Y83.581 E.02249 ; infill
G1 X148.919 Y133.968 E3.17304 ; infill
G1 X148.414 Y133.968 E.02249 ; infill
G1 X98.532 Y84.086 E3.14124 ; infill
G1 X98.532 Y84.591 E.02249 ; infill
M73 P16 R24
G1 X147.909 Y133.968 E3.10943 ; infill
G1 X147.404 Y133.968 E.02249 ; infill
M73 P17 R24
M73 Q17 S25
G1 X98.532 Y85.096 E3.07763 ; infill
G1 X98.532 Y85.601 E.02249 ; infill
G1 X146.899 Y133.968 E3.04583 ; infill
G1 X146.394 Y133.968 E.02249 ; infill
G1 X98.532 Y86.106 E3.01403 ; infill
G1 X98.532 Y86.611 E.02249 ; infill
M73 Q17 S24
G1 X145.889 Y133.968 E2.98223 ; infill
G1 X145.384 Y133.968 E.02249 ; infill
G1 X98.532 Y87.116 E2.95043 ; infill
G1 X98.532 Y87.621 E.02249 ; infill
M73 P18 R24
G1 X144.879 Y133.968 E2.91863 ; infill
G1 X144.375 Y133.968 E.02244 ; infill
M73 Q18 S24
G1 X98.532 Y88.125 E2.88689 ; infill
G1 X98.532 Y88.63 E.02249 ; infill
G1 X143.87 Y133.968 E2.85509 ; infill
G1 X143.365 Y133.968 E.02249 ; infill
G1 X98.532 Y89.135 E2.82328 ; infill
G1 X98.532 Y89.64 E.02249 ; infill
G1 X142.86 Y133.968 E2.79148 ; infill
G1 X142.355 Y133.968 E.02249 ; infill
G1 X98.532 Y90.145 E2.75968 ; infill
G1 X98.532 Y90.65 E.02249 ; infill
M73 P19 R24
M73 Q19 S24
G1 X141.85 Y133.968 E2.72788 ; infill
G1 X141.345 Y133.968 E.02249 ; infill
G1 X98.532 Y91.155 E2.69608 ; infill
G1 X98.532 Y91.66 E.02249 ; infill
G1 X140.84 Y133.968 E2.66428 ; infill
G1 X140.335 Y133.968 E.02249 ; infill
G1 X98.532 Y92.165 E2.63247 ; infill
G1 X98.532 Y92.669 E.02244 ; infill
G1 X139.831 Y133.968 E2.60074 ; infill
G1 X139.326 Y133.968 E.02249 ; infill
G1 X98.532 Y93.174 E2.56893 ; infill
G1 X98.532 Y93.679 E.02249 ; infill
M73 P20 R23
M73 Q20 S24
G1 X138.821 Y133.968 E2.53713 ; infill
G1 X138.316 Y133.968 E.02249 ; infill
G1 X98.532 Y94.184 E2.50533 ; infill
G1 X98.532 Y94.689 E.02249 ; infill
G1 X137.811 Y133.968 E2.47353 ; infill
G1 X137.306 Y133.968 E.02249 ; infill
G1 X98.532 Y95.194 E2.44173 ; infill
G1 X98.532 Y95.699 E.02249 ; infill
G1 X136.801 Y133.968 E2.40993 ; infill
G1 X136.296 Y133.968 E.02249 ; infill
M73 Q20 S23
G1 X98.532 Y96.204 E2.37813 ; infill
G1 X98.532 Y96.709 E.02249 ; infill
M73 P21 R23
G1 X135.791 Y133.968 E2.34632 ; infill
G1 X135.286 Y133.968 E.02249 ; infill
M73 Q21 S23
G1 X98.532 Y97.214 E2.31452 ; infill
G1 X98.532 Y97.718 E.02244 ; infill
G1 X134.782 Y133.968 E2.28278 ; infill
G1 X134.277 Y133.968 E.02249 ; infill
G1 X98.532 Y98.223 E2.25098 ; infill
G1 X98.532 Y98.728 E.02249 ; infill
G1 X133.772 Y133.968 E2.21918 ; infill
G1 X133.267 Y133.968 E.02249 ; infill
G1 X98.532 Y99.233 E2.18738 ; infill
G1 X98.532 Y99.738 E.02249 ; infill
G1 X132.762 Y133.968 E2.15558 ; infill
G1 X132.257 Y133.968 E.02249 ; infill
M73 P22 R23
G1 X98.532 Y100.243 E2.12378 ; infill
G1 X98.532 Y100.748 E.02249 ; infill
M73 Q22 S23
G1 X131.752 Y133.968 E2.09197 ; infill
