; generated by PrusaSlicer 2.6.0 on 2023-07-02 at 16:53:05 UTC


;
;
; 

; external perimeters extrusion width = 0.60mm
; perimeters extrusion width = 0.50mm
; infill extrusion width = 0.50mm
; solid infill extrusion width = 0.50mm
; top infill extrusion width = 0.45mm
; support material extrusion width = 0.38mm
; first layer extrusion width = 0.42mm

M73 P0 R27
M73 Q0 S28
M201 X1000 Y1000 Z200 E5000 ; sets maximum accelerations, mm/sec^2
M203 X200 Y200 Z12 E120 ; sets maximum feedrates, mm / sec
M204 S1250 T1250 ; sets acceleration (S) and retract acceleration (R), mm/sec^2
M205 X8.00 Y8.00 Z0.40 E4.50 ; sets the jerk limits, mm/sec
M205 S0 T0 ; sets the minimum extruding and travel feed rate, mm/sec
;TYPE:Custom
M862.3 P "MK3S" ; printer model check
M862.1 P0.4 ; nozzle diameter check
M115 U3.11.0 ; tell printer latest fw version
G90 ; use absolute coordinates
M83 ; extruder relative mode
M104 S240 ; set extruder temp
M140 S95 ; set bed temp
M190 S95 ; wait for bed temp
M109 S240 ; wait for extruder temp
G28 W ; home all without mesh bed level
G80 ; mesh bed leveling

G1 Z0.2 F720
G1 Y-3 F1000 ; go outside print area
G92 E0
G1 X60 E9 F1000 ; intro line
G1 X100 E12.5 F1000 ; intro line

G92 E0
M221 S95

; Don't change E values below. Excessive value can damage the printer.

M907 E538 ; set extruder motor current
G21 ; set units to millimeters
G90 ; use absolute coordinates
M83 ; use relative distances for extrusion
M900 K0.08 ; Filament gcode LA 1.5
M900 K45 ; Filament gcode LA 1.0
M107 ; disable fan
;LAYER_CHANGE
;Z:0.3
;HEIGHT:0.3
;BEFORE_LAYER_CHANGE
G92 E0.0
;0.3


G1 E-1.4 F2100 ; retract
M73 Q0 S27
G1 Z.2 F720 ; lift Z
G1 Z.3 ; move to next layer (0)
;AFTER_LAYER_CHANGE
;0.3
G1 Z.5 ; lift Z
G1 X105.57 Y88.104 F10800 ; move to first skirt point
G1 Z.3 F720 ; restore layer Z
G1 E1.4 F2100 ;  ; unretract
M204 S800 ; adjust acceleration
;TYPE:Skirt/Brim
;WIDTH:0.42
G1 F1200
G1 X105.991 Y87.61 E.02879 ; skirt
G1 X106.455 Y87.236 E.02643 ; skirt
G1 X107.04 Y86.925 E.02939 ; skirt
G1 X107.612 Y86.748 E.02656 ; skirt
G1 X108.224 Y86.677 E.02733 ; skirt
G1 X141.777 Y86.677 E1.48824 ; skirt
G1 X142.401 Y86.751 E.02787 ; skirt
G1 X142.96 Y86.925 E.02597 ; skirt
G1 X143.545 Y87.236 E.02939 ; skirt
G1 X143.96 Y87.564 E.02346 ; skirt
G1 X144.321 Y87.957 E.02367 ; skirt
G1 X144.684 Y88.536 E.03031 ; skirt
G1 X144.91 Y89.138 E.02852 ; skirt
G1 X145.01 Y89.703 E.02545 ; skirt
G1 X145.024 Y117 E1.21075 ; skirt
G1 X144.632 Y118.3 E.06023 ; skirt
G1 X143.08 Y119.319 E.08235 ; skirt
G1 X120.711 Y123.287 E1.00766 ; skirt
G1 X108.088 Y123.317 E.55989 ; skirt
G1 X107.48 Y123.221 E.0273 ; skirt
G1 X106.915 Y123.021 E.02658 ; skirt
G1 X105.991 Y122.39 E.04963 ; skirt
G1 X105.536 Y121.845 E.03149 ; skirt
G1 X105.229 Y121.27 E.02891 ; skirt
G1 X105.039 Y120.638 E.02927 ; skirt
G1 X104.976 Y120 E.02844 ; skirt
G1 X104.978 Y89.91 E1.33464 ; skirt
G1 X105.065 Y89.238 E.03006 ; skirt
G1 X105.28 Y88.613 E.02932 ; skirt
G1 X105.541 Y88.156 E.02334 ; skirt
M204 S1000 ; adjust acceleration
; printing object headSmallServoHolder-Body.stl id:0 copy 0
;WIPE_START
G1 F8640
G1 X105.991 Y87.61 E-.16337 ; wipe and retract
G1 X106.455 Y87.236 E-.13761 ; wipe and retract
G1 X107.04 Y86.925 E-.15298 ; wipe and retract
G1 X107.612 Y86.748 E-.13826 ; wipe and retract
G1 X108.224 Y86.677 E-.14226 ; wipe and retract
G1 X111.106 Y86.677 E-.66552 ; wipe and retract
;WIPE_END
G1 Z.5 F720 ; lift Z
G1 X108.539 Y90.239 F10800 ; move to first perimeter point
G1 Z.3 F720 ; restore layer Z
G1 E1.4 F2100 ;  ; unretract
M204 S800 ; adjust acceleration
;TYPE:Perimeter
;WIDTH:0.42
G1 F1200
G1 X141.461 Y90.241 E1.46025 ; perimeter
G1 X141.461 Y116.234 E1.15291 ; perimeter
M73 Q1 S27
G1 X120.045 Y116.235 E.9499 ; perimeter
M73 P1 R27
G1 X119.792 Y116.311 E.01172 ; perimeter
G1 X119.602 Y116.508 E.01214 ; perimeter
G1 X119.534 Y116.768 E.01192 ; perimeter
G1 X119.534 Y119.761 E.13275 ; perimeter
G1 X108.539 Y119.761 E.48768 ; perimeter
G1 X108.539 Y90.299 E1.30678 ; perimeter
M204 S1000 ; adjust acceleration
G1 X108.184 Y90.058 F10800 ; move to first perimeter point
M204 S800 ; adjust acceleration
;TYPE:External perimeter
G1 F1200
G1 X108.194 Y89.975 E.00371 ; perimeter
G1 X108.325 Y89.884 E.00707 ; perimeter
G1 X141.632 Y89.886 E1.47732 ; perimeter
G1 X141.781 Y89.937 E.00699 ; perimeter
G1 X141.816 Y90.07 E.0061 ; perimeter
G1 X141.816 Y116.59 E1.17629 ; perimeter
G1 X120.068 Y116.59 E.96463 ; perimeter
G1 X119.949 Y116.636 E.00566 ; perimeter
G1 X119.89 Y116.768 E.00641 ; perimeter
G1 X119.89 Y120.116 E.1485 ; perimeter
G1 X108.269 Y120.104 E.51545 ; perimeter
G1 X108.184 Y119.974 E.00689 ; perimeter
G1 X108.184 Y90.118 E1.32426 ; perimeter
M204 S1000 ; adjust acceleration
G1 X108.259 Y90.022 F10800 ; move inwards before travel
;WIPE_START
G1 F8640
G1 X108.194 Y89.975 E-.0331 ; wipe and retract
G1 X108.325 Y89.884 E-.03683 ; wipe and retract
G1 X114.085 Y89.884 E-1.33007 ; wipe and retract
;WIPE_END
G1 Z.5 F720 ; lift Z
G1 X127.22 Y99.882 F10800 ; move to first perimeter point
G1 Z.3 F720 ; restore layer Z
G1 E1.4 F2100 ;  ; unretract
M204 S800 ; adjust acceleration
;TYPE:Perimeter
G1 F1200
G1 X127.071 Y99.396 E.02255 ; perimeter
G1 X127.037 Y98.947 E.01997 ; perimeter
G1 X127.071 Y98.604 E.01529 ; perimeter
G1 X127.213 Y98.118 E.02246 ; perimeter
G1 X127.46 Y97.681 E.02226 ; perimeter
G1 X127.758 Y97.343 E.01999 ; perimeter
G1 X128.117 Y97.07 E.02 ; perimeter
G1 X128.523 Y96.874 E.02 ; perimeter
G1 X128.946 Y96.763 E.0194 ; perimeter
G1 X129.297 Y96.736 E.01561 ; perimeter
G1 X129.745 Y96.78 E.01997 ; perimeter
G1 X130.176 Y96.913 E.02001 ; perimeter
G1 X130.573 Y97.128 E.02003 ; perimeter
G1 X130.918 Y97.417 E.01996 ; perimeter
G1 X131.2 Y97.769 E.02001 ; perimeter
G1 X131.406 Y98.17 E.02 ; perimeter
G1 X131.529 Y98.604 E.02001 ; perimeter
G1 X131.563 Y99.053 E.01997 ; perimeter
G1 X131.508 Y99.501 E.02002 ; perimeter
G1 X131.365 Y99.928 E.01997 ; perimeter
G1 X131.14 Y100.319 E.02001 ; perimeter
G1 X130.735 Y100.747 E.02614 ; perimeter
G1 X130.283 Y101.039 E.02387 ; perimeter
G1 X129.786 Y101.213 E.02336 ; perimeter
G1 X129.303 Y101.264 E.02154 ; perimeter
G1 X128.855 Y101.22 E.01997 ; perimeter
G1 X128.423 Y101.087 E.02005 ; perimeter
G1 X128.027 Y100.872 E.01999 ; perimeter
G1 X127.682 Y100.583 E.01996 ; perimeter
G1 X127.4 Y100.231 E.02001 ; perimeter
G1 X127.248 Y99.935 E.01476 ; perimeter
M204 S1000 ; adjust acceleration
G1 X127.534 Y99.725 F10800 ; move to first perimeter point
M204 S800 ; adjust acceleration
;TYPE:External perimeter
G1 F1200
G1 X127.425 Y99.361 E.01685 ; perimeter
G1 X127.407 Y98.821 E.02396 ; perimeter
G1 X127.425 Y98.639 E.00811 ; perimeter
G1 X127.547 Y98.242 E.01842 ; perimeter
G1 X127.732 Y97.91 E.01686 ; perimeter
G1 X127.98 Y97.621 E.01689 ; perimeter
G1 X128.279 Y97.387 E.01684 ; perimeter
G1 X128.619 Y97.216 E.01688 ; perimeter
G1 X128.981 Y97.117 E.01665 ; perimeter
G1 X129.271 Y97.091 E.01291 ; perimeter
G1 X129.649 Y97.123 E.01683 ; perimeter
G1 X130.014 Y97.229 E.01686 ; perimeter
G1 X130.351 Y97.406 E.01688 ; perimeter
G1 X130.646 Y97.646 E.01687 ; perimeter
G1 X130.888 Y97.939 E.01686 ; perimeter
G1 X131.066 Y98.275 E.01687 ; perimeter
G1 X131.175 Y98.639 E.01685 ; perimeter
G1 X131.209 Y99.018 E.01688 ; perimeter
G1 X131.168 Y99.396 E.01686 ; perimeter
G1 X131.053 Y99.758 E.01685 ; perimeter
G1 X130.868 Y100.09 E.01686 ; perimeter
G1 X130.506 Y100.475 E.02344 ; perimeter
G1 X130.08 Y100.743 E.02232 ; perimeter
G1 X129.708 Y100.865 E.01736 ; perimeter
G1 X129.33 Y100.909 E.01688 ; perimeter
G1 X128.951 Y100.877 E.01687 ; perimeter
G1 X128.586 Y100.771 E.01686 ; perimeter
G1 X128.249 Y100.594 E.01688 ; perimeter
G1 X127.954 Y100.354 E.01687 ; perimeter
G1 X127.712 Y100.061 E.01686 ; perimeter
G1 X127.562 Y99.778 E.01421 ; perimeter
M204 S1000 ; adjust acceleration
G1 X127.157 Y99.675 F10800 ; move inwards before travel
;WIPE_START
G1 F8640
G1 X127.425 Y99.361 E-.10135 ; wipe and retract
G1 X127.407 Y98.821 E-.12476 ; wipe and retract
G1 X127.425 Y98.639 E-.04223 ; wipe and retract
G1 X127.547 Y98.242 E-.0959 ; wipe and retract
G1 X127.732 Y97.91 E-.08776 ; wipe and retract
G1 X127.98 Y97.621 E-.08793 ; wipe and retract
G1 X128.279 Y97.387 E-.08767 ; wipe and retract
G1 X128.619 Y97.216 E-.08788 ; wipe and retract
G1 X128.981 Y97.117 E-.08666 ; wipe and retract
G1 X129.271 Y97.091 E-.06723 ; wipe and retract
G1 X129.649 Y97.123 E-.08759 ; wipe and retract
G1 X130.014 Y97.229 E-.08776 ; wipe and retract
G1 X130.351 Y97.406 E-.08789 ; wipe and retract
G1 X130.646 Y97.646 E-.08781 ; wipe and retract
G1 X130.888 Y97.939 E-.08775 ; wipe and retract
G1 X131.066 Y98.275 E-.0878 ; wipe and retract
G1 X131.071 Y98.292 E-.00403 ; wipe and retract
;WIPE_END
G1 Z.5 F720 ; lift Z
G1 X118.624 Y100.83 F10800 ; move to first perimeter point
G1 Z.3 F720 ; restore layer Z
G1 E1.4 F2100 ;  ; unretract
M204 S800 ; adjust acceleration
;TYPE:Perimeter
G1 F1200
G1 X118.182 Y101.085 E.02263 ; perimeter
G1 X117.752 Y101.218 E.01996 ; perimeter
G1 X117.303 Y101.264 E.02002 ; perimeter
G1 X116.855 Y101.22 E.01997 ; perimeter
G1 X116.424 Y101.087 E.02001 ; perimeter
G1 X116.028 Y100.872 E.01999 ; perimeter
G1 X115.682 Y100.583 E.02 ; perimeter
G1 X115.4 Y100.231 E.02001 ; perimeter
G1 X115.194 Y99.83 E.02 ; perimeter
G1 X115.071 Y99.396 E.02001 ; perimeter
G1 X115.037 Y98.947 E.01997 ; perimeter
G1 X115.092 Y98.5 E.01998 ; perimeter
G1 X115.235 Y98.072 E.02002 ; perimeter
G1 X115.453 Y97.69 E.01951 ; perimeter
G1 X115.687 Y97.412 E.01612 ; perimeter
G1 X116.022 Y97.131 E.01939 ; perimeter
G1 X116.418 Y96.915 E.02001 ; perimeter
G1 X116.848 Y96.782 E.01996 ; perimeter
G1 X117.297 Y96.736 E.02002 ; perimeter
G1 X117.745 Y96.78 E.01997 ; perimeter
G1 X118.176 Y96.913 E.02001 ; perimeter
G1 X118.573 Y97.128 E.02003 ; perimeter
G1 X118.918 Y97.417 E.01996 ; perimeter
G1 X119.2 Y97.769 E.02001 ; perimeter
G1 X119.406 Y98.17 E.02 ; perimeter
G1 X119.538 Y98.681 E.02341 ; perimeter
G1 X119.549 Y99.23 E.02436 ; perimeter
G1 X119.445 Y99.724 E.02239 ; perimeter
G1 X119.263 Y100.127 E.01961 ; perimeter
G1 X118.959 Y100.544 E.02289 ; perimeter
G1 X118.669 Y100.791 E.0169 ; perimeter
M204 S1000 ; adjust acceleration
;WIPE_START
G1 F8640
G1 X118.182 Y101.085 E-.13135 ; wipe and retract
G1 X117.752 Y101.218 E-.10393 ; wipe and retract
G1 X117.303 Y101.264 E-.10422 ; wipe and retract
G1 X116.855 Y101.22 E-.10394 ; wipe and retract
G1 X116.424 Y101.087 E-.10415 ; wipe and retract
G1 X116.028 Y100.872 E-.10404 ; wipe and retract
G1 X115.682 Y100.583 E-.1041 ; wipe and retract
G1 X115.4 Y100.231 E-.10414 ; wipe and retract
G1 X115.194 Y99.83 E-.1041 ; wipe and retract
G1 X115.071 Y99.396 E-.10416 ; wipe and retract
G1 X115.037 Y98.947 E-.10397 ; wipe and retract
G1 X115.092 Y98.5 E-.10399 ; wipe and retract
G1 X115.235 Y98.072 E-.1042 ; wipe and retract
G1 X115.277 Y97.998 E-.01971 ; wipe and retract
;WIPE_END
G1 Z.5 F720 ; lift Z
G1 X117.33 Y100.909 F10800 ; move to first perimeter point
G1 Z.3 F720 ; restore layer Z
G1 E1.4 F2100 ;  ; unretract
M204 S800 ; adjust acceleration
;TYPE:External perimeter
G1 F1200
G1 X116.951 Y100.877 E.01687 ; perimeter
G1 X116.586 Y100.771 E.01686 ; perimeter
G1 X116.249 Y100.594 E.01688 ; perimeter
G1 X115.954 Y100.354 E.01687 ; perimeter
G1 X115.712 Y100.061 E.01686 ; perimeter
G1 X115.534 Y99.725 E.01687 ; perimeter
G1 X115.425 Y99.361 E.01685 ; perimeter
G1 X115.391 Y98.982 E.01688 ; perimeter
G1 X115.432 Y98.604 E.01686 ; perimeter
G1 X115.547 Y98.242 E.01685 ; perimeter
G1 X115.73 Y97.913 E.0167 ; perimeter
G1 X115.922 Y97.679 E.01343 ; perimeter
G1 X116.2 Y97.439 E.01629 ; perimeter
G1 X116.531 Y97.252 E.01686 ; perimeter
G1 X116.892 Y97.135 E.01683 ; perimeter
G1 X117.27 Y97.091 E.01688 ; perimeter
G1 X117.649 Y97.123 E.01687 ; perimeter
G1 X118.014 Y97.229 E.01686 ; perimeter
G1 X118.351 Y97.406 E.01688 ; perimeter
G1 X118.646 Y97.646 E.01687 ; perimeter
G1 X118.888 Y97.939 E.01686 ; perimeter
G1 X119.066 Y98.275 E.01687 ; perimeter
G1 X119.185 Y98.723 E.02056 ; perimeter
G1 X119.191 Y99.268 E.02417 ; perimeter
G1 X119.088 Y99.67 E.01841 ; perimeter
G1 X118.942 Y99.973 E.01492 ; perimeter
G1 X118.688 Y100.312 E.01879 ; perimeter
G1 X118.4 Y100.561 E.01689 ; perimeter
G1 X118.069 Y100.748 E.01686 ; perimeter
G1 X117.708 Y100.865 E.01683 ; perimeter
G1 X117.39 Y100.902 E.0142 ; perimeter
M204 S1000 ; adjust acceleration
G1 X117.145 Y101.241 F10800 ; move inwards before travel
;WIPE_START
G1 F8640
G1 X116.951 Y100.877 E-.10153 ; wipe and retract
G1 X116.586 Y100.771 E-.08776 ; wipe and retract
G1 X116.249 Y100.594 E-.08789 ; wipe and retract
G1 X115.954 Y100.354 E-.08781 ; wipe and retract
G1 X115.712 Y100.061 E-.08775 ; wipe and retract
G1 X115.534 Y99.725 E-.0878 ; wipe and retract
G1 X115.425 Y99.361 E-.08774 ; wipe and retract
G1 X115.391 Y98.982 E-.08786 ; wipe and retract
G1 X115.432 Y98.604 E-.08779 ; wipe and retract
G1 X115.547 Y98.242 E-.0877 ; wipe and retract
G1 X115.73 Y97.913 E-.08693 ; wipe and retract
G1 X115.922 Y97.679 E-.06989 ; wipe and retract
G1 X116.2 Y97.439 E-.0848 ; wipe and retract
G1 X116.531 Y97.252 E-.08778 ; wipe and retract
G1 X116.892 Y97.135 E-.08762 ; wipe and retract
G1 X117.27 Y97.091 E-.08787 ; wipe and retract
G1 X117.285 Y97.092 E-.00348 ; wipe and retract
;WIPE_END
G1 Z.5 F720 ; lift Z
G1 X117.688 Y108.775 F10800 ; move to first perimeter point
G1 Z.3 F720 ; restore layer Z
G1 E1.4 F2100 ;  ; unretract
M204 S800 ; adjust acceleration
;TYPE:Perimeter
G1 F1200
G1 X118.176 Y108.913 E.02249 ; perimeter
G1 X118.573 Y109.128 E.02003 ; perimeter
G1 X118.918 Y109.417 E.01996 ; perimeter
G1 X119.2 Y109.769 E.02001 ; perimeter
G1 X119.406 Y110.17 E.02 ; perimeter
G1 X119.538 Y110.681 E.02341 ; perimeter
G1 X119.549 Y111.23 E.02436 ; perimeter
G1 X119.445 Y111.724 E.02239 ; perimeter
G1 X119.203 Y112.225 E.02468 ; perimeter
G1 X118.923 Y112.578 E.01998 ; perimeter
G1 X118.578 Y112.869 E.02002 ; perimeter
G1 X118.182 Y113.085 E.02001 ; perimeter
G1 X117.752 Y113.218 E.01996 ; perimeter
G1 X117.303 Y113.264 E.02002 ; perimeter
G1 X116.855 Y113.22 E.01997 ; perimeter
G1 X116.424 Y113.087 E.02001 ; perimeter
G1 X116.027 Y112.872 E.02003 ; perimeter
G1 X115.682 Y112.583 E.01996 ; perimeter
G1 X115.4 Y112.231 E.02001 ; perimeter
G1 X115.194 Y111.83 E.02 ; perimeter
G1 X115.071 Y111.396 E.02001 ; perimeter
G1 X115.037 Y111.053 E.01529 ; perimeter
G1 X115.092 Y110.5 E.02465 ; perimeter
G1 X115.235 Y110.072 E.02002 ; perimeter
G1 X115.453 Y109.69 E.01951 ; perimeter
G1 X115.687 Y109.412 E.01612 ; perimeter
G1 X116.022 Y109.131 E.01939 ; perimeter
G1 X116.418 Y108.915 E.02001 ; perimeter
G1 X116.848 Y108.782 E.01996 ; perimeter
G1 X117.297 Y108.736 E.02002 ; perimeter
G1 X117.628 Y108.769 E.01475 ; perimeter
M204 S1000 ; adjust acceleration
;WIPE_START
G1 F8640
G1 X118.176 Y108.913 E-.13083 ; wipe and retract
G1 X118.573 Y109.128 E-.10425 ; wipe and retract
G1 X118.918 Y109.417 E-.10392 ; wipe and retract
G1 X119.2 Y109.769 E-.10414 ; wipe and retract
G1 X119.406 Y110.17 E-.1041 ; wipe and retract
G1 X119.538 Y110.681 E-.12186 ; wipe and retract
G1 X119.549 Y111.23 E-.12679 ; wipe and retract
G1 X119.445 Y111.724 E-.11657 ; wipe and retract
G1 X119.203 Y112.225 E-.12847 ; wipe and retract
G1 X118.923 Y112.578 E-.10404 ; wipe and retract
G1 X118.578 Y112.869 E-.10422 ; wipe and retract
M73 Q2 S27
G1 X118.182 Y113.085 E-.10416 ; wipe and retract
G1 X117.989 Y113.145 E-.04665 ; wipe and retract
;WIPE_END
G1 Z.5 F720 ; lift Z
G1 X118.888 Y109.939 F10800 ; move to first perimeter point
G1 Z.3 F720 ; restore layer Z
G1 E1.4 F2100 ;  ; unretract
M204 S800 ; adjust acceleration
;TYPE:External perimeter
G1 F1200
G1 X119.066 Y110.275 E.01687 ; perimeter
G1 X119.185 Y110.723 E.02056 ; perimeter
M73 P2 R27
G1 X119.191 Y111.268 E.02417 ; perimeter
G1 X119.088 Y111.67 E.01841 ; perimeter
G1 X118.92 Y112.011 E.01686 ; perimeter
G1 X118.688 Y112.312 E.01686 ; perimeter
G1 X118.4 Y112.561 E.01689 ; perimeter
G1 X118.069 Y112.748 E.01686 ; perimeter
G1 X117.708 Y112.865 E.01683 ; perimeter
