; generated by PrusaSlicer 2.6.0 on 2023-07-06 at 09:43:59 UTC


;
;
; 

; external perimeters extrusion width = 0.60mm
; perimeters extrusion width = 0.50mm
; infill extrusion width = 0.50mm
; solid infill extrusion width = 0.50mm
; top infill extrusion width = 0.45mm
; support material extrusion width = 0.38mm
; first layer extrusion width = 0.42mm

M73 P0 R10
M73 Q0 S10
M201 X1000 Y1000 Z200 E5000 ; sets maximum accelerations, mm/sec^2
M203 X200 Y200 Z12 E120 ; sets maximum feedrates, mm / sec
M204 S1250 T1250 ; sets acceleration (S) and retract acceleration (R), mm/sec^2
M205 X8.00 Y8.00 Z0.40 E4.50 ; sets the jerk limits, mm/sec
M205 S0 T0 ; sets the minimum extruding and travel feed rate, mm/sec
;TYPE:Custom
M862.3 P "MK3S" ; printer model check
M862.1 P0.4 ; nozzle diameter check
M115 U3.11.0 ; tell printer latest fw version
G90 ; use absolute coordinates
M83 ; extruder relative mode
M104 S240 ; set extruder temp
M140 S95 ; set bed temp
M190 S95 ; wait for bed temp
M109 S240 ; wait for extruder temp
G28 W ; home all without mesh bed level
G80 ; mesh bed leveling

G1 Z0.2 F720
G1 Y-3 F1000 ; go outside print area
G92 E0
G1 X60 E9 F1000 ; intro line
G1 X100 E12.5 F1000 ; intro line

G92 E0
M221 S95

; Don't change E values below. Excessive value can damage the printer.

M907 E538 ; set extruder motor current
G21 ; set units to millimeters
G90 ; use absolute coordinates
M83 ; use relative distances for extrusion
M900 K0.08 ; Filament gcode LA 1.5
M900 K45 ; Filament gcode LA 1.0
M107 ; disable fan
;LAYER_CHANGE
;Z:0.3
;HEIGHT:0.3
;BEFORE_LAYER_CHANGE
G92 E0.0
;0.3


M73 P0 R9
G1 E-1.4 F2100 ; retract
M73 P1 R9
M73 Q1 S9
G1 Z.2 F720 ; lift Z
G1 Z.3 ; move to next layer (0)
;AFTER_LAYER_CHANGE
;0.3
G1 Z.5 ; lift Z
G1 X112.57 Y90.753 F10800 ; move to first skirt point
G1 Z.3 F720 ; restore layer Z
G1 E1.4 F2100 ;  ; unretract
M204 S800 ; adjust acceleration
;TYPE:Skirt/Brim
;WIDTH:0.42
G1 F1200
G1 X113.382 Y90.033 E.04814 ; skirt
G1 X113.849 Y89.711 E.02516 ; skirt
G1 X115.341 Y89.005 E.07321 ; skirt
G1 X116.958 Y88.677 E.07318 ; skirt
G1 X118.174 Y88.681 E.05394 ; skirt
G1 X129.842 Y89.333 E.51834 ; skirt
G1 X131.328 Y89.658 E.06747 ; skirt
G1 X132.819 Y90.363 E.07315 ; skirt
G1 X134.098 Y91.405 E.07317 ; skirt
G1 X134.475 Y91.83 E.0252 ; skirt
G1 X135.355 Y93.226 E.0732 ; skirt
G1 X135.876 Y94.792 E.0732 ; skirt
G1 X136.024 Y96.152 E.06068 ; skirt
G1 X136.024 Y115.152 E.84274 ; skirt
G1 X135.876 Y116.513 E.06072 ; skirt
G1 X135.355 Y118.079 E.0732 ; skirt
G1 X134.475 Y119.475 E.0732 ; skirt
G1 X133.286 Y120.619 E.07318 ; skirt
G1 X131.859 Y121.446 E.07316 ; skirt
G1 X130.274 Y121.907 E.07322 ; skirt
G1 X128.626 Y121.975 E.07316 ; skirt
G1 X116.394 Y121.254 E.54349 ; skirt
G1 X114.81 Y120.793 E.07317 ; skirt
G1 X113.382 Y119.967 E.07317 ; skirt
G1 X112.193 Y118.822 E.07322 ; skirt
G1 X111.313 Y117.427 E.07316 ; skirt
G1 X110.792 Y115.861 E.0732 ; skirt
G1 X110.644 Y114.5 E.06072 ; skirt
G1 X110.644 Y95.5 E.84274 ; skirt
G1 X110.792 Y94.139 E.06072 ; skirt
M73 P2 R9
M73 Q2 S9
G1 X111.265 Y92.7 E.06719 ; skirt
G1 X111.577 Y92.071 E.03114 ; skirt
G1 X112.534 Y90.801 E.07053 ; skirt
M204 S1000 ; adjust acceleration
; printing object neckHornSmall-Body.stl id:0 copy 0
;WIPE_START
G1 F8640
G1 X113.382 Y90.033 E-.26417 ; wipe and retract
G1 X113.849 Y89.711 E-.13098 ; wipe and retract
G1 X115.341 Y89.005 E-.38113 ; wipe and retract
G1 X116.958 Y88.677 E-.38097 ; wipe and retract
G1 X118.009 Y88.68 E-.24275 ; wipe and retract
;WIPE_END
G1 Z.5 F720 ; lift Z
G1 X114.709 Y93.027 F10800 ; move to first perimeter point
G1 Z.3 F720 ; restore layer Z
G1 E1.4 F2100 ;  ; unretract
M204 S800 ; adjust acceleration
;TYPE:Perimeter
;WIDTH:0.42
G1 F1200
G1 X115.382 Y92.431 E.03987 ; perimeter
G1 X116.178 Y92.014 E.03986 ; perimeter
G1 X117.05 Y91.798 E.03985 ; perimeter
G1 X117.952 Y91.799 E.04001 ; perimeter
G1 X118.822 Y92.014 E.03975 ; perimeter
G1 X119.618 Y92.431 E.03986 ; perimeter
G1 X120.291 Y93.027 E.03987 ; perimeter
G1 X120.802 Y93.767 E.03989 ; perimeter
G1 X121.078 Y94.497 E.03462 ; perimeter
G1 X121.157 Y94.906 E.01848 ; perimeter
G1 X121.234 Y95.606 E.03124 ; perimeter
G1 X121.234 Y114.454 E.836 ; perimeter
G1 X121.12 Y115.392 E.04191 ; perimeter
G1 X120.802 Y116.233 E.03988 ; perimeter
G1 X120.291 Y116.973 E.03989 ; perimeter
G1 X119.618 Y117.569 E.03987 ; perimeter
G1 X118.822 Y117.986 E.03986 ; perimeter
G1 X117.949 Y118.202 E.03989 ; perimeter
G1 X117.051 Y118.202 E.03983 ; perimeter
G1 X116.178 Y117.986 E.03989 ; perimeter
G1 X115.382 Y117.569 E.03986 ; perimeter
G1 X114.711 Y116.974 E.03978 ; perimeter
G1 X114.198 Y116.233 E.03997 ; perimeter
G1 X113.88 Y115.392 E.03988 ; perimeter
G1 X113.766 Y114.454 E.04191 ; perimeter
G1 X113.766 Y95.546 E.83866 ; perimeter
G1 X113.88 Y94.608 E.04191 ; perimeter
G1 X114.198 Y93.767 E.03988 ; perimeter
G1 X114.675 Y93.077 E.03721 ; perimeter
M204 S1000 ; adjust acceleration
G1 X114.441 Y92.79 F10800 ; move to first perimeter point
M204 S800 ; adjust acceleration
;TYPE:External perimeter
G1 F1200
G1 X115.178 Y92.136 E.0437 ; perimeter
G1 X116.051 Y91.679 E.04371 ; perimeter
G1 X117.007 Y91.443 E.04368 ; perimeter
G1 X117.995 Y91.443 E.04382 ; perimeter
G1 X118.949 Y91.679 E.04359 ; perimeter
G1 X119.822 Y92.136 E.04371 ; perimeter
G1 X120.559 Y92.79 E.0437 ; perimeter
G1 X121.119 Y93.601 E.04371 ; perimeter
G1 X121.468 Y94.522 E.04369 ; perimeter
G1 X121.59 Y95.606 E.04838 ; perimeter
G1 X121.59 Y114.475 E.83693 ; perimeter
G1 X121.468 Y115.478 E.04482 ; perimeter
G1 X121.119 Y116.399 E.04369 ; perimeter
G1 X120.559 Y117.21 E.04371 ; perimeter
G1 X119.822 Y117.864 E.0437 ; perimeter
G1 X118.949 Y118.321 E.04371 ; perimeter
G1 X117.993 Y118.557 E.04368 ; perimeter
G1 X117.007 Y118.557 E.04373 ; perimeter
G1 X116.051 Y118.321 E.04368 ; perimeter
G1 X115.178 Y117.864 E.04371 ; perimeter
M73 Q3 S9
G1 X114.443 Y117.212 E.04358 ; perimeter
G1 X113.881 Y116.399 E.04384 ; perimeter
G1 X113.532 Y115.478 E.04369 ; perimeter
G1 X113.41 Y114.475 E.04482 ; perimeter
M73 P3 R9
G1 X113.41 Y95.525 E.84052 ; perimeter
G1 X113.532 Y94.522 E.04482 ; perimeter
G1 X113.881 Y93.601 E.04369 ; perimeter
G1 X114.407 Y92.839 E.04107 ; perimeter
M204 S1000 ; adjust acceleration
G1 X114.833 Y92.87 F10800 ; move inwards before travel
;WIPE_START
G1 F8640
G1 X115.178 Y92.136 E-.24092 ; wipe and retract
G1 X116.051 Y91.679 E-.22753 ; wipe and retract
G1 X117.007 Y91.443 E-.22737 ; wipe and retract
G1 X117.995 Y91.443 E-.22813 ; wipe and retract
G1 X118.949 Y91.679 E-.22692 ; wipe and retract
G1 X119.822 Y92.136 E-.22753 ; wipe and retract
G1 X119.892 Y92.198 E-.0216 ; wipe and retract
;WIPE_END
G1 Z.5 F720 ; lift Z
G1 X115.793 Y95.081 F10800 ; move to first perimeter point
G1 Z.3 F720 ; restore layer Z
G1 E1.4 F2100 ;  ; unretract
M204 S800 ; adjust acceleration
;TYPE:Perimeter
G1 F1200
G1 X115.803 Y95.016 E.00292 ; perimeter
G1 X115.968 Y94.624 E.01886 ; perimeter
G1 X116.223 Y94.282 E.01892 ; perimeter
G1 X116.551 Y94.012 E.01884 ; perimeter
G1 X116.935 Y93.828 E.01889 ; perimeter
G1 X117.351 Y93.742 E.01884 ; perimeter
G1 X117.776 Y93.757 E.01886 ; perimeter
G1 X118.185 Y93.874 E.01887 ; perimeter
G1 X118.555 Y94.085 E.01889 ; perimeter
G1 X118.863 Y94.379 E.01889 ; perimeter
G1 X119.091 Y94.737 E.01883 ; perimeter
G1 X119.228 Y95.14 E.01888 ; perimeter
G1 X119.263 Y95.564 E.01887 ; perimeter
G1 X119.197 Y95.985 E.0189 ; perimeter
G1 X119.032 Y96.377 E.01886 ; perimeter
G1 X118.777 Y96.718 E.01889 ; perimeter
G1 X118.449 Y96.988 E.01884 ; perimeter
G1 X118.065 Y97.172 E.01889 ; perimeter
G1 X117.649 Y97.258 E.01884 ; perimeter
G1 X117.224 Y97.243 E.01886 ; perimeter
G1 X116.815 Y97.126 E.01887 ; perimeter
G1 X116.445 Y96.915 E.01889 ; perimeter
G1 X116.137 Y96.621 E.01889 ; perimeter
G1 X115.909 Y96.263 E.01883 ; perimeter
G1 X115.772 Y95.86 E.01888 ; perimeter
G1 X115.737 Y95.436 E.01887 ; perimeter
G1 X115.783 Y95.14 E.01329 ; perimeter
M204 S1000 ; adjust acceleration
G1 X116.136 Y95.142 F10800 ; move to first perimeter point
M204 S800 ; adjust acceleration
;TYPE:External perimeter
G1 F1200
G1 X116.261 Y94.826 E.01507 ; perimeter
G1 X116.459 Y94.549 E.0151 ; perimeter
G1 X116.716 Y94.327 E.01506 ; perimeter
G1 X117.02 Y94.174 E.0151 ; perimeter
G1 X117.351 Y94.097 E.01507 ; perimeter
G1 X117.691 Y94.102 E.01508 ; perimeter
G1 X118.02 Y94.189 E.01509 ; perimeter
G1 X118.319 Y94.351 E.01508 ; perimeter
G1 X118.57 Y94.581 E.0151 ; perimeter
G1 X118.759 Y94.864 E.01509 ; perimeter
G1 X118.875 Y95.183 E.01506 ; perimeter
G1 X118.91 Y95.521 E.01507 ; perimeter
G1 X118.864 Y95.858 E.01509 ; perimeter
G1 X118.739 Y96.175 E.01511 ; perimeter
G1 X118.541 Y96.451 E.01507 ; perimeter
G1 X118.283 Y96.673 E.0151 ; perimeter
G1 X117.98 Y96.826 E.01506 ; perimeter
G1 X117.649 Y96.903 E.01507 ; perimeter
G1 X117.309 Y96.898 E.01508 ; perimeter
G1 X116.98 Y96.811 E.01509 ; perimeter
G1 X116.681 Y96.649 E.01508 ; perimeter
G1 X116.43 Y96.419 E.0151 ; perimeter
G1 X116.241 Y96.136 E.01509 ; perimeter
G1 X116.125 Y95.817 E.01506 ; perimeter
G1 X116.09 Y95.479 E.01507 ; perimeter
G1 X116.128 Y95.201 E.01245 ; perimeter
M204 S1000 ; adjust acceleration
G1 X115.894 Y94.902 F10800 ; move inwards before travel
;WIPE_START
G1 F8640
G1 X116.261 Y94.826 E-.09187 ; wipe and retract
G1 X116.459 Y94.549 E-.07862 ; wipe and retract
G1 X116.716 Y94.327 E-.07842 ; wipe and retract
G1 X117.02 Y94.174 E-.07858 ; wipe and retract
G1 X117.351 Y94.097 E-.07847 ; wipe and retract
G1 X117.691 Y94.102 E-.07852 ; wipe and retract
G1 X118.02 Y94.189 E-.07858 ; wipe and retract
G1 X118.319 Y94.351 E-.07852 ; wipe and retract
G1 X118.57 Y94.581 E-.07861 ; wipe and retract
G1 X118.759 Y94.864 E-.07858 ; wipe and retract
G1 X118.875 Y95.183 E-.07838 ; wipe and retract
G1 X118.91 Y95.521 E-.07846 ; wipe and retract
G1 X118.864 Y95.858 E-.07854 ; wipe and retract
G1 X118.739 Y96.175 E-.07868 ; wipe and retract
G1 X118.541 Y96.451 E-.07843 ; wipe and retract
G1 X118.283 Y96.673 E-.07859 ; wipe and retract
G1 X117.98 Y96.826 E-.07838 ; wipe and retract
G1 X117.762 Y96.877 E-.05177 ; wipe and retract
;WIPE_END
G1 Z.5 F720 ; lift Z
G1 X117.286 Y112.755 F10800 ; move to first perimeter point
G1 Z.3 F720 ; restore layer Z
G1 E1.4 F2100 ;  ; unretract
M204 S800 ; adjust acceleration
;TYPE:Perimeter
G1 F1200
G1 X117.351 Y112.742 E.00294 ; perimeter
G1 X117.776 Y112.757 E.01886 ; perimeter
G1 X118.185 Y112.874 E.01887 ; perimeter
G1 X118.555 Y113.085 E.01889 ; perimeter
G1 X118.863 Y113.379 E.01889 ; perimeter
G1 X119.091 Y113.737 E.01883 ; perimeter
G1 X119.228 Y114.14 E.01888 ; perimeter
G1 X119.263 Y114.564 E.01887 ; perimeter
G1 X119.197 Y114.984 E.01886 ; perimeter
G1 X119.032 Y115.377 E.01891 ; perimeter
G1 X118.777 Y115.718 E.01889 ; perimeter
G1 X118.449 Y115.988 E.01884 ; perimeter
G1 X118.065 Y116.172 E.01889 ; perimeter
G1 X117.649 Y116.258 E.01884 ; perimeter
G1 X117.224 Y116.243 E.01886 ; perimeter
G1 X116.815 Y116.126 E.01887 ; perimeter
G1 X116.445 Y115.915 E.01889 ; perimeter
G1 X116.137 Y115.621 E.01889 ; perimeter
G1 X115.968 Y115.376 E.0132 ; perimeter
G1 X115.784 Y114.923 E.02169 ; perimeter
G1 X115.737 Y114.436 E.0217 ; perimeter
G1 X115.803 Y114.016 E.01886 ; perimeter
G1 X115.968 Y113.624 E.01886 ; perimeter
G1 X116.223 Y113.283 E.01889 ; perimeter
G1 X116.551 Y113.012 E.01887 ; perimeter
G1 X116.935 Y112.828 E.01889 ; perimeter
G1 X117.228 Y112.767 E.01327 ; perimeter
M204 S1000 ; adjust acceleration
G1 X117.351 Y113.097 F10800 ; move to first perimeter point
M204 S800 ; adjust acceleration
;TYPE:External perimeter
G1 F1200
G1 X117.691 Y113.102 E.01508 ; perimeter
G1 X118.02 Y113.189 E.01509 ; perimeter
G1 X118.319 Y113.351 E.01508 ; perimeter
G1 X118.57 Y113.581 E.0151 ; perimeter
G1 X118.759 Y113.864 E.01509 ; perimeter
G1 X118.875 Y114.183 E.01506 ; perimeter
G1 X118.91 Y114.521 E.01507 ; perimeter
G1 X118.864 Y114.858 E.01509 ; perimeter
G1 X118.739 Y115.174 E.01507 ; perimeter
G1 X118.541 Y115.451 E.0151 ; perimeter
G1 X118.283 Y115.673 E.0151 ; perimeter
G1 X117.98 Y115.826 E.01506 ; perimeter
G1 X117.649 Y115.903 E.01507 ; perimeter
G1 X117.309 Y115.898 E.01508 ; perimeter
G1 X116.98 Y115.811 E.01509 ; perimeter
G1 X116.681 Y115.649 E.01508 ; perimeter
G1 X116.43 Y115.419 E.0151 ; perimeter
G1 X116.261 Y115.174 E.0132 ; perimeter
G1 X116.125 Y114.817 E.01694 ; perimeter
G1 X116.09 Y114.479 E.01507 ; perimeter
G1 X116.136 Y114.142 E.01509 ; perimeter
G1 X116.261 Y113.826 E.01507 ; perimeter
G1 X116.459 Y113.549 E.0151 ; perimeter
G1 X116.716 Y113.327 E.01506 ; perimeter
G1 X117.02 Y113.174 E.0151 ; perimeter
G1 X117.293 Y113.111 E.01243 ; perimeter
M204 S1000 ; adjust acceleration
G1 X117.489 Y112.787 F10800 ; move inwards before travel
;WIPE_START
G1 F8640
G1 X117.691 Y113.102 E-.09192 ; wipe and retract
G1 X118.02 Y113.189 E-.07858 ; wipe and retract
G1 X118.319 Y113.351 E-.07852 ; wipe and retract
G1 X118.57 Y113.581 E-.07861 ; wipe and retract
G1 X118.759 Y113.864 E-.07858 ; wipe and retract
G1 X118.875 Y114.183 E-.07838 ; wipe and retract
G1 X118.91 Y114.521 E-.07846 ; wipe and retract
G1 X118.864 Y114.858 E-.07854 ; wipe and retract
G1 X118.739 Y115.174 E-.07847 ; wipe and retract
G1 X118.541 Y115.451 E-.07862 ; wipe and retract
G1 X118.283 Y115.673 E-.07859 ; wipe and retract
G1 X117.98 Y115.826 E-.07838 ; wipe and retract
G1 X117.649 Y115.903 E-.07847 ; wipe and retract
G1 X117.309 Y115.898 E-.07852 ; wipe and retract
G1 X116.98 Y115.811 E-.07858 ; wipe and retract
G1 X116.681 Y115.649 E-.07852 ; wipe and retract
G1 X116.43 Y115.419 E-.07861 ; wipe and retract
G1 X116.303 Y115.235 E-.05165 ; wipe and retract
;WIPE_END
G1 Z.5 F720 ; lift Z
G1 X121.016 Y94.636 F10800 ; move to first infill point
G1 Z.3 F720 ; restore layer Z
G1 E1.4 F2100 ;  ; unretract
M204 S800 ; adjust acceleration
;TYPE:Solid infill
;WIDTH:0.421277
G1 F1200
G1 X118.618 Y92.238 E.15096 ; infill
G1 X117.948 Y92.073 E.03072 ; infill
G1 X120.903 Y95.027 E.18599 ; infill
G1 X120.968 Y95.597 E.02554 ; infill
G1 X117.436 Y92.065 E.22235 ; infill
G1 X117.083 Y92.065 E.01571 ; infill
G1 X116.961 Y92.095 E.00559 ; infill
G1 X121.128 Y96.262 E.26232 ; infill
M204 S1000 ; adjust acceleration
;WIPE_START
M73 Q4 S9
G1 F8640
M73 P4 R9
G1 X116.961 Y92.095 E-1.36072 ; wipe and retract
G1 X117.083 Y92.065 E-.02901 ; wipe and retract
G1 X117.127 Y92.065 E-.01027 ; wipe and retract
;WIPE_END
G1 Z.5 F720 ; lift Z
G1 X119.262 Y94.901 F10800 ; move to first infill point
G1 Z.3 F720 ; restore layer Z
G1 E1.4 F2100 ;  ; unretract
M204 S800 ; adjust acceleration
G1 F1200
G1 X120.968 Y96.607 E.1074 ; infill
G1 X120.968 Y97.111 E.02244 ; infill
G1 X119.519 Y95.663 E.09119 ; infill
G1 X119.492 Y95.897 E.01049 ; infill
G1 X119.442 Y96.09 E.00887 ; infill
G1 X120.968 Y97.616 E.09607 ; infill
G1 X120.968 Y98.121 E.02248 ; infill
G1 X119.294 Y96.447 E.10538 ; infill
G1 X119.096 Y96.753 E.01622 ; infill
G1 X120.968 Y98.625 E.11785 ; infill
G1 X120.968 Y99.13 E.02248 ; infill
G1 X118.848 Y97.011 E.13343 ; infill
G1 X118.562 Y97.229 E.01601 ; infill
G1 X120.968 Y99.635 E.15146 ; infill
G1 X120.968 Y100.14 E.02248 ; infill
G1 X118.224 Y97.395 E.17277 ; infill
G1 X117.827 Y97.504 E.01833 ; infill
G1 X120.968 Y100.644 E.1977 ; infill
G1 X120.968 Y101.149 E.02248 ; infill
G1 X117.154 Y97.336 E.24007 ; infill
M204 S1000 ; adjust acceleration
;WIPE_START
G1 F8640
G1 X120.968 Y101.149 E-1.24528 ; wipe and retract
G1 X120.968 Y100.644 E-.11661 ; wipe and retract
G1 X120.851 Y100.527 E-.03811 ; wipe and retract
;WIPE_END
G1 Z.5 F720 ; lift Z
G1 X118.084 Y93.723 F10800 ; move to first infill point
G1 Z.3 F720 ; restore layer Z
G1 E1.4 F2100 ;  ; unretract
M204 S800 ; adjust acceleration
G1 F1200
G1 X116.556 Y92.195 E.09619 ; infill
G1 X116.273 Y92.265 E.01298 ; infill
G1 X116.173 Y92.317 E.00502 ; infill
G1 X117.333 Y93.477 E.07302 ; infill
G1 X116.911 Y93.559 E.01914 ; infill
G1 X115.842 Y92.491 E.06726 ; infill
G1 X115.534 Y92.652 E.01547 ; infill
G1 X115.516 Y92.669 E.0011 ; infill
G1 X116.557 Y93.71 E.06553 ; infill
G1 X116.344 Y93.826 E.0108 ; infill
