; generated by PrusaSlicer 2.4.2 on 2022-07-29 at 15:34:16 UTC

; 

; external perimeters extrusion width = 0.60mm
; perimeters extrusion width = 0.50mm
; infill extrusion width = 0.50mm
; solid infill extrusion width = 0.50mm
; top infill extrusion width = 0.45mm
; first layer extrusion width = 0.42mm

M73 P0 R64
M73 Q0 S65
M107
;TYPE:Custom
M862.3 P "MK3S" ; printer model check
M862.1 P0.4 ; nozzle diameter check
M115 U3.10.0 ; tell printer latest fw version
G90 ; use absolute coordinates
M83 ; extruder relative mode
M104 S230 ; set extruder temp
M140 S95 ; set bed temp
M190 S95 ; wait for bed temp
M109 S230 ; wait for extruder temp
G28 W ; home all without mesh bed level
G80 ; mesh bed leveling
G1 Z0.2 F720
G1 Y-3 F1000 ; go outside print area
G92 E0
G1 X60 E9 F1000 ; intro line
G1 X100 E12.5 F1000 ; intro line
G92 E0
M221 S95

; Don't change E values below. Excessive value can damage the printer.

M907 E538 ; set extruder motor current
G21 ; set units to millimeters
G90 ; use absolute coordinates
M83 ; use relative distances for extrusion
M900 K0.08 ; Filament gcode LA 1.5
M900 K45 ; Filament gcode LA 1.0
M107
;LAYER_CHANGE
;Z:0.2
;HEIGHT:0.2
;BEFORE_LAYER_CHANGE
G92 E0.0
;0.2


G1 E-1.4 F2100
M73 Q0 S64
G1 Z.2 F720
;AFTER_LAYER_CHANGE
;0.2
G1 Z.4
G1 X83.643 Y46.258 F10800
G1 Z.2 F720
G1 E1.4 F2100
M204 S800
;TYPE:Skirt/Brim
;WIDTH:0.42
G1 F1200
G1 X84.11 Y45.559 E.02635
G1 X84.743 Y44.825 E.03038
G1 X85.366 Y44.261 E.02635
G1 X86.158 Y43.703 E.03038
G1 X86.899 Y43.307 E.02635
G1 X87.914 Y42.924 E.03402
G1 X88.86 Y42.712 E.03039
G1 X89.696 Y42.63 E.02635
G1 X160.058 Y42.624 E2.20615
G1 X161.382 Y42.754 E.0417
G1 X162.769 Y43.163 E.04534
G1 X164.05 Y43.834 E.04534
G1 X165.166 Y44.734 E.04495
G1 X165.959 Y45.653 E.03806
G1 X166.693 Y46.899 E.04534
G1 X167.169 Y48.264 E.04534
G1 X167.365 Y49.58 E.0417
G1 X167.377 Y160 E3.46215
G1 X167.305 Y161.025 E.03221
G1 X167.141 Y161.849 E.02635
G1 X166.837 Y162.769 E.03038
G1 X166.357 Y163.742 E.03403
G1 X165.89 Y164.441 E.02635
G1 X165.257 Y165.175 E.03038
G1 X164.634 Y165.739 E.02635
G1 X163.842 Y166.297 E.03038
G1 X163.101 Y166.693 E.02635
G1 X162.197 Y167.042 E.03039
G1 X161.219 Y167.274 E.03153
G1 X160.304 Y167.37 E.02884
G1 X89.942 Y167.376 E2.20615
G1 X88.975 Y167.305 E.03038
G1 X87.926 Y167.079 E.03365
G1 X87.123 Y166.793 E.02673
G1 X86.258 Y166.357 E.03038
G1 X85.559 Y165.89 E.02635
G1 X84.825 Y165.257 E.03038
G1 X84.261 Y164.634 E.02635
G1 X83.643 Y163.742 E.03403
G1 X83.207 Y162.877 E.03038
G1 X82.924 Y162.085 E.02635
G1 X82.712 Y161.14 E.03038
G1 X82.624 Y160.058 E.03403
G1 X82.623 Y50 E3.4508
G1 X82.695 Y48.975 E.03221
M73 P0 R63
G1 X82.859 Y48.151 E.02635
G1 X83.207 Y47.123 E.03403
G1 X83.616 Y46.311 E.0285
M204 S1000
; printing object right-foot_1.stl id:0 copy 0
;WIPE_START
G1 F8640
G1 X84.11 Y45.559 E-.2078
G1 X84.743 Y44.825 E-.22376
G1 X85.366 Y44.261 E-.19403
G1 X86.158 Y43.703 E-.22373
G1 X86.899 Y43.307 E-.19405
G1 X87.914 Y42.924 E-.25056
G1 X88.067 Y42.89 E-.03606
;WIPE_END
G1 E-.07 F2100
G1 Z.4 F720
G1 X119.01 Y84.213 F10800
G1 Z.2 F720
G1 E1.4 F2100
M204 S800
;TYPE:Perimeter
G1 F1200
G1 X150.024 Y84.213 E.97243
G1 X150.835 Y84.273 E.02549
G1 X151.136 Y84.325 E.00958
G1 X151.673 Y84.46 E.01736
G1 X151.957 Y84.553 E.00936
G1 X152.468 Y84.765 E.01736
G1 X152.735 Y84.899 E.00936
G1 X153.216 Y85.188 E.01758
G1 X153.666 Y85.522 E.01758
G1 X153.892 Y85.717 E.00936
G1 X154.283 Y86.108 E.01736
G1 X154.478 Y86.334 E.00936
G1 X154.812 Y86.784 E.01758
G1 X155.104 Y87.272 E.01781
G1 X155.348 Y87.786 E.01783
G1 X155.546 Y88.344 E.01858
G1 X155.725 Y89.144 E.02569
G1 X155.781 Y89.716 E.01803
G1 X155.781 Y120.277 E.95821
G1 X155.759 Y120.574 E.00936
G1 X155.677 Y121.129 E.01758
G1 X155.54 Y121.673 E.01758
G1 X155.447 Y121.957 E.00936
G1 X155.235 Y122.468 E.01736
G1 X155.101 Y122.735 E.00936
G1 X154.812 Y123.216 E.01758
G1 X154.478 Y123.666 E.01758
G1 X154.283 Y123.892 E.00936
G1 X153.892 Y124.283 E.01736
G1 X153.666 Y124.478 E.00936
G1 X153.216 Y124.812 E.01758
G1 X152.728 Y125.104 E.01781
G1 X152.215 Y125.347 E.01781
G1 X151.68 Y125.539 E.01781
G1 X151.129 Y125.677 E.01781
G1 X150.574 Y125.759 E.01758
G1 X150.277 Y125.781 E.00936
G1 X99.976 Y125.787 E1.57715
G1 X99.165 Y125.727 E.02549
G1 X98.864 Y125.675 E.00958
G1 X98.327 Y125.54 E.01736
G1 X98.043 Y125.447 E.00936
G1 X97.532 Y125.235 E.01736
G1 X97.265 Y125.101 E.00936
G1 X96.784 Y124.812 E.01758
G1 X96.334 Y124.478 E.01758
G1 X96.108 Y124.283 E.00936
G1 X95.717 Y123.892 E.01736
G1 X95.522 Y123.666 E.00936
G1 X95.188 Y123.216 E.01758
G1 X94.896 Y122.728 E.01781
G1 X94.652 Y122.214 E.01783
G1 X94.454 Y121.656 E.01858
G1 X94.275 Y120.856 E.02569
G1 X94.219 Y120.284 E.01802
G1 X94.219 Y89.716 E.95844
G1 X94.275 Y89.151 E.01781
G1 X94.386 Y88.594 E.01781
G1 X94.55 Y88.05 E.01781
G1 X94.765 Y87.532 E.01758
G1 X94.899 Y87.265 E.00936
G1 X95.188 Y86.784 E.01758
G1 X95.526 Y86.328 E.01781
G1 X95.907 Y85.907 E.01781
G1 X96.328 Y85.526 E.01781
G1 X96.784 Y85.188 E.01781
G1 X97.272 Y84.896 E.01781
G1 X97.785 Y84.653 E.01781
G1 X98.32 Y84.461 E.01781
G1 X98.871 Y84.323 E.01781
G1 X99.433 Y84.24 E.01781
G1 X99.983 Y84.213 E.01728
G1 X118.95 Y84.213 E.59469
M204 S1000
G1 X119.01 Y84.59 F10800
M204 S800
;TYPE:External perimeter
G1 F1200
G1 X150.01 Y84.59 E.97199
G1 X150.789 Y84.648 E.02448
M73 P1 R63
M73 Q1 S64
G1 X151.058 Y84.694 E.00857
G1 X151.568 Y84.822 E.01648
G1 X151.825 Y84.907 E.00849
G1 X152.311 Y85.108 E.01649
G1 X152.553 Y85.23 E.00849
G1 X153.006 Y85.501 E.01657
G1 X153.43 Y85.816 E.01657
G1 X153.635 Y85.993 E.00849
G1 X154.007 Y86.365 E.01649
G1 X154.184 Y86.57 E.00849
G1 X154.499 Y86.994 E.01657
G1 X154.771 Y87.45 E.01665
G1 X154.999 Y87.93 E.01666
G1 X155.183 Y88.449 E.01727
G1 X155.352 Y89.204 E.02425
G1 X155.404 Y89.735 E.01672
G1 X155.404 Y120.263 E.9572
G1 X155.384 Y120.533 E.00849
G1 X155.306 Y121.056 E.01657
G1 X155.178 Y121.568 E.01657
G1 X155.093 Y121.825 E.00849
G1 X154.892 Y122.311 E.01649
G1 X154.77 Y122.553 E.00849
G1 X154.499 Y123.006 E.01657
G1 X154.184 Y123.43 E.01657
G1 X154.007 Y123.635 E.00849
G1 X153.635 Y124.007 E.01649
G1 X153.43 Y124.184 E.00849
G1 X153.006 Y124.499 E.01657
G1 X152.55 Y124.771 E.01665
G1 X152.07 Y124.998 E.01665
G1 X151.571 Y125.177 E.01665
G1 X151.056 Y125.306 E.01665
G1 X150.533 Y125.384 E.01657
G1 X150.263 Y125.404 E.00849
G1 X99.99 Y125.41 E1.57628
G1 X99.211 Y125.352 E.02448
G1 X98.942 Y125.306 E.00857
G1 X98.432 Y125.178 E.01648
G1 X98.175 Y125.093 E.00849
G1 X97.689 Y124.892 E.01649
G1 X97.447 Y124.77 E.00849
G1 X96.994 Y124.499 E.01657
G1 X96.57 Y124.184 E.01657
G1 X96.365 Y124.007 E.00849
G1 X95.993 Y123.635 E.01649
G1 X95.816 Y123.43 E.00849
G1 X95.501 Y123.006 E.01657
G1 X95.229 Y122.55 E.01665
G1 X95.001 Y122.07 E.01666
G1 X94.817 Y121.551 E.01727
G1 X94.648 Y120.796 E.02425
G1 X94.596 Y120.265 E.01672
G1 X94.596 Y89.735 E.95728
G1 X94.648 Y89.206 E.01665
G1 X94.752 Y88.685 E.01665
G1 X94.906 Y88.177 E.01665
G1 X95.108 Y87.689 E.01657
G1 X95.23 Y87.447 E.00849
G1 X95.501 Y86.994 E.01657
G1 X95.818 Y86.568 E.01665
G1 X96.174 Y86.174 E.01665
G1 X96.568 Y85.818 E.01665
G1 X96.994 Y85.501 E.01665
G1 X97.45 Y85.229 E.01665
G1 X97.93 Y85.002 E.01665
G1 X98.429 Y84.823 E.01665
G1 X98.944 Y84.694 E.01665
G1 X99.47 Y84.616 E.01665
G1 X99.992 Y84.59 E.01641
G1 X118.95 Y84.59 E.5944
M204 S1000
G1 X119.21 Y84.244 F10800
;WIPE_START
G1 F8640
G1 X124.71 Y84.59 E-1.33
;WIPE_END
G1 E-.07 F2100
G1 Z.4 F720
G1 X116.253 Y75.785 F10800
G1 Z.2 F720
G1 E1.4 F2100
M204 S800
;TYPE:Perimeter
G1 F1200
G1 X99.976 Y75.787 E.51037
G1 X99.165 Y75.727 E.02549
G1 X98.864 Y75.675 E.00958
G1 X98.327 Y75.54 E.01736
G1 X98.043 Y75.447 E.00936
G1 X97.525 Y75.232 E.01758
G1 X97.031 Y74.968 E.01758
G1 X96.779 Y74.808 E.00936
G1 X96.323 Y74.47 E.0178
G1 X95.729 Y73.906 E.02569
G1 X95.356 Y73.454 E.01836
G1 X95.184 Y73.209 E.00938
G1 X94.895 Y72.728 E.01761
G1 X94.643 Y72.191 E.01858
G1 X94.387 Y71.413 E.02569
G1 X94.273 Y70.842 E.01825
G1 X94.213 Y70.024 E.02572
G1 X94.213 Y59.983 E.31483
G1 X94.24 Y59.433 E.01728
G1 X94.323 Y58.871 E.01781
G1 X94.46 Y58.327 E.01758
G1 X94.553 Y58.043 E.00936
G1 X94.768 Y57.525 E.01758
G1 X95.036 Y57.024 E.01781
G1 X95.351 Y56.552 E.01781
G1 X95.711 Y56.113 E.01781
G1 X96.108 Y55.717 E.01758
G1 X96.334 Y55.522 E.00936
G1 X96.784 Y55.188 E.01758
G1 X97.272 Y54.896 E.01781
G1 X97.785 Y54.653 E.01781
G1 X98.32 Y54.461 E.01781
G1 X98.871 Y54.323 E.01781
G1 X99.433 Y54.24 E.01781
G1 X99.983 Y54.213 E.01728
G1 X150.024 Y54.213 E1.569
G1 X150.835 Y54.273 E.02549
G1 X151.136 Y54.325 E.00958
G1 X151.673 Y54.46 E.01736
G1 X151.957 Y54.553 E.00936
G1 X152.468 Y54.765 E.01736
G1 X152.735 Y54.899 E.00936
G1 X153.216 Y55.188 E.01758
G1 X153.672 Y55.526 E.0178
G1 X154.074 Y55.89 E.01702
G1 X154.288 Y56.113 E.00968
G1 X154.478 Y56.334 E.00916
G1 X154.808 Y56.779 E.01736
G1 X154.968 Y57.031 E.00936
G1 X155.229 Y57.519 E.01736
G1 X155.35 Y57.792 E.00936
G1 X155.539 Y58.32 E.01758
G1 X155.677 Y58.871 E.01781
G1 X155.76 Y59.433 E.01781
G1 X155.787 Y59.983 E.01728
G1 X155.787 Y70.024 E.31483
G1 X155.727 Y70.835 E.02549
G1 X155.675 Y71.136 E.00958
G1 X155.539 Y71.68 E.01758
G1 X155.35 Y72.208 E.01758
G1 X155.101 Y72.735 E.01826
G1 X154.812 Y73.216 E.01758
G1 X154.478 Y73.666 E.01758
G1 X154.284 Y73.892 E.00935
G1 X153.905 Y74.271 E.01679
G1 X153.667 Y74.478 E.0099
G1 X153.216 Y74.812 E.01761
G1 X152.735 Y75.101 E.01758
G1 X152.468 Y75.235 E.00936
G1 X151.95 Y75.449 E.01757
G1 X151.431 Y75.607 E.01702
G1 X151.123 Y75.678 E.0099
G1 X150.574 Y75.759 E.01738
G1 X150.277 Y75.781 E.00936
G1 X116.313 Y75.785 E1.0649
M204 S1000
G1 X116.253 Y75.408 F10800
M204 S800
;TYPE:External perimeter
G1 F1200
G1 X99.99 Y75.41 E.50993
G1 X99.211 Y75.352 E.02448
G1 X98.942 Y75.306 E.00857
G1 X98.432 Y75.178 E.01648
G1 X98.175 Y75.093 E.00849
G1 X97.687 Y74.891 E.01657
G1 X97.221 Y74.642 E.01657
G1 X96.992 Y74.497 E.00849
G1 X96.566 Y74.181 E.01664
G1 X96.005 Y73.648 E.02425
G1 X95.656 Y73.225 E.01719
G1 X95.5 Y73.004 E.00849
G1 X95.228 Y72.55 E.01657
G1 X94.994 Y72.052 E.01727
G1 X94.752 Y71.317 E.02425
G1 X94.648 Y70.791 E.01681
G1 X94.59 Y70.01 E.02456
G1 X94.59 Y59.992 E.3141
G1 X94.616 Y59.47 E.01641
G1 X94.694 Y58.944 E.01665
G1 X94.822 Y58.432 E.01657
G1 X94.907 Y58.175 E.00849
G1 X95.109 Y57.687 E.01657
G1 X95.359 Y57.219 E.01665
G1 X95.654 Y56.777 E.01665
G1 X95.991 Y56.367 E.01665
G1 X96.365 Y55.993 E.01657
G1 X96.57 Y55.816 E.00849
G1 X96.994 Y55.501 E.01657
G1 X97.45 Y55.229 E.01665
G1 X97.93 Y55.002 E.01665
G1 X98.429 Y54.823 E.01665
G1 X98.944 Y54.694 E.01665
G1 X99.47 Y54.616 E.01665
G1 X99.992 Y54.59 E.01641
G1 X150.01 Y54.59 E1.56827
G1 X150.789 Y54.648 E.02448
G1 X151.058 Y54.694 E.00857
G1 X151.568 Y54.822 E.01649
G1 X151.825 Y54.907 E.00849
G1 X152.311 Y55.108 E.01649
G1 X152.553 Y55.23 E.00849
G1 X153.006 Y55.501 E.01657
G1 X153.432 Y55.818 E.01664
G1 X153.811 Y56.16 E.01602
G1 X154.008 Y56.367 E.00895
G1 X154.184 Y56.57 E.00842
G1 X154.497 Y56.992 E.01648
G1 X154.642 Y57.221 E.00849
G1 X154.89 Y57.685 E.01649
G1 X154.999 Y57.932 E.00849
G1 X155.177 Y58.429 E.01657
G1 X155.306 Y58.944 E.01665
G1 X155.384 Y59.47 E.01665
G1 X155.41 Y59.992 E.01641
G1 X155.41 Y70.01 E.3141
G1 X155.352 Y70.789 E.02448
G1 X155.306 Y71.058 E.00857
G1 X155.177 Y71.571 E.01657
G1 X154.999 Y72.068 E.01657
G1 X154.77 Y72.553 E.01681
G1 X154.499 Y73.006 E.01657
G1 X154.184 Y73.43 E.01657
G1 X154.007 Y73.635 E.00849
G1 X153.648 Y73.995 E.01594
G1 X153.43 Y74.184 E.00903
G1 X153.006 Y74.499 E.01658
G1 X152.553 Y74.77 E.01657
G1 X152.311 Y74.892 E.00849
G1 X151.823 Y75.094 E.01656
G1 X151.334 Y75.243 E.01602
G1 X151.053 Y75.307 E.00903
G1 X150.533 Y75.384 E.0165
G1 X150.263 Y75.404 E.00849
G1 X116.313 Y75.408 E1.06447
M204 S1000
G1 X116.053 Y75.754 F10800
;WIPE_START
G1 F8640
G1 X110.553 Y75.409 E-1.33
;WIPE_END
G1 E-.07 F2100
G1 Z.4 F720
G1 X116.612 Y134.213 F10800
G1 Z.2 F720
G1 E1.4 F2100
M204 S800
;TYPE:Perimeter
G1 F1200
G1 X150.024 Y134.213 E1.04762
G1 X150.835 Y134.273 E.02549
M73 Q1 S63
G1 X151.136 Y134.325 E.00958
G1 X151.673 Y134.46 E.01736
G1 X151.957 Y134.553 E.00936
G1 X152.468 Y134.765 E.01736
G1 X152.735 Y134.899 E.00936
G1 X153.216 Y135.188 E.01758
G1 X153.666 Y135.522 E.01758
G1 X153.892 Y135.717 E.00936
G1 X154.283 Y136.108 E.01736
G1 X154.478 Y136.334 E.00936
G1 X154.812 Y136.784 E.01758
G1 X155.101 Y137.265 E.01758
G1 X155.232 Y137.526 E.00913
G1 X155.35 Y137.792 E.00913
G1 X155.539 Y138.32 E.01758
G1 X155.677 Y138.871 E.01781
G1 X155.76 Y139.433 E.01781
G1 X155.787 Y139.983 E.01728
G1 X155.787 Y150.024 E.31483
G1 X155.727 Y150.835 E.02549
G1 X155.675 Y151.136 E.00958
G1 X155.54 Y151.673 E.01736
G1 X155.447 Y151.957 E.00936
G1 X155.232 Y152.475 E.01758
G1 X154.968 Y152.969 E.01758
G1 X154.808 Y153.221 E.00936
G1 X154.478 Y153.666 E.01736
G1 X154.283 Y153.892 E.00936
G1 X153.892 Y154.283 E.01736
G1 X153.666 Y154.478 E.00936
G1 X153.221 Y154.808 E.01736
G1 X152.969 Y154.968 E.00936
G1 X152.475 Y155.232 E.01758
G1 X151.974 Y155.44 E.01702
G1 X151.674 Y155.54 E.0099
G1 X151.129 Y155.677 E.01761
G1 X150.574 Y155.759 E.01758
G1 X150.277 Y155.781 E.00936
G1 X99.976 Y155.787 E1.57715
G1 X99.165 Y155.727 E.02549
G1 X98.864 Y155.675 E.00958
G1 X98.327 Y155.54 E.01736
G1 X98.043 Y155.447 E.00936
G1 X97.525 Y155.232 E.01758
G1 X97.031 Y154.968 E.01758
G1 X96.779 Y154.808 E.00936
G1 X96.323 Y154.47 E.0178
G1 X95.729 Y153.906 E.02569
G1 X95.352 Y153.448 E.01858
G1 X95.04 Y152.982 E.0176
G1 X94.892 Y152.722 E.00936
G1 X94.653 Y152.215 E.01757
G1 X94.47 Y151.704 E.01702
G1 X94.384 Y151.4 E.0099
G1 X94.273 Y150.842 E.01784
G1 X94.213 Y150.024 E.02572
G1 X94.213 Y139.983 E.31483
G1 X94.24 Y139.433 E.01728
G1 X94.323 Y138.871 E.01781
G1 X94.461 Y138.32 E.01781
G1 X94.65 Y137.792 E.01758
G1 X94.771 Y137.519 E.00936
G1 X95.036 Y137.024 E.01758
G1 X95.351 Y136.552 E.01781
G1 X95.711 Y136.113 E.01781
G1 X96.108 Y135.717 E.01758
G1 X96.334 Y135.522 E.00936
G1 X96.784 Y135.188 E.01758
G1 X97.272 Y134.896 E.01781
G1 X97.785 Y134.653 E.01781
G1 X98.32 Y134.461 E.01781
G1 X98.871 Y134.323 E.01781
G1 X99.433 Y134.24 E.01781
G1 X99.983 Y134.213 E.01728
G1 X116.552 Y134.213 E.5195
M204 S1000
G1 X116.612 Y134.59 F10800
M204 S800
;TYPE:External perimeter
G1 F1200
G1 X150.01 Y134.59 E1.04718
G1 X150.789 Y134.648 E.02448
G1 X151.058 Y134.694 E.00857
G1 X151.568 Y134.822 E.01648
G1 X151.825 Y134.907 E.00849
G1 X152.311 Y135.108 E.01649
G1 X152.553 Y135.23 E.00849
G1 X153.006 Y135.501 E.01657
G1 X153.43 Y135.816 E.01657
G1 X153.635 Y135.993 E.00849
G1 X154.007 Y136.365 E.01649
G1 X154.184 Y136.57 E.00849
G1 X154.499 Y136.994 E.01657
G1 X154.77 Y137.447 E.01657
G1 X154.891 Y137.687 E.00841
G1 X154.999 Y137.932 E.00841
G1 X155.177 Y138.429 E.01657
G1 X155.306 Y138.944 E.01665
G1 X155.384 Y139.47 E.01665
G1 X155.41 Y139.992 E.01641
G1 X155.41 Y150.01 E.3141
G1 X155.352 Y150.789 E.02448
G1 X155.306 Y151.058 E.00857
G1 X155.178 Y151.568 E.01649
G1 X155.093 Y151.825 E.00849
G1 X154.891 Y152.313 E.01657
G1 X154.642 Y152.779 E.01657
G1 X154.497 Y153.008 E.00849
G1 X154.184 Y153.43 E.01648
G1 X154.007 Y153.635 E.00849
G1 X153.635 Y154.007 E.01648
G1 X153.43 Y154.184 E.00849
G1 X153.008 Y154.497 E.01648
G1 X152.779 Y154.642 E.00849
G1 X152.313 Y154.891 E.01656
G1 X151.841 Y155.087 E.01602
G1 X151.568 Y155.178 E.00903
G1 X151.056 Y155.306 E.01658
G1 X150.533 Y155.384 E.01657
G1 X150.263 Y155.404 E.00849
G1 X99.99 Y155.41 E1.57628
G1 X99.211 Y155.352 E.02448
M73 P2 R63
M73 Q2 S63
G1 X98.942 Y155.306 E.00857
G1 X98.432 Y155.178 E.01649
G1 X98.175 Y155.093 E.00849
G1 X97.687 Y154.891 E.01657
G1 X97.221 Y154.642 E.01657
G1 X96.992 Y154.497 E.00849
G1 X96.566 Y154.181 E.01664
G1 X96.005 Y153.648 E.02425
G1 X95.655 Y153.223 E.01727
G1 X95.361 Y152.784 E.01657
G1 X95.227 Y152.548 E.00849
G1 X95.002 Y152.071 E.01656
G1 X94.829 Y151.59 E.01602
G1 X94.751 Y151.312 E.00903
G1 X94.648 Y150.791 E.01666
G1 X94.59 Y150.01 E.02456
G1 X94.59 Y139.992 E.3141
G1 X94.616 Y139.47 E.01641
G1 X94.694 Y138.944 E.01665
G1 X94.823 Y138.429 E.01665
G1 X95.001 Y137.932 E.01657
G1 X95.11 Y137.685 E.00849
G1 X95.359 Y137.219 E.01657
