; generated by PrusaSlicer 2.4.2 on 2022-07-24 at 09:18:43 UTC

; 

; external perimeters extrusion width = 0.45mm
; perimeters extrusion width = 0.45mm
; infill extrusion width = 0.45mm
; solid infill extrusion width = 0.45mm
; top infill extrusion width = 0.40mm
; support material extrusion width = 0.35mm
; first layer extrusion width = 0.42mm

M73 P0 R81
M73 Q0 S81
M107
;TYPE:Custom
M862.3 P "MK3S" ; printer model check
M862.1 P0.4 ; nozzle diameter check
M115 U3.10.0 ; tell printer latest fw version
G90 ; use absolute coordinates
M83 ; extruder relative mode
M104 S240 ; set extruder temp
M140 S85 ; set bed temp
M190 S85 ; wait for bed temp
M109 S240 ; wait for extruder temp
G28 W ; home all without mesh bed level
G80 ; mesh bed leveling
G1 Z0.2 F720
G1 Y-3 F1000 ; go outside print area
G92 E0
G1 X60 E9 F1000 ; intro line
G1 X100 E12.5 F1000 ; intro line
G92 E0
M221 S95

; Don't change E values below. Excessive value can damage the printer.
M907 E430 ; set extruder motor current
G21 ; set units to millimeters
G90 ; use absolute coordinates
M83 ; use relative distances for extrusion
M900 K0.08 ; Filament gcode LA 1.5
M900 K45 ; Filament gcode LA 1.0
M107
;LAYER_CHANGE
;Z:0.2
;HEIGHT:0.2
;BEFORE_LAYER_CHANGE
G92 E0.0
;0.2


G1 E-1 F2100
M73 P0 R80
G1 Z.2 F720
;AFTER_LAYER_CHANGE
;0.2
G1 Z.4
G1 X95.865 Y86.193 F10800
G1 Z.2 F720
G1 E1 F2100
M204 S800
;TYPE:Skirt/Brim
;WIDTH:0.42
G1 F1200
G1 X97.216 Y85.209 E.05241
G1 X128.37 Y76.582 E1.01359
G1 X129.005 Y76.496 E.02007
G1 X141.856 Y76.496 E.40294
G1 X143.382 Y77.051 E.05094
G1 X153.677 Y85.678 E.42113
G1 X154.427 Y86.818 E.04278
G1 X154.527 Y87.5 E.02162
G1 X154.527 Y127.5 E1.25417
G1 X154.135 Y128.807 E.04278
G1 X153.09 Y129.683 E.04278
G1 X152.15 Y129.877 E.03008
G1 X97.85 Y129.877 E1.70254
G1 X96.543 Y129.485 E.04278
G1 X95.667 Y128.44 E.04278
G1 X95.473 Y127.5 E.03008
G1 X95.473 Y87.5 E1.25417
G1 X95.847 Y86.25 E.0409
M204 S1000
; printing object servoHolder-Body_2.stl id:0 copy 0
;WIPE_START
G1 F8640
G1 X97.216 Y85.209 E-.39704
G1 X99.524 Y84.57 E-.55296
;WIPE_END
G1 E-.05 F2100
G1 Z.4 F720
G1 X141.856 Y87.02 F10800
G1 Z.2 F720
G1 E1 F2100
M204 S800
;TYPE:Support material
G1 F1200
G1 X129.005 Y87.02 E.40294
G1 X129.005 Y78.873 E.25544
G1 X141.856 Y78.873 E.40294
G1 X141.856 Y86.963 E.25367
M204 S1000
G1 X141.34 Y86.85 F10800
M204 S800
G1 F1200
G1 X141.34 Y79.212 E.23948
G1 X140.921 Y79.212 E.01314
G1 X140.921 Y86.681 E.23416
G1 X140.502 Y86.681 E.01314
G1 X140.502 Y79.212 E.23416
G1 X140.083 Y79.212 E.01314
G1 X140.083 Y86.681 E.23416
G1 X139.664 Y86.681 E.01314
G1 X139.664 Y79.212 E.23416
G1 X139.245 Y79.212 E.01314
G1 X139.245 Y86.681 E.23416
G1 X138.826 Y86.681 E.01314
G1 X138.826 Y79.212 E.23416
G1 X138.407 Y79.212 E.01314
G1 X138.407 Y86.681 E.23416
G1 X137.988 Y86.681 E.01314
G1 X137.988 Y79.212 E.23416
G1 X137.569 Y79.212 E.01314
G1 X137.569 Y86.681 E.23416
G1 X137.15 Y86.681 E.01314
G1 X137.15 Y79.212 E.23416
G1 X136.731 Y79.212 E.01314
G1 X136.731 Y86.681 E.23416
G1 X136.312 Y86.681 E.01314
G1 X136.312 Y79.212 E.23416
G1 X135.893 Y79.212 E.01314
G1 X135.893 Y86.681 E.23416
G1 X135.474 Y86.681 E.01314
G1 X135.474 Y79.212 E.23416
G1 X135.055 Y79.212 E.01314
G1 X135.055 Y86.681 E.23416
G1 X134.636 Y86.681 E.01314
G1 X134.636 Y79.212 E.23416
G1 X134.217 Y79.212 E.01314
G1 X134.217 Y86.681 E.23416
G1 X133.799 Y86.681 E.01314
G1 X133.799 Y79.212 E.23416
G1 X133.38 Y79.212 E.01314
G1 X133.38 Y86.681 E.23416
G1 X132.961 Y86.681 E.01314
G1 X132.961 Y79.212 E.23416
G1 X132.542 Y79.212 E.01314
G1 X132.542 Y86.681 E.23416
G1 X132.123 Y86.681 E.01314
G1 X132.123 Y79.212 E.23416
G1 X131.704 Y79.212 E.01314
G1 X131.704 Y86.681 E.23416
G1 X131.285 Y86.681 E.01314
G1 X131.285 Y79.212 E.23416
G1 X130.866 Y79.212 E.01314
G1 X130.866 Y86.681 E.23416
G1 X130.447 Y86.681 E.01314
G1 X130.447 Y79.212 E.23416
G1 X130.028 Y79.212 E.01314
G1 X130.028 Y86.681 E.23416
G1 X129.609 Y86.681 E.01314
G1 X129.609 Y79.043 E.23948
M204 S1000
;WIPE_START
G1 F8640
G1 X129.609 Y83.157 E-.95
;WIPE_END
G1 E-.05 F2100
G1 Z.4 F720
G1 X151.363 Y88.287 F10800
G1 Z.2 F720
G1 E1 F2100
M204 S800
;TYPE:Perimeter
G1 F1200
G1 X151.363 Y126.713 E1.20482
G1 X98.637 Y126.713 E1.65318
G1 X98.637 Y88.287 E1.20482
G1 X151.303 Y88.287 E1.6513
M204 S1000
G1 X151.74 Y87.91 F10800
M204 S800
;TYPE:External perimeter
M73 Q0 S80
G1 F1200
G1 X151.74 Y127.09 E1.22846
G1 X98.26 Y127.09 E1.67683
G1 X98.26 Y87.91 E1.22846
G1 X151.68 Y87.91 E1.67495
M204 S1000
M73 P1 R80
M73 Q1 S80
G1 X151.617 Y88.291 F10800
;WIPE_START
G1 F8640
G1 X151.686 Y92.024 E-.95
;WIPE_END
G1 E-.05 F2100
G1 Z.4 F720
G1 X151.25 Y89.164 F10800
G1 Z.2 F720
G1 E1 F2100
M204 S800
;TYPE:Solid infill
;WIDTH:0.420492
G1 F1200
G1 X150.656 Y88.57 E.02636
G1 X150.122 Y88.57 E.01676
G1 X151.08 Y89.528 E.04253
G1 X151.08 Y90.062 E.01676
G1 X149.588 Y88.57 E.06624
G1 X149.054 Y88.57 E.01676
G1 X151.08 Y90.596 E.08995
G1 X151.08 Y91.13 E.01676
G1 X148.52 Y88.57 E.11365
G1 X147.986 Y88.57 E.01676
G1 X151.08 Y91.664 E.13736
G1 X151.08 Y92.198 E.01676
G1 X147.452 Y88.57 E.16107
G1 X146.918 Y88.57 E.01676
G1 X151.08 Y92.732 E.18478
G1 X151.08 Y93.266 E.01676
G1 X146.384 Y88.57 E.20849
G1 X145.85 Y88.57 E.01676
G1 X151.08 Y93.8 E.23219
G1 X151.08 Y94.333 E.01676
G1 X145.317 Y88.57 E.2559
G1 X144.783 Y88.57 E.01676
G1 X151.08 Y94.867 E.27961
G1 X151.08 Y95.401 E.01676
G1 X144.249 Y88.57 E.30332
G1 X143.715 Y88.57 E.01676
G1 X151.08 Y95.935 E.32703
G1 X151.08 Y96.469 E.01676
G1 X143.181 Y88.57 E.35073
G1 X142.647 Y88.57 E.01676
G1 X151.08 Y97.003 E.37444
G1 X151.08 Y97.537 E.01676
G1 X142.113 Y88.57 E.39815
G1 X141.579 Y88.57 E.01676
G1 X151.08 Y98.071 E.42186
G1 X151.08 Y98.605 E.01676
G1 X141.045 Y88.57 E.44557
G1 X140.511 Y88.57 E.01676
G1 X151.08 Y99.139 E.46927
G1 X151.08 Y99.673 E.01676
G1 X139.977 Y88.57 E.49298
G1 X139.443 Y88.57 E.01676
G1 X151.08 Y100.207 E.51669
G1 X151.08 Y100.741 E.01676
G1 X138.909 Y88.57 E.5404
G1 X138.375 Y88.57 E.01676
G1 X151.08 Y101.275 E.56411
G1 X151.08 Y101.809 E.01676
G1 X137.841 Y88.57 E.58781
G1 X137.307 Y88.57 E.01676
M73 P1 R79
G1 X151.08 Y102.343 E.61152
G1 X151.08 Y102.877 E.01676
G1 X136.773 Y88.57 E.63523
G1 X136.239 Y88.57 E.01676
G1 X151.08 Y103.411 E.65894
G1 X151.08 Y103.945 E.01676
G1 X135.705 Y88.57 E.68264
G1 X135.171 Y88.57 E.01676
G1 X151.08 Y104.479 E.70635
G1 X151.08 Y105.013 E.01676
G1 X134.637 Y88.57 E.73006
G1 X134.103 Y88.57 E.01676
G1 X151.08 Y105.547 E.75377
G1 X151.08 Y106.081 E.01676
G1 X133.569 Y88.57 E.77748
G1 X133.035 Y88.57 E.01676
G1 X151.08 Y106.615 E.80118
G1 X151.08 Y107.149 E.01676
G1 X132.501 Y88.57 E.82489
G1 X131.967 Y88.57 E.01676
G1 X151.08 Y107.683 E.8486
G1 X151.08 Y108.217 E.01676
G1 X131.433 Y88.57 E.87231
G1 X130.899 Y88.57 E.01676
G1 X151.08 Y108.751 E.89602
G1 X151.08 Y109.285 E.01676
G1 X130.365 Y88.57 E.91972
G1 X129.831 Y88.57 E.01676
G1 X151.08 Y109.819 E.94343
G1 X151.08 Y110.353 E.01676
G1 X129.297 Y88.57 E.96714
G1 X128.764 Y88.57 E.01676
G1 X151.08 Y110.886 E.99085
G1 X151.08 Y111.42 E.01676
G1 X128.23 Y88.57 E1.01456
G1 X127.696 Y88.57 E.01676
G1 X151.08 Y111.954 E1.03826
G1 X151.08 Y112.488 E.01676
G1 X127.162 Y88.57 E1.06197
G1 X126.628 Y88.57 E.01676
G1 X151.08 Y113.022 E1.08568
G1 X151.08 Y113.556 E.01676
G1 X126.094 Y88.57 E1.10939
G1 X125.56 Y88.57 E.01676
G1 X151.08 Y114.09 E1.1331
G1 X151.08 Y114.624 E.01676
M73 P2 R79
M73 Q2 S80
G1 X125.026 Y88.57 E1.1568
G1 X124.492 Y88.57 E.01676
G1 X151.08 Y115.158 E1.18051
G1 X151.08 Y115.692 E.01676
M73 Q2 S79
G1 X123.958 Y88.57 E1.20422
G1 X123.424 Y88.57 E.01676
G1 X151.08 Y116.226 E1.22793
G1 X151.08 Y116.76 E.01676
G1 X122.89 Y88.57 E1.25164
G1 X122.356 Y88.57 E.01676
G1 X151.08 Y117.294 E1.27534
G1 X151.08 Y117.828 E.01676
G1 X121.822 Y88.57 E1.29905
G1 X121.288 Y88.57 E.01676
G1 X151.08 Y118.362 E1.32276
G1 X151.08 Y118.896 E.01676
G1 X120.754 Y88.57 E1.34647
G1 X120.22 Y88.57 E.01676
G1 X151.08 Y119.43 E1.37017
G1 X151.08 Y119.964 E.01676
G1 X119.686 Y88.57 E1.39388
G1 X119.152 Y88.57 E.01676
G1 X151.08 Y120.498 E1.41759
G1 X151.08 Y121.032 E.01676
G1 X118.618 Y88.57 E1.4413
G1 X118.084 Y88.57 E.01676
M73 P2 R78
G1 X151.08 Y121.566 E1.46501
G1 X151.08 Y122.1 E.01676
G1 X117.55 Y88.57 E1.48871
G1 X117.016 Y88.57 E.01676
G1 X151.08 Y122.634 E1.51242
G1 X151.08 Y123.168 E.01676
G1 X116.482 Y88.57 E1.53613
G1 X115.948 Y88.57 E.01676
G1 X151.08 Y123.702 E1.55984
G1 X151.08 Y124.236 E.01676
G1 X115.414 Y88.57 E1.58355
G1 X114.88 Y88.57 E.01676
G1 X151.08 Y124.77 E1.60725
G1 X151.08 Y125.304 E.01676
G1 X114.346 Y88.57 E1.63096
G1 X113.812 Y88.57 E.01676
G1 X151.08 Y125.838 E1.65467
G1 X151.08 Y126.372 E.01676
M73 P3 R78
M73 Q3 S79
G1 X113.278 Y88.57 E1.67838
G1 X112.744 Y88.57 E.01676
G1 X150.605 Y126.43 E1.68098
G1 X150.071 Y126.43 E.01676
G1 X112.211 Y88.57 E1.68098
G1 X111.677 Y88.57 E.01676
G1 X149.537 Y126.43 E1.68098
G1 X149.003 Y126.43 E.01676
G1 X111.143 Y88.57 E1.68098
G1 X110.609 Y88.57 E.01676
M73 Q3 S78
G1 X148.469 Y126.43 E1.68098
G1 X147.935 Y126.43 E.01676
G1 X110.075 Y88.57 E1.68098
G1 X109.541 Y88.57 E.01676
G1 X147.401 Y126.43 E1.68098
G1 X146.867 Y126.43 E.01676
G1 X109.007 Y88.57 E1.68098
G1 X108.473 Y88.57 E.01676
G1 X146.333 Y126.43 E1.68098
G1 X145.799 Y126.43 E.01676
G1 X107.939 Y88.57 E1.68098
G1 X107.405 Y88.57 E.01676
G1 X145.265 Y126.43 E1.68098
G1 X144.731 Y126.43 E.01676
G1 X106.871 Y88.57 E1.68098
G1 X106.337 Y88.57 E.01676
G1 X144.197 Y126.43 E1.68098
G1 X143.663 Y126.43 E.01676
M73 P3 R77
G1 X105.803 Y88.57 E1.68098
G1 X105.269 Y88.57 E.01676
G1 X143.129 Y126.43 E1.68098
G1 X142.595 Y126.43 E.01676
G1 X104.735 Y88.57 E1.68098
G1 X104.201 Y88.57 E.01676
G1 X142.061 Y126.43 E1.68098
G1 X141.527 Y126.43 E.01676
M73 P4 R77
M73 Q4 S78
G1 X103.667 Y88.57 E1.68098
G1 X103.133 Y88.57 E.01676
G1 X140.993 Y126.43 E1.68098
G1 X140.459 Y126.43 E.01676
G1 X102.599 Y88.57 E1.68098
G1 X102.065 Y88.57 E.01676
G1 X139.925 Y126.43 E1.68098
G1 X139.391 Y126.43 E.01676
G1 X101.531 Y88.57 E1.68098
G1 X100.997 Y88.57 E.01676
G1 X138.857 Y126.43 E1.68098
G1 X138.323 Y126.43 E.01676
G1 X100.463 Y88.57 E1.68098
G1 X99.929 Y88.57 E.01676
G1 X137.79 Y126.43 E1.68098
G1 X137.256 Y126.43 E.01676
G1 X99.395 Y88.57 E1.68098
G1 X98.92 Y88.57 E.01493
M73 Q4 S77
G1 X98.92 Y88.628 E.00184
G1 X136.722 Y126.43 E1.67838
G1 X136.188 Y126.43 E.01676
G1 X98.92 Y89.162 E1.65467
G1 X98.92 Y89.696 E.01676
G1 X135.654 Y126.43 E1.63096
G1 X135.12 Y126.43 E.01676
G1 X98.92 Y90.23 E1.60726
G1 X98.92 Y90.764 E.01676
G1 X134.586 Y126.43 E1.58355
G1 X134.052 Y126.43 E.01676
G1 X98.92 Y91.298 E1.55984
G1 X98.92 Y91.832 E.01676
G1 X133.518 Y126.43 E1.53613
G1 X132.984 Y126.43 E.01676
G1 X98.92 Y92.366 E1.51242
G1 X98.92 Y92.9 E.01676
G1 X132.45 Y126.43 E1.48872
G1 X131.916 Y126.43 E.01676
M73 P5 R77
G1 X98.92 Y93.434 E1.46501
G1 X98.92 Y93.968 E.01676
M73 P5 R76
M73 Q5 S77
G1 X131.382 Y126.43 E1.4413
G1 X130.848 Y126.43 E.01676
G1 X98.92 Y94.502 E1.41759
G1 X98.92 Y95.036 E.01676
G1 X130.314 Y126.43 E1.39388
G1 X129.78 Y126.43 E.01676
G1 X98.92 Y95.57 E1.37018
G1 X98.92 Y96.104 E.01676
G1 X129.246 Y126.43 E1.34647
G1 X128.712 Y126.43 E.01676
G1 X98.92 Y96.638 E1.32276
G1 X98.92 Y97.172 E.01676
G1 X128.178 Y126.43 E1.29905
G1 X127.644 Y126.43 E.01676
G1 X98.92 Y97.706 E1.27535
G1 X98.92 Y98.24 E.01676
G1 X127.11 Y126.43 E1.25164
G1 X126.576 Y126.43 E.01676
G1 X98.92 Y98.774 E1.22793
G1 X98.92 Y99.308 E.01676
G1 X126.042 Y126.43 E1.20422
G1 X125.508 Y126.43 E.01676
G1 X98.92 Y99.842 E1.18051
G1 X98.92 Y100.376 E.01676
G1 X124.974 Y126.43 E1.15681
G1 X124.44 Y126.43 E.01676
G1 X98.92 Y100.91 E1.1331
G1 X98.92 Y101.444 E.01676
G1 X123.906 Y126.43 E1.10939
G1 X123.372 Y126.43 E.01676
G1 X98.92 Y101.978 E1.08568
G1 X98.92 Y102.512 E.01676
G1 X122.838 Y126.43 E1.06197
G1 X122.304 Y126.43 E.01676
M73 Q5 S76
G1 X98.92 Y103.046 E1.03827
G1 X98.92 Y103.58 E.01676
G1 X121.77 Y126.43 E1.01456
G1 X121.237 Y126.43 E.01676
G1 X98.92 Y104.113 E.99085
G1 X98.92 Y104.647 E.01676
G1 X120.703 Y126.43 E.96714
G1 X120.169 Y126.43 E.01676
G1 X98.92 Y105.181 E.94343
G1 X98.92 Y105.715 E.01676
G1 X119.635 Y126.43 E.91973
G1 X119.101 Y126.43 E.01676
G1 X98.92 Y106.249 E.89602
G1 X98.92 Y106.783 E.01676
M73 P6 R76
G1 X118.567 Y126.43 E.87231
G1 X118.033 Y126.43 E.01676
M73 Q6 S76
G1 X98.92 Y107.317 E.8486
G1 X98.92 Y107.851 E.01676
G1 X117.499 Y126.43 E.82489
G1 X116.965 Y126.43 E.01676
G1 X98.92 Y108.385 E.80119
G1 X98.92 Y108.919 E.01676
G1 X116.431 Y126.43 E.77748
G1 X115.897 Y126.43 E.01676
G1 X98.92 Y109.453 E.75377
G1 X98.92 Y109.987 E.01676
G1 X115.363 Y126.43 E.73006
G1 X114.829 Y126.43 E.01676
G1 X98.92 Y110.521 E.70635
G1 X98.92 Y111.055 E.01676
G1 X114.295 Y126.43 E.68265
G1 X113.761 Y126.43 E.01676
G1 X98.92 Y111.589 E.65894
G1 X98.92 Y112.123 E.01676
M73 P6 R75
G1 X113.227 Y126.43 E.63523
G1 X112.693 Y126.43 E.01676
G1 X98.92 Y112.657 E.61152
G1 X98.92 Y113.191 E.01676
G1 X112.159 Y126.43 E.58782
G1 X111.625 Y126.43 E.01676
G1 X98.92 Y113.725 E.56411
G1 X98.92 Y114.259 E.01676
G1 X111.091 Y126.43 E.5404
G1 X110.557 Y126.43 E.01676
G1 X98.92 Y114.793 E.51669
G1 X98.92 Y115.327 E.01676
G1 X110.023 Y126.43 E.49298
G1 X109.489 Y126.43 E.01676
G1 X98.92 Y115.861 E.46928
G1 X98.92 Y116.395 E.01676
G1 X108.955 Y126.43 E.44557
G1 X108.421 Y126.43 E.01676
G1 X98.92 Y116.929 E.42186
G1 X98.92 Y117.463 E.01676
G1 X107.887 Y126.43 E.39815
G1 X107.353 Y126.43 E.01676
G1 X98.92 Y117.997 E.37444
G1 X98.92 Y118.531 E.01676
G1 X106.819 Y126.43 E.35074
G1 X106.285 Y126.43 E.01676
G1 X98.92 Y119.065 E.32703
G1 X98.92 Y119.599 E.01676
G1 X105.751 Y126.43 E.30332
G1 X105.218 Y126.43 E.01676
G1 X98.92 Y120.132 E.27961
G1 X98.92 Y120.666 E.01676
G1 X104.684 Y126.43 E.2559
G1 X104.15 Y126.43 E.01676
G1 X98.92 Y121.2 E.2322
G1 X98.92 Y121.734 E.01676
G1 X103.616 Y126.43 E.20849
G1 X103.082 Y126.43 E.01676
G1 X98.92 Y122.268 E.18478
G1 X98.92 Y122.802 E.01676
G1 X102.548 Y126.43 E.16107
G1 X102.014 Y126.43 E.01676
G1 X98.92 Y123.336 E.13736
G1 X98.92 Y123.87 E.01676
G1 X101.48 Y126.43 E.11366
G1 X100.946 Y126.43 E.01676
G1 X98.92 Y124.404 E.08995
G1 X98.92 Y124.938 E.01676
G1 X100.412 Y126.43 E.06624
G1 X99.878 Y126.43 E.01676
G1 X98.92 Y125.472 E.04253
G1 X98.92 Y126.006 E.01676
G1 X99.514 Y126.6 E.02636
M204 S1000
; stop printing object servoHolder-Body_2.stl id:0 copy 0
;LAYER_CHANGE
;Z:0.35
;HEIGHT:0.15
;BEFORE_LAYER_CHANGE
G92 E0.0
;0.35


;WIPE_START
G1 F8640
G1 X98.92 Y126.006 E-.19386
G1 X98.92 Y125.472 E-.12329
G1 X99.878 Y126.43 E-.31282
G1 X100.412 Y126.43 E-.12329
G1 X99.809 Y125.828 E-.19673
;WIPE_END
G1 E-.05 F2100
G1 Z.4 F720
;AFTER_LAYER_CHANGE
;0.35
M104 S250 ; set temperature
M140 S90 ; set bed temperature
G1 X99.809 Y129.877 F10800
G1 Z.35 F720
G1 E1 F2100
;TYPE:Skirt/Brim
;WIDTH:0.42
G1 F3000
G1 X97.85 Y129.877 E.04739
G1 X96.543 Y129.485 E.033
G1 X95.667 Y128.44 E.033
G1 X95.473 Y127.5 E.02321
G1 X95.473 Y87.5 E.9674
G1 X95.865 Y86.193 E.033
G1 X97.216 Y85.209 E.04042
G1 X128.37 Y76.582 E.78182
G1 X129.005 Y76.496 E.01548
G1 X141.856 Y76.496 E.3108
G1 X143.382 Y77.051 E.03929
G1 X153.677 Y85.678 E.32483
G1 X154.427 Y86.818 E.033
G1 X154.527 Y87.5 E.01668
G1 X154.527 Y127.5 E.9674
G1 X154.135 Y128.807 E.033
G1 X153.09 Y129.683 E.033
G1 X152.15 Y129.877 E.02321
G1 X99.869 Y129.877 E1.2644
; printing object servoHolder-Body_2.stl id:0 copy 0
;WIPE_START
G1 F8640
G1 X97.85 Y129.877 E-.46627
G1 X96.543 Y129.485 E-.31505
G1 X96.074 Y128.926 E-.16868
;WIPE_END
G1 E-.05 F2100
G1 Z.55 F720
G1 X98.493 Y126.857 F10800
G1 Z.35 F720
G1 E1 F2100
M204 S800
;TYPE:Perimeter
;WIDTH:0.45
G1 F2700
G1 X98.493 Y88.143 E1.00873
G1 X151.507 Y88.143 E1.38133
G1 X151.507 Y126.857 E1.00873
G1 X98.553 Y126.857 E1.37977
M204 S1000
G1 X98.075 Y127.275 F10800
M204 S800
;TYPE:External perimeter
G1 F1500
G1 X98.075 Y87.725 E1.03051
G1 X151.925 Y87.725 E1.4031
G1 X151.925 Y127.275 E1.03051
G1 X98.135 Y127.275 E1.40154
M204 S1000
G1 X98.198 Y126.894 F10800
;WIPE_START
G1 F8640
G1 X98.129 Y123.161 E-.95
;WIPE_END
G1 E-.05 F2100
G1 Z.55 F720
G1 X150.534 Y126.732 F10800
G1 Z.35 F720
G1 E1 F2100
;TYPE:Solid infill
;WIDTH:0.451453
G1 F4800
G1 X151.194 Y126.072 E.02439
