; generated by PrusaSlicer 2.5.2 on 2023-05-07 at 14:49:15 UTC


;
;
; 

; external perimeters extrusion width = 0.60mm
; perimeters extrusion width = 0.50mm
; infill extrusion width = 0.50mm
; solid infill extrusion width = 0.50mm
; top infill extrusion width = 0.45mm
; support material extrusion width = 0.38mm
; first layer extrusion width = 0.42mm

M73 P0 R40
M73 Q0 S40
M201 X1000 Y1000 Z200 E5000 ; sets maximum accelerations, mm/sec^2
M203 X200 Y200 Z12 E120 ; sets maximum feedrates, mm / sec
M204 P1250 R1250 T1250 ; sets acceleration (P, T) and retract acceleration (R), mm/sec^2
M205 X8.00 Y8.00 Z0.40 E4.50 ; sets the jerk limits, mm/sec
M205 S0 T0 ; sets the minimum extruding and travel feed rate, mm/sec
M107 ; disable fan
;TYPE:Custom
M862.3 P "MK3S" ; printer model check
M862.1 P0.4 ; nozzle diameter check
M115 U3.11.0 ; tell printer latest fw version
G90 ; use absolute coordinates
M83 ; extruder relative mode
M104 S240 ; set extruder temp
M140 S95 ; set bed temp
M190 S95 ; wait for bed temp
M109 S240 ; wait for extruder temp
G28 W ; home all without mesh bed level
G80 ; mesh bed leveling

G1 Z0.2 F720
G1 Y-3 F1000 ; go outside print area
G92 E0
G1 X60 E9 F1000 ; intro line
G1 X100 E12.5 F1000 ; intro line

G92 E0
M221 S95

; Don't change E values below. Excessive value can damage the printer.

M907 E538 ; set extruder motor current
G21 ; set units to millimeters
G90 ; use absolute coordinates
M83 ; use relative distances for extrusion
M900 K0.08 ; Filament gcode LA 1.5
M900 K45 ; Filament gcode LA 1.0
M107 ; disable fan
;LAYER_CHANGE
;Z:0.3
;HEIGHT:0.3
;BEFORE_LAYER_CHANGE
G92 E0.0
;0.3


G1 E-1.4 F2100 ; retract
G1 Z.2 F720 ; lift Z
G1 Z.3 ; move to next layer (0)
;AFTER_LAYER_CHANGE
;0.3
G1 Z.5 ; lift Z
G1 X95.886 Y86.2 F10800 ; move to first skirt point
G1 Z.3 F720 ; restore layer Z
G1 E1.4 F2100 ;  ; unretract
M204 S800 ; adjust acceleration
;TYPE:Skirt/Brim
;WIDTH:0.42
G1 F1200
G1 X97.223 Y85.229 E.07327 ; skirt
G1 X128.372 Y76.625 E1.43335 ; skirt
G1 X128.999 Y76.54 E.02807 ; skirt
M73 P0 R39
G1 X141.841 Y76.54 E.56962 ; skirt
G1 X143.351 Y77.088 E.07121 ; skirt
G1 X153.659 Y85.692 E.59557 ; skirt
G1 X154.506 Y87.5 E.08856 ; skirt
G1 X154.506 Y127.5 E1.77419 ; skirt
G1 X154.114 Y128.8 E.06024 ; skirt
G1 X153.07 Y129.669 E.06024 ; skirt
G1 X152.15 Y129.856 E.04163 ; skirt
G1 X97.85 Y129.856 E2.40847 ; skirt
G1 X96.55 Y129.464 E.06024 ; skirt
G1 X95.681 Y128.42 E.06024 ; skirt
G1 X95.494 Y127.5 E.04163 ; skirt
G1 X95.494 Y87.5 E1.77419 ; skirt
G1 X95.869 Y86.257 E.05758 ; skirt
M204 S1000 ; adjust acceleration
; printing object servoHolder-Body.stl id:0 copy 0
;WIPE_START
G1 F8640
G1 X97.223 Y85.229 E-.39253 ; wipe and retract
G1 X101.136 Y84.148 E-.93747 ; wipe and retract
;WIPE_END
G1 E-.07 F2100 ; retract
G1 Z.5 F720 ; lift Z
G1 X141.841 Y86.93 F10800 ; move to first support material point
G1 Z.3 F720 ; restore layer Z
G1 E1.4 F2100 ;  ; unretract
M204 S800 ; adjust acceleration
;TYPE:Support material
G1 F1200
G1 X128.999 Y86.93 E.56962 ; support material
G1 X128.999 Y78.896 E.35634 ; support material
G1 X141.841 Y78.896 E.56962 ; support material
G1 X141.841 Y86.877 E.35398 ; support material
M204 S1000 ; adjust acceleration
G1 X141.2 Y86.77 F10800 ; move to first support material point
M204 S800 ; adjust acceleration
G1 F1200
G1 X141.2 Y79.216 E.33505 ; support material
G1 X140.805 Y79.216 E.01753 ; support material
G1 X140.805 Y86.61 E.32795 ; support material
G1 X140.41 Y86.61 E.01753 ; support material
G1 X140.41 Y79.216 E.32795 ; support material
G1 X140.015 Y79.216 E.01753 ; support material
G1 X140.015 Y86.61 E.32795 ; support material
G1 X139.62 Y86.61 E.01753 ; support material
G1 X139.62 Y79.216 E.32795 ; support material
G1 X139.225 Y79.216 E.01753 ; support material
G1 X139.225 Y86.61 E.32795 ; support material
G1 X138.83 Y86.61 E.01753 ; support material
G1 X138.83 Y79.216 E.32795 ; support material
G1 X138.434 Y79.216 E.01753 ; support material
G1 X138.434 Y86.61 E.32795 ; support material
G1 X138.039 Y86.61 E.01753 ; support material
G1 X138.039 Y79.216 E.32795 ; support material
G1 X137.644 Y79.216 E.01753 ; support material
M73 Q1 S40
G1 X137.644 Y86.61 E.32795 ; support material
G1 X137.249 Y86.61 E.01753 ; support material
M73 P1 R39
G1 X137.249 Y79.216 E.32795 ; support material
G1 X136.854 Y79.216 E.01753 ; support material
G1 X136.854 Y86.61 E.32795 ; support material
G1 X136.459 Y86.61 E.01753 ; support material
G1 X136.459 Y79.216 E.32795 ; support material
G1 X136.064 Y79.216 E.01753 ; support material
G1 X136.064 Y86.61 E.32795 ; support material
G1 X135.669 Y86.61 E.01753 ; support material
G1 X135.669 Y79.216 E.32795 ; support material
G1 X135.273 Y79.216 E.01753 ; support material
M73 Q1 S39
G1 X135.273 Y86.61 E.32795 ; support material
G1 X134.878 Y86.61 E.01753 ; support material
G1 X134.878 Y79.216 E.32795 ; support material
G1 X134.483 Y79.216 E.01753 ; support material
G1 X134.483 Y86.61 E.32795 ; support material
G1 X134.088 Y86.61 E.01753 ; support material
G1 X134.088 Y79.216 E.32795 ; support material
G1 X133.693 Y79.216 E.01753 ; support material
G1 X133.693 Y86.61 E.32795 ; support material
G1 X133.298 Y86.61 E.01753 ; support material
G1 X133.298 Y79.216 E.32795 ; support material
G1 X132.903 Y79.216 E.01753 ; support material
G1 X132.903 Y86.61 E.32795 ; support material
G1 X132.508 Y86.61 E.01753 ; support material
G1 X132.508 Y79.216 E.32795 ; support material
G1 X132.112 Y79.216 E.01753 ; support material
G1 X132.112 Y86.61 E.32795 ; support material
G1 X131.717 Y86.61 E.01753 ; support material
G1 X131.717 Y79.216 E.32795 ; support material
G1 X131.322 Y79.216 E.01753 ; support material
G1 X131.322 Y86.61 E.32795 ; support material
G1 X130.927 Y86.61 E.01753 ; support material
G1 X130.927 Y79.216 E.32795 ; support material
G1 X130.532 Y79.216 E.01753 ; support material
G1 X130.532 Y86.61 E.32795 ; support material
G1 X130.137 Y86.61 E.01753 ; support material
G1 X130.137 Y79.216 E.32795 ; support material
G1 X129.742 Y79.216 E.01753 ; support material
G1 X129.742 Y86.61 E.32795 ; support material
G1 X129.346 Y86.61 E.01753 ; support material
G1 X129.346 Y79.056 E.33505 ; support material
M204 S1000 ; adjust acceleration
;WIPE_START
G1 F8640
G1 X129.346 Y84.816 E-1.33 ; wipe and retract
;WIPE_END
G1 E-.07 F2100 ; retract
G1 Z.5 F720 ; lift Z
G1 X151.384 Y88.266 F10800 ; move to first perimeter point
G1 Z.3 F720 ; restore layer Z
G1 E1.4 F2100 ;  ; unretract
M204 S800 ; adjust acceleration
;TYPE:Perimeter
;WIDTH:0.42
G1 F1200
G1 X151.384 Y126.734 E1.70627 ; perimeter
G1 X98.616 Y126.734 E2.34055 ; perimeter
G1 X98.616 Y88.266 E1.70627 ; perimeter
G1 X151.324 Y88.266 E2.33788 ; perimeter
M204 S1000 ; adjust acceleration
G1 X151.74 Y87.91 F10800 ; move to first perimeter point
M204 S800 ; adjust acceleration
;TYPE:External perimeter
G1 F1200
G1 X151.74 Y127.09 E1.73782 ; perimeter
G1 X98.26 Y127.09 E2.37209 ; perimeter
G1 X98.26 Y87.91 E1.73782 ; perimeter
G1 X151.68 Y87.91 E2.36943 ; perimeter
M204 S1000 ; adjust acceleration
M73 P2 R39
M73 Q2 S39
G1 X151.617 Y88.291 F10800 ; move inwards before travel
;WIPE_START
G1 F8640
G1 X151.689 Y93.67 E-1.33 ; wipe and retract
;WIPE_END
G1 E-.07 F2100 ; retract
G1 Z.5 F720 ; lift Z
G1 X150.556 Y88.372 F10800 ; move to first infill point
G1 Z.3 F720 ; restore layer Z
G1 E1.4 F2100 ;  ; unretract
M204 S800 ; adjust acceleration
;TYPE:Solid infill
;WIDTH:0.421399
G1 F1200
G1 X151.118 Y88.934 E.03538 ; infill
G1 X151.118 Y89.439 E.02248 ; infill
G1 X150.211 Y88.532 E.0571 ; infill
G1 X149.706 Y88.532 E.02248 ; infill
G1 X151.118 Y89.944 E.08889 ; infill
G1 X151.118 Y90.449 E.02248 ; infill
G1 X149.201 Y88.532 E.12069 ; infill
G1 X148.696 Y88.532 E.02248 ; infill
G1 X151.118 Y90.954 E.15248 ; infill
G1 X151.118 Y91.459 E.02248 ; infill
G1 X148.191 Y88.532 E.18428 ; infill
G1 X147.686 Y88.532 E.02248 ; infill
G1 X151.118 Y91.964 E.21608 ; infill
G1 X151.118 Y92.468 E.02248 ; infill
G1 X147.182 Y88.532 E.24787 ; infill
G1 X146.677 Y88.532 E.02248 ; infill
G1 X151.118 Y92.973 E.27967 ; infill
G1 X151.118 Y93.478 E.02248 ; infill
G1 X146.172 Y88.532 E.31146 ; infill
G1 X145.667 Y88.532 E.02248 ; infill
G1 X151.118 Y93.983 E.34326 ; infill
G1 X151.118 Y94.488 E.02248 ; infill
G1 X145.162 Y88.532 E.37505 ; infill
G1 X144.657 Y88.532 E.02248 ; infill
G1 X151.118 Y94.993 E.40685 ; infill
G1 X151.118 Y95.498 E.02248 ; infill
G1 X144.152 Y88.532 E.43864 ; infill
G1 X143.647 Y88.532 E.02248 ; infill
G1 X151.118 Y96.003 E.47044 ; infill
G1 X151.118 Y96.508 E.02248 ; infill
G1 X143.142 Y88.532 E.50224 ; infill
G1 X142.637 Y88.532 E.02248 ; infill
G1 X151.118 Y97.013 E.53403 ; infill
G1 X151.118 Y97.517 E.02248 ; infill
G1 X142.133 Y88.532 E.56583 ; infill
G1 X141.628 Y88.532 E.02248 ; infill
G1 X151.118 Y98.022 E.59762 ; infill
G1 X151.118 Y98.527 E.02248 ; infill
G1 X141.123 Y88.532 E.62942 ; infill
G1 X140.618 Y88.532 E.02248 ; infill
G1 X151.118 Y99.032 E.66121 ; infill
G1 X151.118 Y99.537 E.02248 ; infill
G1 X140.113 Y88.532 E.69301 ; infill
G1 X139.608 Y88.532 E.02248 ; infill
G1 X151.118 Y100.042 E.7248 ; infill
G1 X151.118 Y100.547 E.02248 ; infill
G1 X139.103 Y88.532 E.7566 ; infill
G1 X138.598 Y88.532 E.02248 ; infill
G1 X151.118 Y101.052 E.78839 ; infill
G1 X151.118 Y101.557 E.02248 ; infill
G1 X138.093 Y88.532 E.82019 ; infill
G1 X137.588 Y88.532 E.02248 ; infill
G1 X151.118 Y102.062 E.85199 ; infill
G1 X151.118 Y102.566 E.02248 ; infill
G1 X137.084 Y88.532 E.88378 ; infill
G1 X136.579 Y88.532 E.02248 ; infill
G1 X151.118 Y103.071 E.91558 ; infill
G1 X151.118 Y103.576 E.02248 ; infill
M73 P2 R38
G1 X136.074 Y88.532 E.94737 ; infill
G1 X135.569 Y88.532 E.02248 ; infill
G1 X151.118 Y104.081 E.97917 ; infill
G1 X151.118 Y104.586 E.02248 ; infill
G1 X135.064 Y88.532 E1.01096 ; infill
G1 X134.559 Y88.532 E.02248 ; infill
M73 P3 R38
M73 Q3 S39
G1 X151.118 Y105.091 E1.04276 ; infill
G1 X151.118 Y105.596 E.02248 ; infill
G1 X134.054 Y88.532 E1.07455 ; infill
G1 X133.549 Y88.532 E.02248 ; infill
G1 X151.118 Y106.101 E1.10635 ; infill
G1 X151.118 Y106.606 E.02248 ; infill
G1 X133.044 Y88.532 E1.13815 ; infill
G1 X132.539 Y88.532 E.02248 ; infill
G1 X151.118 Y107.111 E1.16994 ; infill
G1 X151.118 Y107.615 E.02248 ; infill
G1 X132.035 Y88.532 E1.20174 ; infill
G1 X131.53 Y88.532 E.02248 ; infill
G1 X151.118 Y108.12 E1.23353 ; infill
G1 X151.118 Y108.625 E.02248 ; infill
G1 X131.025 Y88.532 E1.26533 ; infill
G1 X130.52 Y88.532 E.02248 ; infill
G1 X151.118 Y109.13 E1.29712 ; infill
G1 X151.118 Y109.635 E.02248 ; infill
G1 X130.015 Y88.532 E1.32892 ; infill
G1 X129.51 Y88.532 E.02248 ; infill
G1 X151.118 Y110.14 E1.36071 ; infill
G1 X151.118 Y110.645 E.02248 ; infill
M73 Q3 S38
G1 X129.005 Y88.532 E1.39251 ; infill
G1 X128.5 Y88.532 E.02248 ; infill
G1 X151.118 Y111.15 E1.4243 ; infill
G1 X151.118 Y111.655 E.02248 ; infill
G1 X127.995 Y88.532 E1.4561 ; infill
G1 X127.49 Y88.532 E.02248 ; infill
G1 X151.118 Y112.16 E1.4879 ; infill
G1 X151.118 Y112.664 E.02248 ; infill
G1 X126.986 Y88.532 E1.51969 ; infill
G1 X126.481 Y88.532 E.02248 ; infill
G1 X151.118 Y113.169 E1.55149 ; infill
G1 X151.118 Y113.674 E.02248 ; infill
M73 P4 R38
M73 Q4 S38
G1 X125.976 Y88.532 E1.58328 ; infill
G1 X125.471 Y88.532 E.02248 ; infill
G1 X151.118 Y114.179 E1.61508 ; infill
G1 X151.118 Y114.684 E.02248 ; infill
G1 X124.966 Y88.532 E1.64687 ; infill
G1 X124.461 Y88.532 E.02248 ; infill
G1 X151.118 Y115.189 E1.67867 ; infill
G1 X151.118 Y115.694 E.02248 ; infill
G1 X123.956 Y88.532 E1.71046 ; infill
G1 X123.451 Y88.532 E.02248 ; infill
G1 X151.118 Y116.199 E1.74226 ; infill
G1 X151.118 Y116.704 E.02248 ; infill
G1 X122.946 Y88.532 E1.77405 ; infill
G1 X122.441 Y88.532 E.02248 ; infill
G1 X151.118 Y117.209 E1.80585 ; infill
G1 X151.118 Y117.713 E.02248 ; infill
G1 X121.937 Y88.532 E1.83765 ; infill
G1 X121.432 Y88.532 E.02248 ; infill
G1 X151.118 Y118.218 E1.86944 ; infill
G1 X151.118 Y118.723 E.02248 ; infill
G1 X120.927 Y88.532 E1.90124 ; infill
G1 X120.422 Y88.532 E.02248 ; infill
G1 X151.118 Y119.228 E1.93303 ; infill
G1 X151.118 Y119.733 E.02248 ; infill
M73 P5 R38
M73 Q5 S38
G1 X119.917 Y88.532 E1.96483 ; infill
G1 X119.412 Y88.532 E.02248 ; infill
G1 X151.118 Y120.238 E1.99662 ; infill
G1 X151.118 Y120.743 E.02248 ; infill
G1 X118.907 Y88.532 E2.02842 ; infill
G1 X118.402 Y88.532 E.02248 ; infill
M73 P5 R37
G1 X151.118 Y121.248 E2.06021 ; infill
G1 X151.118 Y121.753 E.02248 ; infill
G1 X117.897 Y88.532 E2.09201 ; infill
G1 X117.392 Y88.532 E.02248 ; infill
G1 X151.118 Y122.258 E2.12381 ; infill
G1 X151.118 Y122.762 E.02248 ; infill
G1 X116.888 Y88.532 E2.1556 ; infill
G1 X116.383 Y88.532 E.02248 ; infill
G1 X151.118 Y123.267 E2.1874 ; infill
G1 X151.118 Y123.772 E.02248 ; infill
G1 X115.878 Y88.532 E2.21919 ; infill
G1 X115.373 Y88.532 E.02248 ; infill
G1 X151.118 Y124.277 E2.25099 ; infill
G1 X151.118 Y124.782 E.02248 ; infill
M73 P6 R37
M73 Q6 S38
G1 X114.868 Y88.532 E2.28278 ; infill
G1 X114.363 Y88.532 E.02248 ; infill
M73 Q6 S37
G1 X151.118 Y125.287 E2.31458 ; infill
G1 X151.118 Y125.792 E.02248 ; infill
G1 X113.858 Y88.532 E2.34637 ; infill
G1 X113.353 Y88.532 E.02248 ; infill
G1 X151.118 Y126.297 E2.37817 ; infill
G1 X151.118 Y126.468 E.00761 ; infill
G1 X150.784 Y126.468 E.01487 ; infill
G1 X112.848 Y88.532 E2.38894 ; infill
G1 X112.344 Y88.532 E.02248 ; infill
G1 X150.279 Y126.468 E2.38894 ; infill
G1 X149.774 Y126.468 E.02248 ; infill
G1 X111.839 Y88.532 E2.38894 ; infill
G1 X111.334 Y88.532 E.02248 ; infill
G1 X149.269 Y126.468 E2.38894 ; infill
G1 X148.764 Y126.468 E.02248 ; infill
G1 X110.829 Y88.532 E2.38894 ; infill
G1 X110.324 Y88.532 E.02248 ; infill
M73 P7 R37
M73 Q7 S37
G1 X148.259 Y126.468 E2.38894 ; infill
G1 X147.754 Y126.468 E.02248 ; infill
G1 X109.819 Y88.532 E2.38894 ; infill
G1 X109.314 Y88.532 E.02248 ; infill
G1 X147.249 Y126.468 E2.38894 ; infill
G1 X146.745 Y126.468 E.02248 ; infill
G1 X108.809 Y88.532 E2.38894 ; infill
G1 X108.304 Y88.532 E.02248 ; infill
G1 X146.24 Y126.468 E2.38894 ; infill
G1 X145.735 Y126.468 E.02248 ; infill
G1 X107.799 Y88.532 E2.38894 ; infill
G1 X107.295 Y88.532 E.02248 ; infill
G1 X145.23 Y126.468 E2.38894 ; infill
G1 X144.725 Y126.468 E.02248 ; infill
M73 P7 R36
G1 X106.79 Y88.532 E2.38894 ; infill
G1 X106.285 Y88.532 E.02248 ; infill
G1 X144.22 Y126.468 E2.38894 ; infill
G1 X143.715 Y126.468 E.02248 ; infill
M73 P8 R36
M73 Q8 S37
G1 X105.78 Y88.532 E2.38894 ; infill
G1 X105.275 Y88.532 E.02248 ; infill
G1 X143.21 Y126.468 E2.38894 ; infill
G1 X142.705 Y126.468 E.02248 ; infill
G1 X104.77 Y88.532 E2.38894 ; infill
G1 X104.265 Y88.532 E.02248 ; infill
G1 X142.2 Y126.468 E2.38894 ; infill
G1 X141.696 Y126.468 E.02248 ; infill
G1 X103.76 Y88.532 E2.38894 ; infill
G1 X103.255 Y88.532 E.02248 ; infill
M73 Q8 S36
G1 X141.191 Y126.468 E2.38894 ; infill
G1 X140.686 Y126.468 E.02248 ; infill
G1 X102.75 Y88.532 E2.38894 ; infill
G1 X102.246 Y88.532 E.02248 ; infill
G1 X140.181 Y126.468 E2.38894 ; infill
G1 X139.676 Y126.468 E.02248 ; infill
G1 X101.741 Y88.532 E2.38894 ; infill
G1 X101.236 Y88.532 E.02248 ; infill
M73 P9 R36
M73 Q9 S36
G1 X139.171 Y126.468 E2.38894 ; infill
G1 X138.666 Y126.468 E.02248 ; infill
G1 X100.731 Y88.532 E2.38894 ; infill
G1 X100.226 Y88.532 E.02248 ; infill
G1 X138.161 Y126.468 E2.38894 ; infill
G1 X137.656 Y126.468 E.02248 ; infill
G1 X99.721 Y88.532 E2.38894 ; infill
G1 X99.216 Y88.532 E.02248 ; infill
G1 X137.151 Y126.468 E2.38894 ; infill
G1 X136.647 Y126.468 E.02248 ; infill
G1 X98.882 Y88.703 E2.37816 ; infill
G1 X98.882 Y89.208 E.02248 ; infill
G1 X136.142 Y126.468 E2.34637 ; infill
G1 X135.637 Y126.468 E.02248 ; infill
G1 X98.882 Y89.713 E2.31457 ; infill
G1 X98.882 Y90.218 E.02248 ; infill
M73 P10 R36
G1 X135.132 Y126.468 E2.28277 ; infill
G1 X134.627 Y126.468 E.02248 ; infill
M73 Q10 S36
G1 X98.882 Y90.723 E2.25098 ; infill
G1 X98.882 Y91.228 E.02248 ; infill
G1 X134.122 Y126.468 E2.21918 ; infill
G1 X133.617 Y126.468 E.02248 ; infill
M73 P10 R35
G1 X98.882 Y91.733 E2.18739 ; infill
G1 X98.882 Y92.238 E.02248 ; infill
