; generated by PrusaSlicer 2.4.2 on 2022-07-23 at 13:32:53 UTC

; 

; external perimeters extrusion width = 0.45mm
; perimeters extrusion width = 0.45mm
; infill extrusion width = 0.45mm
; solid infill extrusion width = 0.45mm
; top infill extrusion width = 0.40mm
; support material extrusion width = 0.35mm
; first layer extrusion width = 0.42mm

M73 P0 R81
M73 Q0 S81
M107
;TYPE:Custom
M862.3 P "MK3S" ; printer model check
M862.1 P0.4 ; nozzle diameter check
M115 U3.10.0 ; tell printer latest fw version
G90 ; use absolute coordinates
M83 ; extruder relative mode
M104 S240 ; set extruder temp
M140 S85 ; set bed temp
M190 S85 ; wait for bed temp
M109 S240 ; wait for extruder temp
G28 W ; home all without mesh bed level
G80 ; mesh bed leveling
G1 Z0.2 F720
G1 Y-3 F1000 ; go outside print area
G92 E0
G1 X60 E9 F1000 ; intro line
G1 X100 E12.5 F1000 ; intro line
G92 E0
M221 S95

; Don't change E values below. Excessive value can damage the printer.
M907 E430 ; set extruder motor current
G21 ; set units to millimeters
G90 ; use absolute coordinates
M83 ; use relative distances for extrusion
M900 K0.08 ; Filament gcode LA 1.5
M900 K45 ; Filament gcode LA 1.0
M107
;LAYER_CHANGE
;Z:0.2
;HEIGHT:0.2
;BEFORE_LAYER_CHANGE
G92 E0.0
;0.2


G1 E-1 F2100
G1 Z.2 F720
;AFTER_LAYER_CHANGE
;0.2
G1 Z.4
G1 X95.765 Y84.443 F10800
G1 Z.2 F720
G1 E1 F2100
M204 S800
;TYPE:Skirt/Brim
;WIDTH:0.42
G1 F1200
G1 X97.079 Y83.47 E.05129
G1 X128.334 Y74.275 E1.02149
G1 X129.005 Y74.178 E.02125
G1 X141.856 Y74.178 E.40294
G1 X143.431 Y74.775 E.05281
G1 X153.825 Y83.97 E.43512
G1 X154.627 Y85.75 E.06123
G1 X154.627 Y129.25 E1.36391
G1 X154.235 Y130.557 E.04278
M73 P0 R80
G1 X153.19 Y131.433 E.04278
G1 X152.25 Y131.627 E.03008
G1 X97.75 Y131.627 E1.70881
G1 X96.443 Y131.235 E.04278
G1 X95.567 Y130.19 E.04278
G1 X95.373 Y129.25 E.03008
G1 X95.373 Y85.75 E1.36391
G1 X95.747 Y84.5 E.0409
M204 S1000
; printing object servoHolder-Body_1.stl id:0 copy 0
;WIPE_START
G1 F8640
G1 X97.079 Y83.47 E-.38889
G1 X99.41 Y82.784 E-.56111
;WIPE_END
G1 E-.05 F2100
G1 Z.4 F720
G1 X141.856 Y85.27 F10800
G1 Z.2 F720
G1 E1 F2100
M204 S800
;TYPE:Support material
G1 F1200
G1 X129.005 Y85.27 E.40294
G1 X129.005 Y76.555 E.27324
G1 X141.856 Y76.555 E.40294
G1 X141.856 Y85.213 E.27147
M204 S1000
G1 X141.34 Y85.1 F10800
M204 S800
G1 F1200
G1 X141.34 Y76.895 E.25728
G1 X140.921 Y76.895 E.01314
G1 X140.921 Y84.931 E.25196
G1 X140.502 Y84.931 E.01314
G1 X140.502 Y76.895 E.25196
G1 X140.083 Y76.895 E.01314
G1 X140.083 Y84.931 E.25196
G1 X139.664 Y84.931 E.01314
G1 X139.664 Y76.895 E.25196
G1 X139.245 Y76.895 E.01314
G1 X139.245 Y84.931 E.25196
G1 X138.826 Y84.931 E.01314
G1 X138.826 Y76.895 E.25196
G1 X138.407 Y76.895 E.01314
G1 X138.407 Y84.931 E.25196
G1 X137.988 Y84.931 E.01314
G1 X137.988 Y76.895 E.25196
G1 X137.569 Y76.895 E.01314
G1 X137.569 Y84.931 E.25196
G1 X137.15 Y84.931 E.01314
G1 X137.15 Y76.895 E.25196
G1 X136.731 Y76.895 E.01314
G1 X136.731 Y84.931 E.25196
G1 X136.312 Y84.931 E.01314
G1 X136.312 Y76.895 E.25196
G1 X135.893 Y76.895 E.01314
G1 X135.893 Y84.931 E.25196
G1 X135.474 Y84.931 E.01314
G1 X135.474 Y76.895 E.25196
G1 X135.055 Y76.895 E.01314
G1 X135.055 Y84.931 E.25196
G1 X134.636 Y84.931 E.01314
G1 X134.636 Y76.895 E.25196
G1 X134.217 Y76.895 E.01314
G1 X134.217 Y84.931 E.25196
G1 X133.799 Y84.931 E.01314
G1 X133.799 Y76.895 E.25196
G1 X133.38 Y76.895 E.01314
G1 X133.38 Y84.931 E.25196
G1 X132.961 Y84.931 E.01314
G1 X132.961 Y76.895 E.25196
G1 X132.542 Y76.895 E.01314
G1 X132.542 Y84.931 E.25196
G1 X132.123 Y84.931 E.01314
G1 X132.123 Y76.895 E.25196
G1 X131.704 Y76.895 E.01314
G1 X131.704 Y84.931 E.25196
G1 X131.285 Y84.931 E.01314
G1 X131.285 Y76.895 E.25196
G1 X130.866 Y76.895 E.01314
G1 X130.866 Y84.931 E.25196
G1 X130.447 Y84.931 E.01314
G1 X130.447 Y76.895 E.25196
G1 X130.028 Y76.895 E.01314
G1 X130.028 Y84.931 E.25196
G1 X129.609 Y84.931 E.01314
G1 X129.609 Y76.725 E.25728
M204 S1000
;WIPE_START
G1 F8640
G1 X129.609 Y80.839 E-.95
;WIPE_END
G1 E-.05 F2100
G1 Z.4 F720
G1 X151.463 Y86.537 F10800
G1 Z.2 F720
G1 E1 F2100
M204 S800
;TYPE:Perimeter
G1 F1200
G1 X151.463 Y128.463 E1.31456
G1 X98.537 Y128.463 E1.65945
G1 X98.537 Y86.537 E1.31456
G1 X151.403 Y86.537 E1.65757
M204 S1000
G1 X151.84 Y86.16 F10800
M204 S800
;TYPE:External perimeter
G1 F1200
G1 X151.84 Y128.84 E1.3382
G1 X98.16 Y128.84 E1.6831
G1 X98.16 Y86.16 E1.3382
M73 Q0 S80
G1 X151.78 Y86.16 E1.68122
M204 S1000
M73 P1 R80
M73 Q1 S80
G1 X151.722 Y86.542 F10800
;WIPE_START
G1 F8640
G1 X151.786 Y90.274 E-.95
;WIPE_END
G1 E-.05 F2100
G1 Z.4 F720
G1 X151.35 Y87.413 F10800
G1 Z.2 F720
G1 E1 F2100
M204 S800
;TYPE:Solid infill
;WIDTH:0.420341
G1 F1200
G1 X150.757 Y86.82 E.02633
G1 X150.223 Y86.82 E.01675
G1 X151.18 Y87.777 E.04249
G1 X151.18 Y88.311 E.01675
G1 X149.689 Y86.82 E.06618
G1 X149.155 Y86.82 E.01675
G1 X151.18 Y88.845 E.08987
G1 X151.18 Y89.379 E.01675
G1 X148.621 Y86.82 E.11356
G1 X148.088 Y86.82 E.01675
G1 X151.18 Y89.912 E.13725
G1 X151.18 Y90.446 E.01675
G1 X147.554 Y86.82 E.16093
G1 X147.02 Y86.82 E.01675
G1 X151.18 Y90.98 E.18462
G1 X151.18 Y91.514 E.01675
G1 X146.486 Y86.82 E.20831
G1 X145.953 Y86.82 E.01675
G1 X151.18 Y92.047 E.232
G1 X151.18 Y92.581 E.01675
G1 X145.419 Y86.82 E.25569
G1 X144.885 Y86.82 E.01675
G1 X151.18 Y93.115 E.27938
G1 X151.18 Y93.649 E.01675
G1 X144.351 Y86.82 E.30307
G1 X143.818 Y86.82 E.01675
G1 X151.18 Y94.182 E.32676
G1 X151.18 Y94.716 E.01675
G1 X143.284 Y86.82 E.35045
G1 X142.75 Y86.82 E.01675
G1 X151.18 Y95.25 E.37414
G1 X151.18 Y95.784 E.01675
G1 X142.216 Y86.82 E.39782
G1 X141.683 Y86.82 E.01675
G1 X151.18 Y96.317 E.42151
G1 X151.18 Y96.851 E.01675
G1 X141.149 Y86.82 E.4452
G1 X140.615 Y86.82 E.01675
G1 X151.18 Y97.385 E.46889
G1 X151.18 Y97.919 E.01675
G1 X140.081 Y86.82 E.49258
G1 X139.548 Y86.82 E.01675
G1 X151.18 Y98.452 E.51627
G1 X151.18 Y98.986 E.01675
G1 X139.014 Y86.82 E.53996
G1 X138.48 Y86.82 E.01675
G1 X151.18 Y99.52 E.56365
G1 X151.18 Y100.054 E.01675
G1 X137.946 Y86.82 E.58734
G1 X137.413 Y86.82 E.01675
G1 X151.18 Y100.587 E.61103
G1 X151.18 Y101.121 E.01675
G1 X136.879 Y86.82 E.63471
G1 X136.345 Y86.82 E.01675
G1 X151.18 Y101.655 E.6584
G1 X151.18 Y102.189 E.01675
G1 X135.811 Y86.82 E.68209
G1 X135.278 Y86.82 E.01675
G1 X151.18 Y102.722 E.70578
G1 X151.18 Y103.256 E.01675
G1 X134.744 Y86.82 E.72947
G1 X134.21 Y86.82 E.01675
M73 P1 R79
G1 X151.18 Y103.79 E.75316
G1 X151.18 Y104.324 E.01675
G1 X133.676 Y86.82 E.77685
G1 X133.143 Y86.82 E.01675
G1 X151.18 Y104.857 E.80054
G1 X151.18 Y105.391 E.01675
G1 X132.609 Y86.82 E.82423
G1 X132.075 Y86.82 E.01675
G1 X151.18 Y105.925 E.84792
G1 X151.18 Y106.459 E.01675
G1 X131.541 Y86.82 E.8716
G1 X131.008 Y86.82 E.01675
G1 X151.18 Y106.992 E.89529
G1 X151.18 Y107.526 E.01675
G1 X130.474 Y86.82 E.91898
G1 X129.94 Y86.82 E.01675
G1 X151.18 Y108.06 E.94267
G1 X151.18 Y108.594 E.01675
G1 X129.406 Y86.82 E.96636
G1 X128.873 Y86.82 E.01675
G1 X151.18 Y109.127 E.99005
G1 X151.18 Y109.661 E.01675
G1 X128.339 Y86.82 E1.01374
G1 X127.805 Y86.82 E.01675
G1 X151.18 Y110.195 E1.03743
G1 X151.18 Y110.729 E.01675
G1 X127.271 Y86.82 E1.06112
G1 X126.738 Y86.82 E.01675
G1 X151.18 Y111.262 E1.0848
G1 X151.18 Y111.796 E.01675
G1 X126.204 Y86.82 E1.10849
G1 X125.67 Y86.82 E.01675
M73 P2 R79
M73 Q2 S80
G1 X151.18 Y112.33 E1.13218
G1 X151.18 Y112.864 E.01675
G1 X125.136 Y86.82 E1.15587
G1 X124.603 Y86.82 E.01675
G1 X151.18 Y113.397 E1.17956
G1 X151.18 Y113.931 E.01675
G1 X124.069 Y86.82 E1.20325
G1 X123.535 Y86.82 E.01675
G1 X151.18 Y114.465 E1.22694
G1 X151.18 Y114.999 E.01675
M73 Q2 S79
G1 X123.001 Y86.82 E1.25063
G1 X122.468 Y86.82 E.01675
G1 X151.18 Y115.532 E1.27432
G1 X151.18 Y116.066 E.01675
G1 X121.934 Y86.82 E1.29801
G1 X121.4 Y86.82 E.01675
G1 X151.18 Y116.6 E1.32169
G1 X151.18 Y117.134 E.01675
G1 X120.866 Y86.82 E1.34538
G1 X120.333 Y86.82 E.01675
G1 X151.18 Y117.667 E1.36907
G1 X151.18 Y118.201 E.01675
G1 X119.799 Y86.82 E1.39276
G1 X119.265 Y86.82 E.01675
G1 X151.18 Y118.735 E1.41645
G1 X151.18 Y119.269 E.01675
G1 X118.731 Y86.82 E1.44014
G1 X118.198 Y86.82 E.01675
G1 X151.18 Y119.802 E1.46383
G1 X151.18 Y120.336 E.01675
G1 X117.664 Y86.82 E1.48752
G1 X117.13 Y86.82 E.01675
G1 X151.18 Y120.87 E1.51121
G1 X151.18 Y121.404 E.01675
M73 P2 R78
G1 X116.596 Y86.82 E1.5349
G1 X116.062 Y86.82 E.01675
G1 X151.18 Y121.938 E1.55858
G1 X151.18 Y122.471 E.01675
G1 X115.529 Y86.82 E1.58227
G1 X114.995 Y86.82 E.01675
G1 X151.18 Y123.005 E1.60596
G1 X151.18 Y123.539 E.01675
G1 X114.461 Y86.82 E1.62965
G1 X113.927 Y86.82 E.01675
M73 P3 R78
M73 Q3 S79
G1 X151.18 Y124.073 E1.65334
G1 X151.18 Y124.606 E.01675
G1 X113.394 Y86.82 E1.67703
G1 X112.86 Y86.82 E.01675
G1 X151.18 Y125.14 E1.70072
G1 X151.18 Y125.674 E.01675
G1 X112.326 Y86.82 E1.72441
G1 X111.792 Y86.82 E.01675
G1 X151.18 Y126.208 E1.7481
G1 X151.18 Y126.741 E.01675
G1 X111.259 Y86.82 E1.77178
G1 X110.725 Y86.82 E.01675
G1 X151.18 Y127.275 E1.79547
G1 X151.18 Y127.809 E.01675
M73 Q3 S78
G1 X110.191 Y86.82 E1.81916
G1 X109.657 Y86.82 E.01675
G1 X151.018 Y128.18 E1.83564
G1 X150.484 Y128.18 E.01675
G1 X109.124 Y86.82 E1.83564
G1 X108.59 Y86.82 E.01675
G1 X149.95 Y128.18 E1.83564
G1 X149.416 Y128.18 E.01675
G1 X108.056 Y86.82 E1.83564
G1 X107.522 Y86.82 E.01675
G1 X148.883 Y128.18 E1.83564
G1 X148.349 Y128.18 E.01675
G1 X106.989 Y86.82 E1.83564
G1 X106.455 Y86.82 E.01675
G1 X147.815 Y128.18 E1.83564
G1 X147.281 Y128.18 E.01675
G1 X105.921 Y86.82 E1.83564
G1 X105.387 Y86.82 E.01675
M73 P3 R77
G1 X146.748 Y128.18 E1.83564
G1 X146.214 Y128.18 E.01675
M73 P4 R77
M73 Q4 S78
G1 X104.854 Y86.82 E1.83564
G1 X104.32 Y86.82 E.01675
G1 X145.68 Y128.18 E1.83564
G1 X145.146 Y128.18 E.01675
G1 X103.786 Y86.82 E1.83564
G1 X103.252 Y86.82 E.01675
G1 X144.613 Y128.18 E1.83564
G1 X144.079 Y128.18 E.01675
G1 X102.719 Y86.82 E1.83564
G1 X102.185 Y86.82 E.01675
G1 X143.545 Y128.18 E1.83564
G1 X143.011 Y128.18 E.01675
G1 X101.651 Y86.82 E1.83564
G1 X101.117 Y86.82 E.01675
G1 X142.478 Y128.18 E1.83564
G1 X141.944 Y128.18 E.01675
G1 X100.584 Y86.82 E1.83564
G1 X100.05 Y86.82 E.01675
G1 X141.41 Y128.18 E1.83564
G1 X140.876 Y128.18 E.01675
G1 X99.516 Y86.82 E1.83564
G1 X98.982 Y86.82 E.01675
M73 Q4 S77
G1 X140.343 Y128.18 E1.83564
G1 X139.809 Y128.18 E.01675
G1 X98.82 Y87.191 E1.81917
G1 X98.82 Y87.725 E.01675
G1 X139.275 Y128.18 E1.79548
G1 X138.741 Y128.18 E.01675
G1 X98.82 Y88.259 E1.77179
G1 X98.82 Y88.792 E.01675
G1 X138.208 Y128.18 E1.7481
G1 X137.674 Y128.18 E.01675
G1 X98.82 Y89.326 E1.72441
G1 X98.82 Y89.86 E.01675
M73 P5 R77
M73 Q5 S77
G1 X137.14 Y128.18 E1.70072
G1 X136.606 Y128.18 E.01675
G1 X98.82 Y90.394 E1.67703
G1 X98.82 Y90.927 E.01675
G1 X136.073 Y128.18 E1.65334
G1 X135.539 Y128.18 E.01675
M73 P5 R76
G1 X98.82 Y91.461 E1.62965
G1 X98.82 Y91.995 E.01675
G1 X135.005 Y128.18 E1.60597
G1 X134.471 Y128.18 E.01675
G1 X98.82 Y92.529 E1.58228
G1 X98.82 Y93.062 E.01675
G1 X133.938 Y128.18 E1.55859
G1 X133.404 Y128.18 E.01675
G1 X98.82 Y93.596 E1.5349
G1 X98.82 Y94.13 E.01675
G1 X132.87 Y128.18 E1.51121
G1 X132.336 Y128.18 E.01675
G1 X98.82 Y94.664 E1.48752
G1 X98.82 Y95.197 E.01675
G1 X131.803 Y128.18 E1.46383
G1 X131.269 Y128.18 E.01675
G1 X98.82 Y95.731 E1.44014
G1 X98.82 Y96.265 E.01675
G1 X130.735 Y128.18 E1.41645
G1 X130.201 Y128.18 E.01675
G1 X98.82 Y96.799 E1.39276
G1 X98.82 Y97.332 E.01675
G1 X129.668 Y128.18 E1.36908
G1 X129.134 Y128.18 E.01675
G1 X98.82 Y97.866 E1.34539
G1 X98.82 Y98.4 E.01675
G1 X128.6 Y128.18 E1.3217
G1 X128.066 Y128.18 E.01675
M73 Q5 S76
G1 X98.82 Y98.934 E1.29801
G1 X98.82 Y99.467 E.01675
G1 X127.533 Y128.18 E1.27432
G1 X126.999 Y128.18 E.01675
G1 X98.82 Y100.001 E1.25063
G1 X98.82 Y100.535 E.01675
M73 P6 R76
M73 Q6 S76
G1 X126.465 Y128.18 E1.22694
G1 X125.931 Y128.18 E.01675
G1 X98.82 Y101.069 E1.20325
G1 X98.82 Y101.602 E.01675
G1 X125.398 Y128.18 E1.17956
G1 X124.864 Y128.18 E.01675
G1 X98.82 Y102.136 E1.15587
G1 X98.82 Y102.67 E.01675
G1 X124.33 Y128.18 E1.13219
G1 X123.796 Y128.18 E.01675
G1 X98.82 Y103.204 E1.1085
G1 X98.82 Y103.738 E.01675
G1 X123.262 Y128.18 E1.08481
G1 X122.729 Y128.18 E.01675
G1 X98.82 Y104.271 E1.06112
G1 X98.82 Y104.805 E.01675
G1 X122.195 Y128.18 E1.03743
G1 X121.661 Y128.18 E.01675
G1 X98.82 Y105.339 E1.01374
G1 X98.82 Y105.873 E.01675
G1 X121.127 Y128.18 E.99005
G1 X120.594 Y128.18 E.01675
M73 P6 R75
G1 X98.82 Y106.406 E.96636
G1 X98.82 Y106.94 E.01675
G1 X120.06 Y128.18 E.94267
G1 X119.526 Y128.18 E.01675
G1 X98.82 Y107.474 E.91899
G1 X98.82 Y108.008 E.01675
G1 X118.992 Y128.18 E.8953
G1 X118.459 Y128.18 E.01675
G1 X98.82 Y108.541 E.87161
G1 X98.82 Y109.075 E.01675
G1 X117.925 Y128.18 E.84792
G1 X117.391 Y128.18 E.01675
G1 X98.82 Y109.609 E.82423
G1 X98.82 Y110.143 E.01675
G1 X116.857 Y128.18 E.80054
G1 X116.324 Y128.18 E.01675
G1 X98.82 Y110.676 E.77685
G1 X98.82 Y111.21 E.01675
G1 X115.79 Y128.18 E.75316
G1 X115.256 Y128.18 E.01675
G1 X98.82 Y111.744 E.72947
G1 X98.82 Y112.278 E.01675
G1 X114.722 Y128.18 E.70578
G1 X114.189 Y128.18 E.01675
G1 X98.82 Y112.811 E.6821
G1 X98.82 Y113.345 E.01675
G1 X113.655 Y128.18 E.65841
G1 X113.121 Y128.18 E.01675
G1 X98.82 Y113.879 E.63472
G1 X98.82 Y114.413 E.01675
G1 X112.587 Y128.18 E.61103
G1 X112.054 Y128.18 E.01675
G1 X98.82 Y114.946 E.58734
G1 X98.82 Y115.48 E.01675
G1 X111.52 Y128.18 E.56365
G1 X110.986 Y128.18 E.01675
G1 X98.82 Y116.014 E.53996
G1 X98.82 Y116.548 E.01675
G1 X110.452 Y128.18 E.51627
G1 X109.919 Y128.18 E.01675
G1 X98.82 Y117.081 E.49258
G1 X98.82 Y117.615 E.01675
G1 X109.385 Y128.18 E.46889
G1 X108.851 Y128.18 E.01675
G1 X98.82 Y118.149 E.44521
G1 X98.82 Y118.683 E.01675
G1 X108.317 Y128.18 E.42152
G1 X107.784 Y128.18 E.01675
M73 P7 R75
G1 X98.82 Y119.216 E.39783
G1 X98.82 Y119.75 E.01675
G1 X107.25 Y128.18 E.37414
G1 X106.716 Y128.18 E.01675
G1 X98.82 Y120.284 E.35045
G1 X98.82 Y120.818 E.01675
M73 Q7 S76
G1 X106.182 Y128.18 E.32676
G1 X105.649 Y128.18 E.01675
G1 X98.82 Y121.351 E.30307
G1 X98.82 Y121.885 E.01675
G1 X105.115 Y128.18 E.27938
G1 X104.581 Y128.18 E.01675
G1 X98.82 Y122.419 E.25569
G1 X98.82 Y122.953 E.01675
G1 X104.047 Y128.18 E.23201
G1 X103.514 Y128.18 E.01675
G1 X98.82 Y123.486 E.20832
G1 X98.82 Y124.02 E.01675
M73 Q7 S75
G1 X102.98 Y128.18 E.18463
G1 X102.446 Y128.18 E.01675
G1 X98.82 Y124.554 E.16094
G1 X98.82 Y125.088 E.01675
G1 X101.912 Y128.18 E.13725
G1 X101.379 Y128.18 E.01675
G1 X98.82 Y125.621 E.11356
G1 X98.82 Y126.155 E.01675
G1 X100.845 Y128.18 E.08987
G1 X100.311 Y128.18 E.01675
G1 X98.82 Y126.689 E.06618
G1 X98.82 Y127.223 E.01675
G1 X99.777 Y128.18 E.04249
G1 X99.244 Y128.18 E.01675
G1 X98.65 Y127.587 E.02634
M204 S1000
; stop printing object servoHolder-Body_1.stl id:0 copy 0
;LAYER_CHANGE
;Z:0.35
;HEIGHT:0.15
;BEFORE_LAYER_CHANGE
G92 E0.0
;0.35


;WIPE_START
G1 F8640
G1 X99.244 Y128.18 E-.19377
G1 X99.777 Y128.18 E-.12325
G1 X98.82 Y127.223 E-.31265
G1 X98.82 Y126.689 E-.12325
G1 X99.423 Y127.292 E-.19709
;WIPE_END
G1 E-.05 F2100
G1 Z.4 F720
;AFTER_LAYER_CHANGE
;0.35
M104 S250 ; set temperature
M140 S90 ; set bed temperature
G1 X95.373 Y127.292 F10800
G1 Z.35 F720
G1 E1 F2100
;TYPE:Skirt/Brim
;WIDTH:0.42
G1 F3000
G1 X95.373 Y85.75 E1.0047
G1 X95.765 Y84.443 E.033
G1 X97.079 Y83.47 E.03956
G1 X128.334 Y74.275 E.78792
G1 X129.005 Y74.178 E.01639
G1 X141.856 Y74.178 E.3108
G1 X143.431 Y74.775 E.04073
G1 X153.825 Y83.97 E.33563
G1 X154.627 Y85.75 E.04723
G1 X154.627 Y129.25 E1.05204
G1 X154.235 Y130.557 E.033
G1 X153.19 Y131.433 E.033
G1 X152.25 Y131.627 E.02321
G1 X97.75 Y131.627 E1.31808
G1 X96.443 Y131.235 E.033
G1 X95.567 Y130.19 E.033
G1 X95.373 Y129.25 E.02321
G1 X95.373 Y127.352 E.04589
; printing object servoHolder-Body_1.stl id:0 copy 0
;WIPE_START
G1 F8640
G1 X95.373 Y123.238 E-.95
;WIPE_END
G1 E-.05 F2100
G1 Z.55 F720
G1 X98.393 Y128.607 F10800
G1 Z.35 F720
G1 E1 F2100
M204 S800
;TYPE:Perimeter
;WIDTH:0.45
G1 F2700
G1 X98.393 Y86.393 E1.09993
G1 X151.607 Y86.393 E1.38654
G1 X151.607 Y128.607 E1.09993
G1 X98.453 Y128.607 E1.38498
M204 S1000
G1 X97.975 Y129.025 F10800
M204 S800
;TYPE:External perimeter
G1 F1500
G1 X97.975 Y85.975 E1.1217
G1 X152.025 Y85.975 E1.40831
G1 X152.025 Y129.025 E1.1217
