; generated by PrusaSlicer 2.6.0 on 2023-07-09 at 11:16:50 UTC


;
;
; 

; external perimeters extrusion width = 0.60mm
; perimeters extrusion width = 0.50mm
; infill extrusion width = 0.50mm
; solid infill extrusion width = 0.50mm
; top infill extrusion width = 0.45mm
; support material extrusion width = 0.38mm
; first layer extrusion width = 0.42mm

M73 P0 R9
M73 Q0 S9
M201 X1000 Y1000 Z200 E5000 ; sets maximum accelerations, mm/sec^2
M203 X200 Y200 Z12 E120 ; sets maximum feedrates, mm / sec
M204 S1250 T1250 ; sets acceleration (S) and retract acceleration (R), mm/sec^2
M205 X8.00 Y8.00 Z0.40 E4.50 ; sets the jerk limits, mm/sec
M205 S0 T0 ; sets the minimum extruding and travel feed rate, mm/sec
;TYPE:Custom
M862.3 P "MK3S" ; printer model check
M862.1 P0.4 ; nozzle diameter check
M115 U3.11.0 ; tell printer latest fw version
G90 ; use absolute coordinates
M83 ; extruder relative mode
M104 S240 ; set extruder temp
M140 S95 ; set bed temp
M190 S95 ; wait for bed temp
M109 S240 ; wait for extruder temp
G28 W ; home all without mesh bed level
G80 ; mesh bed leveling

G1 Z0.2 F720
G1 Y-3 F1000 ; go outside print area
G92 E0
G1 X60 E9 F1000 ; intro line
G1 X100 E12.5 F1000 ; intro line

G92 E0
M221 S95

; Don't change E values below. Excessive value can damage the printer.

M907 E538 ; set extruder motor current
G21 ; set units to millimeters
G90 ; use absolute coordinates
M83 ; use relative distances for extrusion
M900 K0.08 ; Filament gcode LA 1.5
M900 K45 ; Filament gcode LA 1.0
M107 ; disable fan
;LAYER_CHANGE
;Z:0.3
;HEIGHT:0.3
;BEFORE_LAYER_CHANGE
G92 E0.0
;0.3


G1 E-1.4 F2100 ; retract
M73 P1 R9
M73 Q1 S9
G1 Z.2 F720 ; lift Z
G1 Z.3 ; move to next layer (0)
;AFTER_LAYER_CHANGE
;0.3
G1 Z.5 ; lift Z
G1 X107.036 Y81.7 F10800 ; move to first skirt point
G1 Z.3 F720 ; restore layer Z
G1 E1.4 F2100 ;  ; unretract
M204 S800 ; adjust acceleration
;TYPE:Skirt/Brim
;WIDTH:0.42
G1 F1200
G1 X108.08 Y80.831 E.06025 ; skirt
G1 X109 Y80.644 E.04164 ; skirt
G1 X141 Y80.644 E1.41935 ; skirt
G1 X142.3 Y81.036 E.06023 ; skirt
G1 X143.169 Y82.08 E.06025 ; skirt
G1 X143.356 Y83 E.04164 ; skirt
G1 X143.356 Y127 E1.95161 ; skirt
G1 X142.964 Y128.3 E.06023 ; skirt
M73 Q2 S9
G1 X141.92 Y129.169 E.06025 ; skirt
G1 X141 Y129.356 E.04164 ; skirt
G1 X109 Y129.356 E1.41935 ; skirt
M73 P2 R9
G1 X107.7 Y128.964 E.06023 ; skirt
G1 X106.831 Y127.92 E.06025 ; skirt
G1 X106.644 Y127 E.04164 ; skirt
G1 X106.644 Y83 E1.95161 ; skirt
G1 X107.019 Y81.757 E.05759 ; skirt
M204 S1000 ; adjust acceleration
; printing object ESP32CamCutOut-Body.stl id:0 copy 0
;WIPE_START
G1 F8640
G1 X108.08 Y80.831 E-.32517 ; wipe and retract
G1 X109 Y80.644 E-.21677 ; wipe and retract
G1 X112.716 Y80.644 E-.85806 ; wipe and retract
;WIPE_END
G1 Z.5 F720 ; lift Z
G1 X109.766 Y83.766 F10800 ; move to first perimeter point
G1 Z.3 F720 ; restore layer Z
G1 E1.4 F2100 ;  ; unretract
M204 S800 ; adjust acceleration
;TYPE:Perimeter
;WIDTH:0.42
G1 F1200
G1 X113.85 Y83.766 E.18114 ; perimeter
;WIDTH:0.448286
G1 X114.234 Y83.78 E.0184 ; perimeter
;WIDTH:0.476572
G1 X114.618 Y83.794 E.01975 ; perimeter
G1 X135.382 Y83.794 E1.06749 ; perimeter
G1 X135.766 Y83.78 E.01975 ; perimeter
;WIDTH:0.448286
M73 P3 R9
M73 Q3 S9
G1 X136.15 Y83.766 E.0184 ; perimeter
;WIDTH:0.42
G1 X140.234 Y83.766 E.18114 ; perimeter
G1 X140.234 Y85.537 E.07855 ; perimeter
G1 X140.234 Y126.234 E1.80511 ; perimeter
G1 X109.766 Y126.234 E1.3514 ; perimeter
G1 X109.766 Y83.826 E1.881 ; perimeter
M204 S1000 ; adjust acceleration
G1 X109.41 Y83.41 F10800 ; move to first perimeter point
M204 S800 ; adjust acceleration
;TYPE:External perimeter
M73 P4 R9
M73 Q4 S9
G1 F1200
G1 X140.59 Y83.41 E1.38298 ; perimeter
G1 X140.59 Y126.59 E1.91524 ; perimeter
G1 X109.41 Y126.59 E1.38298 ; perimeter
G1 X109.41 Y83.47 E1.91258 ; perimeter
M204 S1000 ; adjust acceleration
M73 P5 R9
M73 Q5 S9
G1 X109.79 Y83.534 F10800 ; move inwards before travel
;WIPE_START
G1 F8640
G1 X115.473 Y83.458 E-1.4 ; wipe and retract
;WIPE_END
G1 Z.5 F720 ; lift Z
G1 X112.095 Y87.241 F10800 ; move to first perimeter point
G1 Z.3 F720 ; restore layer Z
G1 E1.4 F2100 ;  ; unretract
M204 S800 ; adjust acceleration
;TYPE:Perimeter
G1 F1200
G1 X114.084 Y87.234 E.08822 ; perimeter
G1 X114.084 Y84.768 E.10938 ; perimeter
M73 P5 R8
G1 X114.191 Y84.448 E.01497 ; perimeter
;WIDTH:0.451195
G1 X114.356 Y84.33 E.00979 ; perimeter
;WIDTH:0.48239
G1 X114.52 Y84.212 E.01053 ; perimeter
G1 X114.618 Y84.206 E.00512 ; perimeter
;WIDTH:0.476572
G1 X135.382 Y84.206 E1.06749 ; perimeter
G1 X135.596 Y84.327 E.01264 ; perimeter
;WIDTH:0.448286
G1 X135.809 Y84.448 E.01173 ; perimeter
;WIDTH:0.42
G1 X135.916 Y84.768 E.01497 ; perimeter
G1 X135.916 Y87.234 E.10938 ; perimeter
G1 X137.882 Y87.234 E.0872 ; perimeter
G1 X138.192 Y87.333 E.01443 ; perimeter
G1 X138.349 Y87.51 E.01049 ; perimeter
G1 X138.416 Y87.768 E.01182 ; perimeter
G1 X138.416 Y109.232 E.95203 ; perimeter
G1 X138.353 Y109.483 E.01148 ; perimeter
M73 Q5 S8
G1 X138.202 Y109.659 E.01029 ; perimeter
G1 X138.032 Y109.744 E.00843 ; perimeter
G1 X137 Y109.766 E.04578 ; perimeter
G1 X134.918 Y109.766 E.09235 ; perimeter
G1 X134.598 Y109.659 E.01497 ; perimeter
;WIDTH:0.465986
M73 Q6 S8
G1 X134.507 Y109.551 E.00707 ; perimeter
;WIDTH:0.511972
G1 X134.416 Y109.444 E.00784 ; perimeter
;WIDTH:0.557958
G1 X134.324 Y109.336 E.00873 ; perimeter
G1 X134.319 Y109.232 E.00641 ; perimeter
;WIDTH:0.551572
G1 X134.319 Y99.768 E.57508 ; perimeter
G1 X134.341 Y99.561 E.01265 ; perimeter
;WIDTH:0.507714
M73 P6 R8
G1 X134.362 Y99.355 E.01145 ; perimeter
;WIDTH:0.463857
G1 X134.384 Y99.149 E.01032 ; perimeter
;WIDTH:0.42
G1 X134.384 Y97.766 E.06134 ; perimeter
G1 X115.616 Y97.766 E.83245 ; perimeter
G1 X115.616 Y99.149 E.06134 ; perimeter
;WIDTH:0.463857
G1 X115.638 Y99.355 E.01032 ; perimeter
;WIDTH:0.507714
G1 X115.659 Y99.561 E.01145 ; perimeter
;WIDTH:0.551572
G1 X115.681 Y99.768 E.01265 ; perimeter
G1 X115.681 Y109.232 E.57508 ; perimeter
;WIDTH:0.557957
G1 X115.676 Y109.336 E.00641 ; perimeter
G1 X115.584 Y109.444 E.00873 ; perimeter
;WIDTH:0.511971
G1 X115.493 Y109.551 E.00784 ; perimeter
;WIDTH:0.465985
G1 X115.402 Y109.659 E.00707 ; perimeter
;WIDTH:0.42
G1 X115.082 Y109.766 E.01497 ; perimeter
G1 X112.118 Y109.766 E.13147 ; perimeter
G1 X111.968 Y109.744 E.00672 ; perimeter
G1 X111.798 Y109.659 E.00843 ; perimeter
G1 X111.647 Y109.483 E.01029 ; perimeter
G1 X111.584 Y109.232 E.01148 ; perimeter
G1 X111.584 Y87.768 E.95203 ; perimeter
G1 X111.651 Y87.51 E.01182 ; perimeter
G1 X111.808 Y87.333 E.01049 ; perimeter
G1 X112.035 Y87.242 E.01085 ; perimeter
M204 S1000 ; adjust acceleration
G1 X112.118 Y87.59 F10800 ; move to first perimeter point
M204 S800 ; adjust acceleration
;TYPE:External perimeter
G1 F1200
G1 X114.44 Y87.59 E.10299 ; perimeter
G1 X114.44 Y84.768 E.12517 ; perimeter
G1 X114.476 Y84.661 E.00501 ; perimeter
G1 X114.618 Y84.59 E.00704 ; perimeter
G1 X135.382 Y84.59 E.92098 ; perimeter
G1 X135.524 Y84.661 E.00704 ; perimeter
G1 X135.56 Y84.768 E.00501 ; perimeter
G1 X135.56 Y87.59 E.12517 ; perimeter
G1 X137.882 Y87.59 E.10299 ; perimeter
G1 X137.985 Y87.623 E.0048 ; perimeter
G1 X138.06 Y87.768 E.00724 ; perimeter
G1 X138.06 Y109.232 E.95203 ; perimeter
G1 X137.989 Y109.374 E.00704 ; perimeter
M73 P7 R8
M73 Q7 S8
G1 X137.882 Y109.41 E.00501 ; perimeter
G1 X134.918 Y109.41 E.13147 ; perimeter
G1 X134.811 Y109.374 E.00501 ; perimeter
G1 X134.74 Y109.232 E.00704 ; perimeter
G1 X134.74 Y97.41 E.52436 ; perimeter
G1 X115.26 Y97.41 E.86403 ; perimeter
G1 X115.26 Y109.232 E.52436 ; perimeter
G1 X115.189 Y109.374 E.00704 ; perimeter
G1 X115.082 Y109.41 E.00501 ; perimeter
G1 X112.118 Y109.41 E.13147 ; perimeter
G1 X112.011 Y109.374 E.00501 ; perimeter
G1 X111.94 Y109.232 E.00704 ; perimeter
G1 X111.94 Y87.768 E.95203 ; perimeter
G1 X112.015 Y87.623 E.00724 ; perimeter
G1 X112.061 Y87.608 E.00215 ; perimeter
M204 S1000 ; adjust acceleration
G1 X112.221 Y87.204 F10800 ; move inwards before travel
;WIPE_START
G1 F8640
G1 X114.44 Y87.59 E-.54933 ; wipe and retract
G1 X114.44 Y84.768 E-.65161 ; wipe and retract
G1 X114.476 Y84.661 E-.02607 ; wipe and retract
G1 X114.618 Y84.59 E-.03666 ; wipe and retract
G1 X115.208 Y84.59 E-.13633 ; wipe and retract
;WIPE_END
G1 Z.5 F720 ; lift Z
G1 X116.634 Y99.266 F10800 ; move to first perimeter point
G1 Z.3 F720 ; restore layer Z
G1 E1.4 F2100 ;  ; unretract
M204 S800 ; adjust acceleration
;TYPE:Perimeter
G1 F1200
G1 X116.676 Y99.242 E.00215 ; perimeter
G1 X116.768 Y99.234 E.0041 ; perimeter
G1 X133.232 Y99.234 E.73026 ; perimeter
G1 X133.392 Y99.259 E.00718 ; perimeter
G1 X133.639 Y99.423 E.01315 ; perimeter
;WIDTH:0.463857
G1 X133.703 Y99.538 E.00656 ; perimeter
;WIDTH:0.507714
G1 X133.767 Y99.653 E.00728 ; perimeter
;WIDTH:0.551572
G1 X133.831 Y99.768 E.008 ; perimeter
G1 X133.831 Y109.232 E.57508 ; perimeter
G1 X133.809 Y109.513 E.01713 ; perimeter
;WIDTH:0.507714
M73 P8 R8
M73 Q8 S8
G1 X133.788 Y109.794 E.01558 ; perimeter
;WIDTH:0.463857
G1 X133.766 Y110.075 E.01404 ; perimeter
;WIDTH:0.42
G1 X133.766 Y117.532 E.33075 ; perimeter
G1 X133.714 Y117.762 E.01046 ; perimeter
G1 X133.584 Y117.933 E.00953 ; perimeter
G1 X133.324 Y118.058 E.0128 ; perimeter
G1 X133.232 Y118.066 E.0041 ; perimeter
G1 X116.768 Y118.066 E.73026 ; perimeter
G1 X116.493 Y117.989 E.01267 ; perimeter
G1 X116.345 Y117.857 E.0088 ; perimeter
G1 X116.242 Y117.624 E.0113 ; perimeter
G1 X116.234 Y117.532 E.0041 ; perimeter
G1 X116.234 Y110.075 E.33075 ; perimeter
;WIDTH:0.465985
G1 X116.211 Y109.843 E.01168 ; perimeter
;WIDTH:0.511971
G1 X116.188 Y109.611 E.01302 ; perimeter
;WIDTH:0.557957
G1 X116.169 Y109.232 E.02336 ; perimeter
;WIDTH:0.551572
G1 X116.169 Y99.768 E.57508 ; perimeter
G1 X116.233 Y99.653 E.008 ; perimeter
;WIDTH:0.507714
G1 X116.297 Y99.538 E.00728 ; perimeter
;WIDTH:0.463857
G1 X116.361 Y99.423 E.00656 ; perimeter
;WIDTH:0.42
G1 X116.582 Y99.296 E.01131 ; perimeter
M204 S1000 ; adjust acceleration
G1 X116.768 Y99.59 F10800 ; move to first perimeter point
M204 S800 ; adjust acceleration
;TYPE:External perimeter
G1 F1200
G1 X133.232 Y99.59 E.73026 ; perimeter
G1 X133.368 Y99.653 E.00665 ; perimeter
G1 X133.41 Y99.768 E.00543 ; perimeter
G1 X133.41 Y117.532 E.78792 ; perimeter
G1 X133.35 Y117.666 E.00651 ; perimeter
G1 X133.232 Y117.71 E.00559 ; perimeter
G1 X116.768 Y117.71 E.73026 ; perimeter
G1 X116.627 Y117.64 E.00698 ; perimeter
G1 X116.59 Y117.532 E.00506 ; perimeter
G1 X116.59 Y99.768 E.78792 ; perimeter
G1 X116.632 Y99.653 E.00543 ; perimeter
M73 P9 R8
M73 Q9 S8
G1 X116.713 Y99.615 E.00397 ; perimeter
M204 S1000 ; adjust acceleration
G1 X116.871 Y99.204 F10800 ; move inwards before travel
;WIPE_START
G1 F8640
G1 X122.776 Y99.606 E-1.4 ; wipe and retract
;WIPE_END
G1 Z.5 F720 ; lift Z
G1 X113.701 Y83.872 F10800 ; move to first infill point
G1 Z.3 F720 ; restore layer Z
G1 E1.4 F2100 ;  ; unretract
M204 S800 ; adjust acceleration
;TYPE:Solid infill
;WIDTH:0.420792
G1 F1200
G1 X114.054 Y84.225 E.02219 ; infill
G1 X113.973 Y84.287 E.00453 ; infill
G1 X113.883 Y84.558 E.01269 ; infill
G1 X113.357 Y84.032 E.03307 ; infill
G1 X112.853 Y84.032 E.0224 ; infill
G1 X113.818 Y84.997 E.06067 ; infill
G1 X113.818 Y85.501 E.0224 ; infill
G1 X112.349 Y84.032 E.09235 ; infill
G1 X111.845 Y84.032 E.0224 ; infill
G1 X113.818 Y86.005 E.12404 ; infill
G1 X113.818 Y86.509 E.0224 ; infill
G1 X111.341 Y84.032 E.15572 ; infill
G1 X110.837 Y84.032 E.0224 ; infill
G1 X113.772 Y86.968 E.18455 ; infill
G1 X113.268 Y86.968 E.0224 ; infill
G1 X110.333 Y84.032 E.18455 ; infill
G1 X110.032 Y84.032 E.01338 ; infill
G1 X110.032 Y84.236 E.00907 ; infill
G1 X112.764 Y86.968 E.17175 ; infill
G1 X112.26 Y86.968 E.0224 ; infill
G1 X110.032 Y84.74 E.14007 ; infill
G1 X110.032 Y85.244 E.0224 ; infill
G1 X111.823 Y87.035 E.11259 ; infill
G1 X111.651 Y87.116 E.00845 ; infill
G1 X111.533 Y87.248 E.00787 ; infill
G1 X110.032 Y85.748 E.09433 ; infill
G1 X110.032 Y86.252 E.0224 ; infill
G1 X111.363 Y87.582 E.08364 ; infill
G1 X111.318 Y87.757 E.00803 ; infill
G1 X111.318 Y88.041 E.01262 ; infill
G1 X110.032 Y86.756 E.08082 ; infill
G1 X110.032 Y87.26 E.0224 ; infill
G1 X111.318 Y88.546 E.08085 ; infill
G1 X111.318 Y89.05 E.0224 ; infill
G1 X110.032 Y87.764 E.08085 ; infill
G1 X110.032 Y88.268 E.0224 ; infill
G1 X111.318 Y89.554 E.08085 ; infill
G1 X111.318 Y90.058 E.0224 ; infill
G1 X110.032 Y88.772 E.08085 ; infill
G1 X110.032 Y89.276 E.0224 ; infill
G1 X111.318 Y90.562 E.08085 ; infill
G1 X111.318 Y91.066 E.0224 ; infill
G1 X110.032 Y89.78 E.08085 ; infill
G1 X110.032 Y90.284 E.0224 ; infill
G1 X111.318 Y91.57 E.08085 ; infill
G1 X111.318 Y92.074 E.0224 ; infill
G1 X110.032 Y90.788 E.08085 ; infill
G1 X110.032 Y91.292 E.0224 ; infill
G1 X111.318 Y92.578 E.08085 ; infill
G1 X111.318 Y93.082 E.0224 ; infill
G1 X110.032 Y91.797 E.08082 ; infill
G1 X110.032 Y92.301 E.0224 ; infill
G1 X111.318 Y93.586 E.08082 ; infill
G1 X111.318 Y94.09 E.0224 ; infill
G1 X110.032 Y92.805 E.08082 ; infill
G1 X110.032 Y93.309 E.0224 ; infill
G1 X111.318 Y94.594 E.08082 ; infill
G1 X111.318 Y95.098 E.0224 ; infill
G1 X110.032 Y93.813 E.08082 ; infill
G1 X110.032 Y94.317 E.0224 ; infill
G1 X111.318 Y95.602 E.08082 ; infill
G1 X111.318 Y96.106 E.0224 ; infill
G1 X110.032 Y94.821 E.08082 ; infill
G1 X110.032 Y95.325 E.0224 ; infill
G1 X111.318 Y96.61 E.08082 ; infill
G1 X111.318 Y97.114 E.0224 ; infill
G1 X110.032 Y95.829 E.08082 ; infill
G1 X110.032 Y96.333 E.0224 ; infill
G1 X111.318 Y97.618 E.08082 ; infill
G1 X111.318 Y98.122 E.0224 ; infill
G1 X110.032 Y96.837 E.08082 ; infill
M73 Q10 S8
G1 X110.032 Y97.341 E.0224 ; infill
M73 P10 R8
G1 X111.318 Y98.626 E.08082 ; infill
G1 X111.318 Y99.13 E.0224 ; infill
G1 X110.032 Y97.845 E.08082 ; infill
G1 X110.032 Y98.349 E.0224 ; infill
G1 X111.318 Y99.634 E.08082 ; infill
G1 X111.318 Y100.138 E.0224 ; infill
G1 X110.032 Y98.853 E.08082 ; infill
G1 X110.032 Y99.357 E.0224 ; infill
G1 X111.318 Y100.643 E.08085 ; infill
G1 X111.318 Y101.147 E.0224 ; infill
G1 X110.032 Y99.861 E.08085 ; infill
G1 X110.032 Y100.365 E.0224 ; infill
G1 X111.318 Y101.651 E.08085 ; infill
G1 X111.318 Y102.155 E.0224 ; infill
G1 X110.032 Y100.869 E.08085 ; infill
G1 X110.032 Y101.373 E.0224 ; infill
G1 X111.318 Y102.659 E.08085 ; infill
G1 X111.318 Y103.163 E.0224 ; infill
G1 X110.032 Y101.877 E.08085 ; infill
G1 X110.032 Y102.381 E.0224 ; infill
G1 X111.318 Y103.667 E.08085 ; infill
G1 X111.318 Y104.171 E.0224 ; infill
G1 X110.032 Y102.885 E.08085 ; infill
G1 X110.032 Y103.389 E.0224 ; infill
G1 X111.318 Y104.675 E.08085 ; infill
G1 X111.318 Y105.179 E.0224 ; infill
G1 X110.032 Y103.894 E.08082 ; infill
G1 X110.032 Y104.398 E.0224 ; infill
G1 X111.318 Y105.683 E.08082 ; infill
G1 X111.318 Y106.187 E.0224 ; infill
G1 X110.032 Y104.902 E.08082 ; infill
G1 X110.032 Y105.406 E.0224 ; infill
G1 X111.318 Y106.691 E.08082 ; infill
G1 X111.318 Y107.195 E.0224 ; infill
G1 X110.032 Y105.91 E.08082 ; infill
G1 X110.032 Y106.414 E.0224 ; infill
G1 X111.318 Y107.699 E.08082 ; infill
G1 X111.318 Y108.203 E.0224 ; infill
G1 X110.032 Y106.918 E.08082 ; infill
G1 X110.032 Y107.422 E.0224 ; infill
G1 X111.478 Y108.867 E.09087 ; infill
M204 S1000 ; adjust acceleration
;WIPE_START
G1 F8640
G1 X110.032 Y107.422 E-.47202 ; wipe and retract
G1 X110.032 Y106.918 E-.11637 ; wipe and retract
G1 X111.318 Y108.203 E-.41977 ; wipe and retract
G1 X111.318 Y107.699 E-.11638 ; wipe and retract
G1 X110.474 Y106.856 E-.27546 ; wipe and retract
;WIPE_END
G1 Z.5 F720 ; lift Z
G1 X116.108 Y109.969 F10800 ; move to first infill point
G1 Z.3 F720 ; restore layer Z
G1 E1.4 F2100 ;  ; unretract
M204 S800 ; adjust acceleration
G1 F1200
G1 X115.784 Y109.645 E.02037 ; infill
G1 X115.558 Y109.879 E.01446 ; infill
G1 X115.524 Y109.89 E.00159 ; infill
G1 X115.968 Y110.333 E.02788 ; infill
G1 X115.968 Y110.837 E.0224 ; infill
G1 X115.146 Y110.016 E.05165 ; infill
G1 X115.097 Y110.032 E.00229 ; infill
G1 X114.659 Y110.032 E.01947 ; infill
G1 X115.968 Y111.341 E.08229 ; infill
G1 X115.968 Y111.845 E.0224 ; infill
G1 X114.155 Y110.032 E.11398 ; infill
