; generated by PrusaSlicer 2.6.0 on 2023-06-30 at 16:46:29 UTC


;
;
; 

; external perimeters extrusion width = 0.60mm
; perimeters extrusion width = 0.50mm
; infill extrusion width = 0.50mm
; solid infill extrusion width = 0.50mm
; top infill extrusion width = 0.45mm
; support material extrusion width = 0.38mm
; first layer extrusion width = 0.42mm

M73 P0 R51
M73 Q0 S51
M201 X1000 Y1000 Z200 E5000 ; sets maximum accelerations, mm/sec^2
M203 X200 Y200 Z12 E120 ; sets maximum feedrates, mm / sec
M204 S1250 T1250 ; sets acceleration (S) and retract acceleration (R), mm/sec^2
M205 X8.00 Y8.00 Z0.40 E4.50 ; sets the jerk limits, mm/sec
M205 S0 T0 ; sets the minimum extruding and travel feed rate, mm/sec
;TYPE:Custom
M862.3 P "MK3S" ; printer model check
M862.1 P0.4 ; nozzle diameter check
M115 U3.11.0 ; tell printer latest fw version
G90 ; use absolute coordinates
M83 ; extruder relative mode
M104 S240 ; set extruder temp
M140 S95 ; set bed temp
M190 S95 ; wait for bed temp
M109 S240 ; wait for extruder temp
G28 W ; home all without mesh bed level
G80 ; mesh bed leveling

G1 Z0.2 F720
G1 Y-3 F1000 ; go outside print area
G92 E0
G1 X60 E9 F1000 ; intro line
G1 X100 E12.5 F1000 ; intro line

G92 E0
M221 S95

; Don't change E values below. Excessive value can damage the printer.

M907 E538 ; set extruder motor current
G21 ; set units to millimeters
G90 ; use absolute coordinates
M83 ; use relative distances for extrusion
M900 K0.08 ; Filament gcode LA 1.5
M900 K45 ; Filament gcode LA 1.0
M107 ; disable fan
;LAYER_CHANGE
;Z:0.3
;HEIGHT:0.3
;BEFORE_LAYER_CHANGE
G92 E0.0
;0.3


G1 E-1.4 F2100 ; retract
G1 Z.2 F720 ; lift Z
G1 Z.3 ; move to next layer (0)
;AFTER_LAYER_CHANGE
;0.3
G1 Z.5 ; lift Z
G1 X95.886 Y80.7 F10800 ; move to first skirt point
G1 Z.3 F720 ; restore layer Z
G1 E1.4 F2100 ;  ; unretract
M204 S800 ; adjust acceleration
;TYPE:Skirt/Brim
;WIDTH:0.42
G1 F1200
G1 X96.93 Y79.831 E.06025 ; skirt
G1 X97.85 Y79.644 E.04164 ; skirt
G1 X152.15 Y79.644 E2.40847 ; skirt
G1 X153.45 Y80.036 E.06023 ; skirt
G1 X154.319 Y81.08 E.06025 ; skirt
G1 X154.506 Y82 E.04164 ; skirt
G1 X154.506 Y124 E1.8629 ; skirt
G1 X154.114 Y125.3 E.06023 ; skirt
M73 P0 R50
G1 X152.469 Y126.334 E.08618 ; skirt
G1 X123.169 Y130.334 E1.31165 ; skirt
G1 X97.85 Y130.356 E1.12302 ; skirt
G1 X96.55 Y129.964 E.06023 ; skirt
G1 X95.681 Y128.92 E.06025 ; skirt
G1 X95.494 Y128 E.04164 ; skirt
G1 X95.494 Y82 E2.04032 ; skirt
G1 X95.869 Y80.757 E.05759 ; skirt
M204 S1000 ; adjust acceleration
; printing object headServoHolder-Body.stl id:0 copy 0
;WIPE_START
G1 F8640
G1 X96.93 Y79.831 E-.32517 ; wipe and retract
G1 X97.85 Y79.644 E-.21677 ; wipe and retract
G1 X101.566 Y79.644 E-.85806 ; wipe and retract
;WIPE_END
G1 Z.5 F720 ; lift Z
G1 X98.616 Y82.766 F10800 ; move to first perimeter point
G1 Z.3 F720 ; restore layer Z
G1 E1.4 F2100 ;  ; unretract
M204 S800 ; adjust acceleration
;TYPE:Perimeter
;WIDTH:0.42
G1 F1200
G1 X151.384 Y82.766 E2.34051 ; perimeter
G1 X151.384 Y123.234 E1.79495 ; perimeter
G1 X122.618 Y123.234 E1.27591 ; perimeter
G1 X122.358 Y123.302 E.01192 ; perimeter
G1 X122.158 Y123.497 E.01239 ; perimeter
G1 X122.084 Y123.768 E.01246 ; perimeter
G1 X122.084 Y127.234 E.15373 ; perimeter
G1 X98.616 Y127.234 E1.04092 ; perimeter
G1 X98.616 Y82.826 E1.96971 ; perimeter
M204 S1000 ; adjust acceleration
G1 X98.26 Y82.41 F10800 ; move to first perimeter point
M204 S800 ; adjust acceleration
;TYPE:External perimeter
G1 F1200
M73 Q0 S50
G1 X151.74 Y82.41 E2.37209 ; perimeter
G1 X151.74 Y123.59 E1.82653 ; perimeter
M73 Q1 S50
G1 X122.618 Y123.59 E1.2917 ; perimeter
M73 P1 R50
G1 X122.509 Y123.627 E.00511 ; perimeter
G1 X122.44 Y123.768 E.00696 ; perimeter
G1 X122.44 Y127.59 E.16952 ; perimeter
G1 X98.26 Y127.59 E1.0725 ; perimeter
G1 X98.26 Y82.47 E2.00129 ; perimeter
M204 S1000 ; adjust acceleration
G1 X98.634 Y82.551 F10800 ; move inwards before travel
;WIPE_START
G1 F8640
G1 X104.323 Y82.463 E-1.4 ; wipe and retract
;WIPE_END
G1 Z.5 F720 ; lift Z
G1 X151.278 Y83.594 F10800 ; move to first infill point
G1 Z.3 F720 ; restore layer Z
G1 E1.4 F2100 ;  ; unretract
M204 S800 ; adjust acceleration
;TYPE:Solid infill
;WIDTH:0.421182
G1 F1200
G1 X150.716 Y83.032 E.03537 ; infill
G1 X150.212 Y83.032 E.02243 ; infill
G1 X151.118 Y83.938 E.05702 ; infill
G1 X151.118 Y84.443 E.02247 ; infill
G1 X149.707 Y83.032 E.0888 ; infill
G1 X149.203 Y83.032 E.02243 ; infill
G1 X151.118 Y84.947 E.12052 ; infill
G1 X151.118 Y85.452 E.02247 ; infill
G1 X148.698 Y83.032 E.1523 ; infill
G1 X148.193 Y83.032 E.02247 ; infill
G1 X151.118 Y85.957 E.18409 ; infill
G1 X151.118 Y86.461 E.02243 ; infill
G1 X147.689 Y83.032 E.21581 ; infill
G1 X147.184 Y83.032 E.02247 ; infill
G1 X151.118 Y86.966 E.24759 ; infill
G1 X151.118 Y87.47 E.02243 ; infill
G1 X146.68 Y83.032 E.27931 ; infill
G1 X146.175 Y83.032 E.02247 ; infill
G1 X151.118 Y87.975 E.31109 ; infill
G1 X151.118 Y88.48 E.02247 ; infill
G1 X145.67 Y83.032 E.34287 ; infill
G1 X145.166 Y83.032 E.02243 ; infill
G1 X151.118 Y88.984 E.37459 ; infill
G1 X151.118 Y89.489 E.02247 ; infill
G1 X144.661 Y83.032 E.40638 ; infill
G1 X144.157 Y83.032 E.02243 ; infill
G1 X151.118 Y89.993 E.43809 ; infill
G1 X151.118 Y90.498 E.02247 ; infill
G1 X143.652 Y83.032 E.46988 ; infill
G1 X143.147 Y83.032 E.02247 ; infill
G1 X151.118 Y91.003 E.50166 ; infill
G1 X151.118 Y91.507 E.02243 ; infill
G1 X142.643 Y83.032 E.53338 ; infill
G1 X142.138 Y83.032 E.02247 ; infill
G1 X151.118 Y92.012 E.56516 ; infill
G1 X151.118 Y92.516 E.02243 ; infill
G1 X141.634 Y83.032 E.59688 ; infill
G1 X141.129 Y83.032 E.02247 ; infill
G1 X151.118 Y93.021 E.62866 ; infill
G1 X151.118 Y93.526 E.02247 ; infill
G1 X140.624 Y83.032 E.66045 ; infill
G1 X140.12 Y83.032 E.02243 ; infill
G1 X151.118 Y94.03 E.69217 ; infill
G1 X151.118 Y94.535 E.02247 ; infill
G1 X139.615 Y83.032 E.72395 ; infill
G1 X139.111 Y83.032 E.02243 ; infill
G1 X151.118 Y95.039 E.75567 ; infill
G1 X151.118 Y95.544 E.02247 ; infill
G1 X138.606 Y83.032 E.78745 ; infill
G1 X138.102 Y83.032 E.02243 ; infill
G1 X151.118 Y96.048 E.81917 ; infill
G1 X151.118 Y96.553 E.02247 ; infill
G1 X137.597 Y83.032 E.85095 ; infill
G1 X137.092 Y83.032 E.02247 ; infill
G1 X151.118 Y97.058 E.88273 ; infill
G1 X151.118 Y97.562 E.02243 ; infill
G1 X136.588 Y83.032 E.91445 ; infill
G1 X136.083 Y83.032 E.02247 ; infill
G1 X151.118 Y98.067 E.94624 ; infill
G1 X151.118 Y98.571 E.02243 ; infill
G1 X135.579 Y83.032 E.97796 ; infill
G1 X135.074 Y83.032 E.02247 ; infill
G1 X151.118 Y99.076 E1.00974 ; infill
G1 X151.118 Y99.581 E.02247 ; infill
G1 X134.569 Y83.032 E1.04152 ; infill
G1 X134.065 Y83.032 E.02243 ; infill
G1 X151.118 Y100.085 E1.07324 ; infill
G1 X151.118 Y100.59 E.02247 ; infill
G1 X133.56 Y83.032 E1.10502 ; infill
G1 X133.056 Y83.032 E.02243 ; infill
M73 P2 R50
M73 Q2 S50
G1 X151.118 Y101.094 E1.13674 ; infill
G1 X151.118 Y101.599 E.02247 ; infill
G1 X132.551 Y83.032 E1.16853 ; infill
G1 X132.046 Y83.032 E.02247 ; infill
G1 X151.118 Y102.104 E1.20031 ; infill
G1 X151.118 Y102.608 E.02243 ; infill
G1 X131.542 Y83.032 E1.23203 ; infill
G1 X131.037 Y83.032 E.02247 ; infill
G1 X151.118 Y103.113 E1.26381 ; infill
G1 X151.118 Y103.617 E.02243 ; infill
G1 X130.533 Y83.032 E1.29553 ; infill
G1 X130.028 Y83.032 E.02247 ; infill
G1 X151.118 Y104.122 E1.32731 ; infill
G1 X151.118 Y104.627 E.02247 ; infill
M73 P2 R49
G1 X129.523 Y83.032 E1.35909 ; infill
G1 X129.019 Y83.032 E.02243 ; infill
G1 X151.118 Y105.131 E1.39081 ; infill
G1 X151.118 Y105.636 E.02247 ; infill
G1 X128.514 Y83.032 E1.4226 ; infill
G1 X128.01 Y83.032 E.02243 ; infill
G1 X151.118 Y106.14 E1.45432 ; infill
G1 X151.118 Y106.645 E.02247 ; infill
G1 X127.505 Y83.032 E1.4861 ; infill
G1 X127 Y83.032 E.02247 ; infill
G1 X151.118 Y107.15 E1.51788 ; infill
G1 X151.118 Y107.654 E.02243 ; infill
G1 X126.496 Y83.032 E1.5496 ; infill
G1 X125.991 Y83.032 E.02247 ; infill
G1 X151.118 Y108.159 E1.58138 ; infill
G1 X151.118 Y108.663 E.02243 ; infill
G1 X125.487 Y83.032 E1.6131 ; infill
G1 X124.982 Y83.032 E.02247 ; infill
G1 X151.118 Y109.168 E1.64488 ; infill
G1 X151.118 Y109.673 E.02247 ; infill
M73 Q2 S49
G1 X124.478 Y83.032 E1.67664 ; infill
G1 X123.973 Y83.032 E.02247 ; infill
G1 X151.118 Y110.177 E1.70839 ; infill
G1 X151.118 Y110.682 E.02247 ; infill
M73 P3 R49
M73 Q3 S49
G1 X123.468 Y83.032 E1.74017 ; infill
G1 X122.964 Y83.032 E.02243 ; infill
G1 X151.118 Y111.186 E1.77189 ; infill
G1 X151.118 Y111.691 E.02247 ; infill
G1 X122.459 Y83.032 E1.80367 ; infill
G1 X121.955 Y83.032 E.02243 ; infill
G1 X151.118 Y112.195 E1.83539 ; infill
G1 X151.118 Y112.7 E.02247 ; infill
G1 X121.45 Y83.032 E1.86717 ; infill
G1 X120.945 Y83.032 E.02247 ; infill
G1 X151.118 Y113.205 E1.89896 ; infill
G1 X151.118 Y113.709 E.02243 ; infill
G1 X120.441 Y83.032 E1.93068 ; infill
G1 X119.936 Y83.032 E.02247 ; infill
G1 X151.118 Y114.214 E1.96246 ; infill
G1 X151.118 Y114.718 E.02243 ; infill
G1 X119.432 Y83.032 E1.99418 ; infill
G1 X118.927 Y83.032 E.02247 ; infill
G1 X151.118 Y115.223 E2.02596 ; infill
G1 X151.118 Y115.728 E.02247 ; infill
G1 X118.422 Y83.032 E2.05774 ; infill
G1 X117.918 Y83.032 E.02243 ; infill
G1 X151.118 Y116.232 E2.08946 ; infill
G1 X151.118 Y116.737 E.02247 ; infill
G1 X117.413 Y83.032 E2.12124 ; infill
G1 X116.909 Y83.032 E.02243 ; infill
G1 X151.118 Y117.241 E2.15296 ; infill
G1 X151.118 Y117.746 E.02247 ; infill
M73 P4 R49
M73 Q4 S49
G1 X116.404 Y83.032 E2.18475 ; infill
G1 X115.899 Y83.032 E.02247 ; infill
G1 X151.118 Y118.251 E2.21653 ; infill
G1 X151.118 Y118.755 E.02243 ; infill
G1 X115.395 Y83.032 E2.24825 ; infill
G1 X114.89 Y83.032 E.02247 ; infill
M73 P4 R48
G1 X151.118 Y119.26 E2.28003 ; infill
G1 X151.118 Y119.764 E.02243 ; infill
G1 X114.386 Y83.032 E2.31175 ; infill
G1 X113.881 Y83.032 E.02247 ; infill
G1 X151.118 Y120.269 E2.34353 ; infill
G1 X151.118 Y120.774 E.02247 ; infill
G1 X113.376 Y83.032 E2.37532 ; infill
G1 X112.872 Y83.032 E.02243 ; infill
G1 X151.118 Y121.278 E2.40703 ; infill
G1 X151.118 Y121.783 E.02247 ; infill
G1 X112.367 Y83.032 E2.43882 ; infill
G1 X111.863 Y83.032 E.02243 ; infill
M73 Q4 S48
G1 X151.118 Y122.287 E2.47054 ; infill
G1 X151.118 Y122.792 E.02247 ; infill
G1 X111.358 Y83.032 E2.50232 ; infill
G1 X110.853 Y83.032 E.02247 ; infill
M73 P5 R48
G1 X150.789 Y122.968 E2.5134 ; infill
G1 X150.284 Y122.968 E.02247 ; infill
M73 Q5 S48
G1 X110.349 Y83.032 E2.51336 ; infill
G1 X109.844 Y83.032 E.02247 ; infill
G1 X149.78 Y122.968 E2.5134 ; infill
G1 X149.275 Y122.968 E.02247 ; infill
G1 X109.34 Y83.032 E2.51336 ; infill
G1 X108.835 Y83.032 E.02247 ; infill
G1 X148.771 Y122.968 E2.5134 ; infill
G1 X148.266 Y122.968 E.02247 ; infill
G1 X108.331 Y83.032 E2.51336 ; infill
G1 X107.826 Y83.032 E.02247 ; infill
G1 X147.761 Y122.968 E2.51336 ; infill
G1 X147.257 Y122.968 E.02243 ; infill
G1 X107.321 Y83.032 E2.5134 ; infill
G1 X106.817 Y83.032 E.02243 ; infill
G1 X146.752 Y122.968 E2.51336 ; infill
G1 X146.248 Y122.968 E.02243 ; infill
G1 X106.312 Y83.032 E2.5134 ; infill
G1 X105.808 Y83.032 E.02243 ; infill
G1 X145.743 Y122.968 E2.51336 ; infill
G1 X145.239 Y122.968 E.02243 ; infill
M73 P6 R48
M73 Q6 S48
G1 X105.303 Y83.032 E2.5134 ; infill
G1 X104.798 Y83.032 E.02247 ; infill
G1 X144.734 Y122.968 E2.5134 ; infill
G1 X144.23 Y122.968 E.02243 ; infill
G1 X104.294 Y83.032 E2.5134 ; infill
G1 X103.789 Y83.032 E.02247 ; infill
M73 P6 R47
G1 X143.725 Y122.968 E2.5134 ; infill
G1 X143.22 Y122.968 E.02247 ; infill
G1 X103.285 Y83.032 E2.51336 ; infill
G1 X102.78 Y83.032 E.02247 ; infill
G1 X142.716 Y122.968 E2.5134 ; infill
G1 X142.211 Y122.968 E.02247 ; infill
G1 X102.275 Y83.032 E2.5134 ; infill
G1 X101.771 Y83.032 E.02243 ; infill
G1 X141.707 Y122.968 E2.5134 ; infill
G1 X141.202 Y122.968 E.02247 ; infill
M73 Q6 S47
G1 X101.266 Y83.032 E2.5134 ; infill
G1 X100.762 Y83.032 E.02243 ; infill
G1 X140.698 Y122.968 E2.5134 ; infill
G1 X140.193 Y122.968 E.02247 ; infill
G1 X100.257 Y83.032 E2.5134 ; infill
G1 X99.752 Y83.032 E.02247 ; infill
M73 P7 R47
M73 Q7 S47
G1 X139.688 Y122.968 E2.5134 ; infill
G1 X139.184 Y122.968 E.02243 ; infill
G1 X99.248 Y83.032 E2.5134 ; infill
G1 X98.882 Y83.032 E.01629 ; infill
G1 X98.882 Y83.171 E.00619 ; infill
G1 X138.679 Y122.968 E2.50465 ; infill
G1 X138.175 Y122.968 E.02243 ; infill
G1 X98.882 Y83.676 E2.4729 ; infill
G1 X98.882 Y84.181 E.02247 ; infill
G1 X137.67 Y122.968 E2.44111 ; infill
G1 X137.166 Y122.969 E.02243 ; infill
G1 X98.882 Y84.685 E2.40943 ; infill
G1 X98.882 Y85.19 E.02247 ; infill
G1 X136.661 Y122.969 E2.37764 ; infill
G1 X136.157 Y122.969 E.02243 ; infill
G1 X98.882 Y85.694 E2.34592 ; infill
G1 X98.882 Y86.199 E.02247 ; infill
G1 X135.652 Y122.969 E2.31414 ; infill
G1 X135.147 Y122.969 E.02247 ; infill
G1 X98.882 Y86.704 E2.28236 ; infill
G1 X98.882 Y87.208 E.02243 ; infill
G1 X134.643 Y122.969 E2.25064 ; infill
G1 X134.138 Y122.969 E.02247 ; infill
M73 P8 R47
M73 Q8 S47
G1 X98.882 Y87.713 E2.21886 ; infill
G1 X98.882 Y88.217 E.02243 ; infill
G1 X133.634 Y122.969 E2.18714 ; infill
G1 X133.129 Y122.969 E.02247 ; infill
M73 P8 R46
G1 X98.882 Y88.722 E2.15536 ; infill
G1 X98.882 Y89.227 E.02247 ; infill
G1 X132.625 Y122.969 E2.1236 ; infill
G1 X132.12 Y122.969 E.02247 ; infill
G1 X98.882 Y89.731 E2.09185 ; infill
G1 X98.882 Y90.236 E.02247 ; infill
G1 X131.615 Y122.969 E2.06007 ; infill
G1 X131.111 Y122.969 E.02243 ; infill
G1 X98.882 Y90.74 E2.02835 ; infill
G1 X98.882 Y91.245 E.02247 ; infill
G1 X130.606 Y122.969 E1.99657 ; infill
G1 X130.102 Y122.969 E.02243 ; infill
G1 X98.882 Y91.749 E1.96485 ; infill
G1 X98.882 Y92.254 E.02247 ; infill
M73 Q8 S46
G1 X129.597 Y122.969 E1.93307 ; infill
G1 X129.093 Y122.969 E.02243 ; infill
G1 X98.882 Y92.759 E1.90132 ; infill
G1 X98.882 Y93.263 E.02243 ; infill
G1 X128.588 Y122.969 E1.86956 ; infill
G1 X128.084 Y122.969 E.02243 ; infill
G1 X98.882 Y93.768 E1.83781 ; infill
G1 X98.882 Y94.272 E.02243 ; infill
M73 P9 R46
G1 X127.579 Y122.969 E1.80606 ; infill
G1 X127.074 Y122.969 E.02247 ; infill
M73 Q9 S46
G1 X98.882 Y94.777 E1.77428 ; infill
G1 X98.882 Y95.282 E.02247 ; infill
G1 X126.57 Y122.969 E1.74253 ; infill
G1 X126.065 Y122.969 E.02247 ; infill
G1 X98.882 Y95.786 E1.71078 ; infill
G1 X98.882 Y96.291 E.02247 ; infill
G1 X125.561 Y122.969 E1.67903 ; infill
G1 X125.056 Y122.969 E.02247 ; infill
G1 X98.882 Y96.795 E1.64728 ; infill
G1 X98.882 Y97.3 E.02247 ; infill
G1 X124.552 Y122.969 E1.61553 ; infill
G1 X124.047 Y122.969 E.02247 ; infill
G1 X98.882 Y97.805 E1.58374 ; infill
G1 X98.882 Y98.309 E.02243 ; infill
G1 X123.542 Y122.969 E1.55199 ; infill
G1 X123.038 Y122.969 E.02243 ; infill
G1 X98.882 Y98.814 E1.52024 ; infill
G1 X98.882 Y99.318 E.02243 ; infill
G1 X122.538 Y122.974 E1.4888 ; infill
G1 X122.293 Y123.035 E.01124 ; infill
G1 X122.174 Y123.115 E.00638 ; infill
G1 X98.882 Y99.823 E1.4659 ; infill
G1 X98.882 Y100.328 E.02247 ; infill
G1 X121.924 Y123.369 E1.45013 ; infill
G1 X121.828 Y123.631 E.01242 ; infill
G1 X121.828 Y123.777 E.0065 ; infill
G1 X98.882 Y100.832 E1.44409 ; infill
G1 X98.882 Y101.337 E.02247 ; infill
G1 X121.826 Y124.281 E1.44399 ; infill
G1 X121.825 Y124.784 E.02238 ; infill
G1 X98.882 Y101.841 E1.44393 ; infill
G1 X98.882 Y102.346 E.02247 ; infill
G1 X121.823 Y125.287 E1.44381 ; infill
G1 X121.822 Y125.79 E.02238 ; infill
M73 P10 R46
G1 X98.882 Y102.851 E1.44371 ; infill
G1 X98.882 Y103.355 E.02243 ; infill
M73 Q10 S46
G1 X121.82 Y126.293 E1.44362 ; infill
G1 X121.818 Y126.796 E.02238 ; infill
G1 X98.882 Y103.86 E1.44349 ; infill
G1 X98.882 Y104.364 E.02243 ; infill
M73 P10 R45
G1 X121.486 Y126.968 E1.4226 ; infill
G1 X120.981 Y126.968 E.02247 ; infill
G1 X98.882 Y104.869 E1.39081 ; infill
G1 X98.882 Y105.373 E.02243 ; infill
G1 X120.477 Y126.968 E1.35909 ; infill
G1 X119.972 Y126.968 E.02247 ; infill
G1 X98.882 Y105.878 E1.32731 ; infill
G1 X98.882 Y106.383 E.02247 ; infill
G1 X119.467 Y126.968 E1.29553 ; infill
G1 X118.963 Y126.968 E.02243 ; infill
G1 X98.882 Y106.887 E1.26381 ; infill
G1 X98.882 Y107.392 E.02247 ; infill
G1 X118.458 Y126.968 E1.23203 ; infill
G1 X117.954 Y126.968 E.02243 ; infill
