; generated by PrusaSlicer 2.6.0 on 2023-07-06 at 19:18:53 UTC


;
;
; 

; external perimeters extrusion width = 0.60mm
; perimeters extrusion width = 0.50mm
; infill extrusion width = 0.50mm
; solid infill extrusion width = 0.50mm
; top infill extrusion width = 0.45mm
; support material extrusion width = 0.38mm
; first layer extrusion width = 0.42mm

M73 P0 R13
M73 Q0 S13
M201 X1000 Y1000 Z200 E5000 ; sets maximum accelerations, mm/sec^2
M203 X200 Y200 Z12 E120 ; sets maximum feedrates, mm / sec
M204 S1250 T1250 ; sets acceleration (S) and retract acceleration (R), mm/sec^2
M205 X8.00 Y8.00 Z0.40 E4.50 ; sets the jerk limits, mm/sec
M205 S0 T0 ; sets the minimum extruding and travel feed rate, mm/sec
;TYPE:Custom
M862.3 P "MK3S" ; printer model check
M862.1 P0.4 ; nozzle diameter check
M115 U3.11.0 ; tell printer latest fw version
G90 ; use absolute coordinates
M83 ; extruder relative mode
M104 S240 ; set extruder temp
M140 S95 ; set bed temp
M190 S95 ; wait for bed temp
M109 S240 ; wait for extruder temp
G28 W ; home all without mesh bed level
G80 ; mesh bed leveling

G1 Z0.2 F720
G1 Y-3 F1000 ; go outside print area
G92 E0
G1 X60 E9 F1000 ; intro line
G1 X100 E12.5 F1000 ; intro line

G92 E0
M221 S95

; Don't change E values below. Excessive value can damage the printer.

M907 E538 ; set extruder motor current
G21 ; set units to millimeters
G90 ; use absolute coordinates
M83 ; use relative distances for extrusion
M900 K0.08 ; Filament gcode LA 1.5
M900 K45 ; Filament gcode LA 1.0
M107 ; disable fan
;LAYER_CHANGE
;Z:0.3
;HEIGHT:0.3
;BEFORE_LAYER_CHANGE
G92 E0.0
;0.3


G1 E-1.4 F2100 ; retract
G1 Z.2 F720 ; lift Z
G1 Z.3 ; move to next layer (0)
;AFTER_LAYER_CHANGE
;0.3
G1 Z.5 ; lift Z
G1 X108.042 Y88.716 F10800 ; move to first skirt point
G1 Z.3 F720 ; restore layer Z
G1 E1.4 F2100 ;  ; unretract
M204 S800 ; adjust acceleration
;TYPE:Skirt/Brim
;WIDTH:0.42
G1 F1200
G1 X108.538 Y88.278 E.02935 ; skirt
G1 X109.118 Y87.943 E.02971 ; skirt
G1 X109.725 Y87.735 E.02846 ; skirt
G1 X110.379 Y87.647 E.02927 ; skirt
G1 X139.558 Y87.645 E1.29423 ; skirt
G1 X140.211 Y87.721 E.02916 ; skirt
M73 P1 R12
M73 Q1 S13
G1 X140.731 Y87.878 E.02409 ; skirt
G1 X141.274 Y88.152 E.02698 ; skirt
G1 X141.796 Y88.553 E.0292 ; skirt
G1 X142.16 Y88.955 E.02405 ; skirt
G1 X142.508 Y89.513 E.02917 ; skirt
G1 X142.74 Y90.129 E.0292 ; skirt
G1 X142.848 Y90.778 E.02918 ; skirt
G1 X142.854 Y119.107 E1.25653 ; skirt
G1 X142.622 Y120.23 E.05086 ; skirt
G1 X142.322 Y120.816 E.0292 ; skirt
G1 X141.947 Y121.296 E.02702 ; skirt
G1 X141.412 Y121.757 E.03132 ; skirt
G1 X140.837 Y122.077 E.02919 ; skirt
G1 X140.211 Y122.279 E.02918 ; skirt
G1 X139.5 Y122.356 E.03172 ; skirt
G1 X110.393 Y122.354 E1.29104 ; skirt
G1 X109.27 Y122.122 E.05086 ; skirt
G1 X108.684 Y121.822 E.0292 ; skirt
M73 Q1 S12
G1 X108.204 Y121.447 E.02702 ; skirt
G1 X107.771 Y120.952 E.02917 ; skirt
G1 X107.427 Y120.347 E.03087 ; skirt
G1 X107.224 Y119.723 E.02911 ; skirt
G1 X107.145 Y119.011 E.03177 ; skirt
G1 X107.146 Y90.893 E1.24717 ; skirt
G1 X107.218 Y90.302 E.02641 ; skirt
G1 X107.406 Y89.701 E.02793 ; skirt
G1 X107.676 Y89.187 E.02575 ; skirt
G1 X108.005 Y88.763 E.0238 ; skirt
M204 S1000 ; adjust acceleration
; printing object headPlateSmallServo-Body.stl id:0 copy 0
;WIPE_START
G1 F8640
G1 X108.538 Y88.278 E-.1664 ; wipe and retract
G1 X109.118 Y87.943 E-.15466 ; wipe and retract
G1 X109.725 Y87.735 E-.14816 ; wipe and retract
G1 X110.379 Y87.647 E-.15237 ; wipe and retract
G1 X113.75 Y87.647 E-.77841 ; wipe and retract
;WIPE_END
G1 Z.5 F720 ; lift Z
G1 X110.336 Y90.845 F10800 ; move to first perimeter point
G1 Z.3 F720 ; restore layer Z
G1 E1.4 F2100 ;  ; unretract
M204 S800 ; adjust acceleration
;TYPE:Perimeter
;WIDTH:0.42
G1 F1200
G1 X110.523 Y90.767 E.00899 ; perimeter
G1 X139.413 Y90.766 E1.28141 ; perimeter
G1 X139.586 Y90.793 E.00777 ; perimeter
M73 P2 R12
M73 Q2 S12
G1 X139.682 Y90.878 E.00569 ; perimeter
G1 X139.734 Y91.087 E.00955 ; perimeter
G1 X139.734 Y118.944 E1.23559 ; perimeter
G1 X139.658 Y119.158 E.01007 ; perimeter
G1 X139.444 Y119.234 E.01007 ; perimeter
G1 X110.556 Y119.234 E1.28132 ; perimeter
G1 X110.342 Y119.158 E.01007 ; perimeter
G1 X110.266 Y118.944 E.01007 ; perimeter
G1 X110.267 Y91.016 E1.23874 ; perimeter
G1 X110.314 Y90.901 E.00551 ; perimeter
M204 S1000 ; adjust acceleration
G1 X110.01 Y90.675 F10800 ; move to first perimeter point
M204 S800 ; adjust acceleration
;TYPE:External perimeter
G1 F1200
G1 X110.197 Y90.504 E.01124 ; perimeter
G1 X110.484 Y90.411 E.01338 ; perimeter
G1 X139.413 Y90.41 E1.28314 ; perimeter
G1 X139.724 Y90.458 E.01396 ; perimeter
G1 X139.915 Y90.585 E.01017 ; perimeter
G1 X140.042 Y90.775 E.01014 ; perimeter
G1 X140.09 Y91.087 E.014 ; perimeter
G1 X140.09 Y118.913 E1.23422 ; perimeter
G1 X140.042 Y119.225 E.014 ; perimeter
G1 X139.915 Y119.415 E.01014 ; perimeter
G1 X139.725 Y119.542 E.01014 ; perimeter
G1 X139.479 Y119.59 E.01112 ; perimeter
G1 X110.587 Y119.59 E1.2815 ; perimeter
G1 X110.275 Y119.542 E.014 ; perimeter
M73 P3 R12
M73 Q3 S12
G1 X110.085 Y119.415 E.01014 ; perimeter
G1 X109.958 Y119.225 E.01014 ; perimeter
G1 X109.91 Y118.979 E.01112 ; perimeter
G1 X109.911 Y90.981 E1.24184 ; perimeter
G1 X109.991 Y90.733 E.01156 ; perimeter
M204 S1000 ; adjust acceleration
G1 X110.264 Y90.683 F10800 ; move inwards before travel
;WIPE_START
G1 F8640
G1 X110.197 Y90.504 E-.07112 ; wipe and retract
G1 X110.484 Y90.411 E-.06966 ; wipe and retract
G1 X115.937 Y90.411 E-1.25922 ; wipe and retract
;WIPE_END
G1 Z.5 F720 ; lift Z
G1 X134.572 Y95.639 F10800 ; move to first perimeter point
G1 Z.3 F720 ; restore layer Z
G1 E1.4 F2100 ;  ; unretract
M204 S800 ; adjust acceleration
;TYPE:Perimeter
G1 F1200
G1 X135.005 Y95.586 E.01935 ; perimeter
G1 X135.385 Y95.625 E.01694 ; perimeter
G1 X135.859 Y95.795 E.02234 ; perimeter
G1 X136.298 Y96.093 E.02353 ; perimeter
G1 X136.611 Y96.466 E.0216 ; perimeter
G1 X136.784 Y96.806 E.01692 ; perimeter
G1 X136.886 Y97.173 E.0169 ; perimeter
G1 X136.908 Y97.592 E.01861 ; perimeter
G1 X136.78 Y98.204 E.02773 ; perimeter
G1 X136.605 Y98.543 E.01692 ; perimeter
G1 X136.366 Y98.84 E.01691 ; perimeter
G1 X136.074 Y99.084 E.01688 ; perimeter
G1 X135.738 Y99.266 E.01695 ; perimeter
G1 X135.374 Y99.377 E.01688 ; perimeter
G1 X134.995 Y99.414 E.01689 ; perimeter
G1 X134.615 Y99.375 E.01694 ; perimeter
G1 X134.252 Y99.262 E.01686 ; perimeter
G1 X133.917 Y99.078 E.01695 ; perimeter
G1 X133.602 Y98.804 E.01852 ; perimeter
G1 X133.41 Y98.568 E.01349 ; perimeter
G1 X133.216 Y98.194 E.01869 ; perimeter
G1 X133.114 Y97.827 E.0169 ; perimeter
G1 X133.087 Y97.447 E.0169 ; perimeter
G1 X133.135 Y97.069 E.0169 ; perimeter
G1 X133.258 Y96.708 E.01692 ; perimeter
G1 X133.448 Y96.38 E.01681 ; perimeter
G1 X133.726 Y96.078 E.01821 ; perimeter
G1 X134.262 Y95.734 E.02825 ; perimeter
G1 X134.515 Y95.657 E.01173 ; perimeter
M204 S1000 ; adjust acceleration
G1 X134.67 Y95.976 F10800 ; move to first perimeter point
M204 S800 ; adjust acceleration
;TYPE:External perimeter
G1 F1200
G1 X134.979 Y95.941 E.01379 ; perimeter
G1 X135.288 Y95.967 E.01375 ; perimeter
G1 X135.697 Y96.112 E.01925 ; perimeter
G1 X136.076 Y96.371 E.02036 ; perimeter
G1 X136.298 Y96.636 E.01533 ; perimeter
G1 X136.444 Y96.911 E.01381 ; perimeter
G1 X136.532 Y97.208 E.01374 ; perimeter
G1 X136.557 Y97.53 E.01433 ; perimeter
G1 X136.459 Y98.05 E.02347 ; perimeter
G1 X136.321 Y98.328 E.01377 ; perimeter
G1 X136.131 Y98.574 E.01379 ; perimeter
G1 X135.896 Y98.776 E.01374 ; perimeter
G1 X135.625 Y98.929 E.0138 ; perimeter
G1 X135.33 Y99.024 E.01375 ; perimeter
G1 X135.021 Y99.059 E.01379 ; perimeter
G1 X134.712 Y99.033 E.01375 ; perimeter
G1 X134.414 Y98.945 E.01378 ; perimeter
G1 X134.139 Y98.8 E.01379 ; perimeter
G1 X133.874 Y98.575 E.01542 ; perimeter
G1 X133.708 Y98.375 E.01153 ; perimeter
G1 X133.556 Y98.089 E.01437 ; perimeter
G1 X133.468 Y97.792 E.01374 ; perimeter
G1 X133.441 Y97.482 E.0138 ; perimeter
G1 X133.475 Y97.174 E.01374 ; perimeter
G1 X133.57 Y96.878 E.01379 ; perimeter
G1 X133.721 Y96.607 E.01376 ; perimeter
G1 X133.927 Y96.371 E.01389 ; perimeter
G1 X134.375 Y96.071 E.02391 ; perimeter
G1 X134.613 Y95.994 E.0111 ; perimeter
M204 S1000 ; adjust acceleration
G1 X134.758 Y95.678 F10800 ; move inwards before travel
;WIPE_START
G1 F8640
G1 X134.979 Y95.941 E-.08539 ; wipe and retract
G1 X135.288 Y95.967 E-.0716 ; wipe and retract
G1 X135.697 Y96.112 E-.1002 ; wipe and retract
G1 X136.076 Y96.371 E-.10599 ; wipe and retract
G1 X136.298 Y96.636 E-.07982 ; wipe and retract
G1 X136.444 Y96.911 E-.07189 ; wipe and retract
G1 X136.532 Y97.208 E-.07153 ; wipe and retract
G1 X136.557 Y97.53 E-.07457 ; wipe and retract
G1 X136.459 Y98.05 E-.12218 ; wipe and retract
G1 X136.321 Y98.328 E-.07166 ; wipe and retract
G1 X136.131 Y98.574 E-.07177 ; wipe and retract
G1 X135.896 Y98.776 E-.07155 ; wipe and retract
G1 X135.625 Y98.929 E-.07186 ; wipe and retract
G1 X135.33 Y99.024 E-.07156 ; wipe and retract
G1 X135.021 Y99.059 E-.07181 ; wipe and retract
G1 X134.712 Y99.033 E-.0716 ; wipe and retract
G1 X134.414 Y98.945 E-.07175 ; wipe and retract
G1 X134.248 Y98.858 E-.04327 ; wipe and retract
;WIPE_END
G1 Z.5 F720 ; lift Z
G1 X133.44 Y111.403 F10800 ; move to first perimeter point
G1 Z.3 F720 ; restore layer Z
G1 E1.4 F2100 ;  ; unretract
M204 S800 ; adjust acceleration
;TYPE:Perimeter
G1 F1200
G1 X133.726 Y111.078 E.0192 ; perimeter
G1 X134.151 Y110.786 E.02287 ; perimeter
G1 X134.262 Y110.734 E.00544 ; perimeter
G1 X134.626 Y110.623 E.01688 ; perimeter
G1 X135.005 Y110.586 E.01689 ; perimeter
G1 X135.385 Y110.625 E.01694 ; perimeter
G1 X135.748 Y110.738 E.01686 ; perimeter
G1 X136.083 Y110.922 E.01695 ; perimeter
G1 X136.374 Y111.167 E.01687 ; perimeter
G1 X136.611 Y111.466 E.01692 ; perimeter
G1 X136.784 Y111.806 E.01692 ; perimeter
G1 X136.886 Y112.172 E.01685 ; perimeter
G1 X136.908 Y112.581 E.01817 ; perimeter
G1 X136.78 Y113.204 E.02821 ; perimeter
G1 X136.605 Y113.543 E.01692 ; perimeter
G1 X136.366 Y113.84 E.01691 ; perimeter
G1 X136.074 Y114.084 E.01688 ; perimeter
G1 X135.738 Y114.266 E.01695 ; perimeter
G1 X135.374 Y114.377 E.01688 ; perimeter
G1 X134.995 Y114.414 E.01689 ; perimeter
G1 X134.615 Y114.375 E.01694 ; perimeter
G1 X134.252 Y114.262 E.01686 ; perimeter
G1 X133.917 Y114.078 E.01695 ; perimeter
G1 X133.626 Y113.833 E.01687 ; perimeter
G1 X133.389 Y113.534 E.01692 ; perimeter
G1 X133.216 Y113.194 E.01692 ; perimeter
G1 X133.114 Y112.827 E.0169 ; perimeter
G1 X133.087 Y112.447 E.0169 ; perimeter
G1 X133.135 Y112.069 E.0169 ; perimeter
G1 X133.258 Y111.708 E.01692 ; perimeter
G1 X133.409 Y111.454 E.01311 ; perimeter
M204 S1000 ; adjust acceleration
G1 X133.739 Y111.586 F10800 ; move to first perimeter point
M204 S800 ; adjust acceleration
;TYPE:External perimeter
G1 F1200
G1 X133.927 Y111.371 E.01267 ; perimeter
G1 X134.346 Y111.084 E.02253 ; perimeter
G1 X134.837 Y110.955 E.02252 ; perimeter
G1 X135.288 Y110.967 E.02001 ; perimeter
G1 X135.586 Y111.055 E.01378 ; perimeter
G1 X135.861 Y111.2 E.01379 ; perimeter
G1 X136.101 Y111.396 E.01374 ; perimeter
G1 X136.298 Y111.636 E.01377 ; perimeter
G1 X136.444 Y111.911 E.01381 ; perimeter
G1 X136.532 Y112.208 E.01374 ; perimeter
G1 X136.557 Y112.52 E.01388 ; perimeter
G1 X136.459 Y113.05 E.02391 ; perimeter
G1 X136.321 Y113.328 E.01377 ; perimeter
G1 X136.131 Y113.574 E.01379 ; perimeter
G1 X135.896 Y113.776 E.01374 ; perimeter
G1 X135.625 Y113.929 E.0138 ; perimeter
G1 X135.33 Y114.024 E.01375 ; perimeter
G1 X135.021 Y114.059 E.01379 ; perimeter
G1 X134.712 Y114.033 E.01375 ; perimeter
G1 X134.414 Y113.945 E.01378 ; perimeter
G1 X134.139 Y113.8 E.01379 ; perimeter
G1 X133.899 Y113.604 E.01374 ; perimeter
G1 X133.702 Y113.364 E.01377 ; perimeter
G1 X133.556 Y113.089 E.01381 ; perimeter
G1 X133.468 Y112.792 E.01374 ; perimeter
G1 X133.441 Y112.482 E.0138 ; perimeter
G1 X133.475 Y112.174 E.01374 ; perimeter
G1 X133.57 Y111.878 E.01379 ; perimeter
G1 X133.709 Y111.638 E.0123 ; perimeter
M204 S1000 ; adjust acceleration
G1 X133.621 Y111.326 F10800 ; move inwards before travel
;WIPE_START
G1 F8640
G1 X133.927 Y111.371 E-.07959 ; wipe and retract
G1 X134.346 Y111.084 E-.11727 ; wipe and retract
G1 X134.837 Y110.955 E-.11722 ; wipe and retract
G1 X135.288 Y110.967 E-.10417 ; wipe and retract
G1 X135.586 Y111.055 E-.07175 ; wipe and retract
G1 X135.861 Y111.2 E-.07178 ; wipe and retract
G1 X136.101 Y111.396 E-.07155 ; wipe and retract
G1 X136.298 Y111.636 E-.07169 ; wipe and retract
G1 X136.444 Y111.911 E-.07189 ; wipe and retract
G1 X136.532 Y112.208 E-.07153 ; wipe and retract
G1 X136.557 Y112.52 E-.07227 ; wipe and retract
G1 X136.459 Y113.05 E-.12445 ; wipe and retract
G1 X136.321 Y113.328 E-.07166 ; wipe and retract
G1 X136.131 Y113.574 E-.07177 ; wipe and retract
G1 X135.896 Y113.776 E-.07155 ; wipe and retract
G1 X135.625 Y113.929 E-.07186 ; wipe and retract
G1 X135.345 Y114.019 E-.068 ; wipe and retract
;WIPE_END
G1 Z.5 F720 ; lift Z
G1 X116.871 Y112.118 F10800 ; move to first perimeter point
G1 Z.3 F720 ; restore layer Z
G1 E1.4 F2100 ;  ; unretract
M204 S800 ; adjust acceleration
;TYPE:Perimeter
G1 F1200
G1 X116.908 Y112.581 E.0206 ; perimeter
G1 X116.808 Y113.132 E.02484 ; perimeter
G1 X116.605 Y113.543 E.02033 ; perimeter
G1 X116.366 Y113.84 E.01691 ; perimeter
G1 X116.074 Y114.084 E.01688 ; perimeter
G1 X115.738 Y114.266 E.01695 ; perimeter
G1 X115.4 Y114.373 E.01573 ; perimeter
G1 X114.995 Y114.414 E.01806 ; perimeter
G1 X114.615 Y114.375 E.01694 ; perimeter
G1 X114.141 Y114.205 E.02234 ; perimeter
G1 X113.702 Y113.907 E.02353 ; perimeter
G1 X113.389 Y113.534 E.0216 ; perimeter
G1 X113.216 Y113.194 E.01692 ; perimeter
G1 X113.114 Y112.827 E.0169 ; perimeter
G1 X113.087 Y112.447 E.0169 ; perimeter
G1 X113.135 Y112.069 E.0169 ; perimeter
G1 X113.258 Y111.708 E.01692 ; perimeter
G1 X113.448 Y111.38 E.01681 ; perimeter
G1 X113.726 Y111.078 E.01821 ; perimeter
G1 X114.262 Y110.734 E.02825 ; perimeter
G1 X114.626 Y110.623 E.01688 ; perimeter
G1 X115.005 Y110.586 E.01689 ; perimeter
G1 X115.385 Y110.625 E.01694 ; perimeter
G1 X115.748 Y110.738 E.01686 ; perimeter
G1 X116.083 Y110.922 E.01695 ; perimeter
G1 X116.374 Y111.167 E.01687 ; perimeter
G1 X116.611 Y111.466 E.01692 ; perimeter
G1 X116.784 Y111.806 E.01692 ; perimeter
G1 X116.855 Y112.06 E.0117 ; perimeter
M204 S1000 ; adjust acceleration
G1 X116.532 Y112.208 F10800 ; move to first perimeter point
M204 S800 ; adjust acceleration
;TYPE:External perimeter
G1 F1200
G1 X116.557 Y112.52 E.01388 ; perimeter
G1 X116.469 Y113.026 E.02278 ; perimeter
G1 X116.321 Y113.328 E.01492 ; perimeter
G1 X116.131 Y113.574 E.01379 ; perimeter
G1 X115.896 Y113.776 E.01374 ; perimeter
G1 X115.625 Y113.929 E.0138 ; perimeter
G1 X115.338 Y114.023 E.0134 ; perimeter
G1 X115.021 Y114.059 E.01415 ; perimeter
G1 X114.712 Y114.033 E.01375 ; perimeter
G1 X114.303 Y113.888 E.01925 ; perimeter
G1 X113.924 Y113.629 E.02036 ; perimeter
G1 X113.702 Y113.364 E.01533 ; perimeter
G1 X113.556 Y113.089 E.01381 ; perimeter
G1 X113.468 Y112.792 E.01374 ; perimeter
G1 X113.441 Y112.482 E.0138 ; perimeter
G1 X113.475 Y112.174 E.01374 ; perimeter
G1 X113.57 Y111.878 E.01379 ; perimeter
G1 X113.721 Y111.607 E.01376 ; perimeter
G1 X113.927 Y111.371 E.01389 ; perimeter
G1 X114.375 Y111.071 E.02391 ; perimeter
G1 X114.67 Y110.976 E.01375 ; perimeter
G1 X114.979 Y110.941 E.01379 ; perimeter
G1 X115.288 Y110.967 E.01375 ; perimeter
G1 X115.586 Y111.055 E.01378 ; perimeter
G1 X115.861 Y111.2 E.01379 ; perimeter
G1 X116.101 Y111.396 E.01374 ; perimeter
G1 X116.298 Y111.636 E.01377 ; perimeter
G1 X116.444 Y111.911 E.01381 ; perimeter
M73 Q4 S12
G1 X116.515 Y112.15 E.01106 ; perimeter
M204 S1000 ; adjust acceleration
G1 X116.827 Y112.312 F10800 ; move inwards before travel
;WIPE_START
G1 F8640
G1 X116.557 Y112.52 E-.08598 ; wipe and retract
G1 X116.469 Y113.026 E-.11859 ; wipe and retract
G1 X116.321 Y113.328 E-.07766 ; wipe and retract
G1 X116.131 Y113.574 E-.07177 ; wipe and retract
G1 X115.896 Y113.776 E-.07155 ; wipe and retract
G1 X115.625 Y113.929 E-.07186 ; wipe and retract
