; generated by PrusaSlicer 2.6.0 on 2023-07-01 at 06:13:53 UTC


;
;
; 

; external perimeters extrusion width = 0.60mm
; perimeters extrusion width = 0.50mm
; infill extrusion width = 0.50mm
; solid infill extrusion width = 0.50mm
; top infill extrusion width = 0.45mm
; support material extrusion width = 0.38mm
; first layer extrusion width = 0.42mm

; external perimeters extrusion width = 0.60mm
; perimeters extrusion width = 0.50mm
; infill extrusion width = 0.50mm
; solid infill extrusion width = 0.50mm
; top infill extrusion width = 0.45mm
; support material extrusion width = 0.38mm
; first layer extrusion width = 0.42mm

M73 P0 R67
M73 Q0 S68
M201 X1000 Y1000 Z200 E5000 ; sets maximum accelerations, mm/sec^2
M203 X200 Y200 Z12 E120 ; sets maximum feedrates, mm / sec
M204 S1250 T1250 ; sets acceleration (S) and retract acceleration (R), mm/sec^2
M205 X8.00 Y8.00 Z0.40 E4.50 ; sets the jerk limits, mm/sec
M205 S0 T0 ; sets the minimum extruding and travel feed rate, mm/sec
;TYPE:Custom
M862.3 P "MK3S" ; printer model check
M862.1 P0.4 ; nozzle diameter check
M115 U3.11.0 ; tell printer latest fw version
G90 ; use absolute coordinates
M83 ; extruder relative mode
M104 S240 ; set extruder temp
M140 S95 ; set bed temp
M190 S95 ; wait for bed temp
M109 S240 ; wait for extruder temp
G28 W ; home all without mesh bed level
G80 ; mesh bed leveling

G1 Z0.2 F720
G1 Y-3 F1000 ; go outside print area
G92 E0
G1 X60 E9 F1000 ; intro line
G1 X100 E12.5 F1000 ; intro line

G92 E0
M221 S95

; Don't change E values below. Excessive value can damage the printer.

M907 E538 ; set extruder motor current
G21 ; set units to millimeters
G90 ; use absolute coordinates
M83 ; use relative distances for extrusion
M900 K0.08 ; Filament gcode LA 1.5
M900 K45 ; Filament gcode LA 1.0
M107 ; disable fan
;LAYER_CHANGE
;Z:0.3
;HEIGHT:0.3
;BEFORE_LAYER_CHANGE
G92 E0.0
;0.3


G1 E-1.4 F2100 ; retract
G1 Z.2 F720 ; lift Z
G1 Z.3 ; move to next layer (0)
;AFTER_LAYER_CHANGE
;0.3
G1 Z.5 ; lift Z
G1 X93.036 Y37.454 F10800 ; move to first skirt point
G1 Z.3 F720 ; restore layer Z
G1 E1.4 F2100 ;  ; unretract
M204 S800 ; adjust acceleration
;TYPE:Skirt/Brim
;WIDTH:0.42
G1 F1200
G1 X94.08 Y36.586 E.06022 ; skirt
G1 X95 Y36.399 E.04164 ; skirt
G1 X155 Y36.399 E2.66129 ; skirt
G1 X156.3 Y36.791 E.06023 ; skirt
G1 X157.169 Y37.835 E.06025 ; skirt
G1 X157.356 Y38.755 E.04164 ; skirt
G1 X157.356 Y81.755 E1.90726 ; skirt
G1 X154.5 Y124.657 E1.90712 ; skirt
M73 Q0 S67
G1 X154.023 Y125.928 E.06021 ; skirt
G1 X152.31 Y126.85 E.08629 ; skirt
G1 X123.01 Y128.85 E1.30262 ; skirt
G1 X97.85 Y128.856 E1.11597 ; skirt
G1 X96.55 Y128.464 E.06023 ; skirt
G1 X95.681 Y127.42 E.06025 ; skirt
G1 X95.499 Y126.65 E.03509 ; skirt
G1 X92.649 Y81.904 E1.98872 ; skirt
G1 X92.644 Y38.755 E1.91387 ; skirt
G1 X93.019 Y37.512 E.05759 ; skirt
M204 S1000 ; adjust acceleration
; printing object headPlate-Body.stl id:0 copy 0
;WIPE_START
G1 F8640
G1 X94.08 Y36.586 E-.32517 ; wipe and retract
G1 X95 Y36.399 E-.21677 ; wipe and retract
G1 X98.716 Y36.399 E-.85806 ; wipe and retract
;WIPE_END
G1 Z.5 F720 ; lift Z
G1 X95.766 Y39.52 F10800 ; move to first perimeter point
G1 Z.3 F720 ; restore layer Z
G1 E1.4 F2100 ;  ; unretract
M204 S800 ; adjust acceleration
;TYPE:Perimeter
;WIDTH:0.42
G1 F1200
G1 X154.234 Y39.52 E2.59333 ; perimeter
G1 X154.234 Y80.989 E1.83935 ; perimeter
G1 X95.766 Y80.989 E2.59333 ; perimeter
G1 X95.766 Y39.58 E1.83669 ; perimeter
M204 S1000 ; adjust acceleration
G1 X95.41 Y39.165 F10800 ; move to first perimeter point
M204 S800 ; adjust acceleration
;TYPE:External perimeter
G1 F1200
G1 X154.59 Y39.165 E2.62491 ; perimeter
G1 X154.59 Y81.345 E1.87088 ; perimeter
G1 X95.41 Y81.345 E2.62491 ; perimeter
G1 X95.41 Y39.225 E1.86822 ; perimeter
M204 S1000 ; adjust acceleration
M73 P1 R67
G1 X95.802 Y39.247 F10800 ; move inwards before travel
;WIPE_START
M73 P1 R66
M73 Q1 S67
G1 F8640
G1 X101.473 Y39.219 E-1.4 ; wipe and retract
;WIPE_END
G1 Z.5 F720 ; lift Z
G1 X154.128 Y40.346 F10800 ; move to first infill point
G1 Z.3 F720 ; restore layer Z
G1 E1.4 F2100 ;  ; unretract
M204 S800 ; adjust acceleration
;TYPE:Solid infill
;WIDTH:0.420012
G1 F1200
G1 X153.569 Y39.787 E.03507 ; infill
G1 X153.066 Y39.787 E.02231 ; infill
G1 X153.968 Y40.689 E.05658 ; infill
G1 X153.968 Y41.192 E.02231 ; infill
G1 X152.563 Y39.787 E.08813 ; infill
G1 X152.06 Y39.787 E.02231 ; infill
G1 X153.968 Y41.695 E.11969 ; infill
G1 X153.968 Y42.198 E.02231 ; infill
G1 X151.557 Y39.787 E.15124 ; infill
G1 X151.054 Y39.787 E.02231 ; infill
G1 X153.968 Y42.701 E.18279 ; infill
G1 X153.968 Y43.203 E.02227 ; infill
G1 X150.551 Y39.787 E.21431 ; infill
G1 X150.048 Y39.787 E.02231 ; infill
G1 X153.968 Y43.706 E.24587 ; infill
G1 X153.968 Y44.209 E.02231 ; infill
G1 X149.545 Y39.787 E.27742 ; infill
G1 X149.042 Y39.787 E.02231 ; infill
G1 X153.968 Y44.712 E.30897 ; infill
G1 X153.968 Y45.215 E.02231 ; infill
G1 X148.539 Y39.787 E.34053 ; infill
G1 X148.036 Y39.787 E.02231 ; infill
G1 X153.968 Y45.718 E.37208 ; infill
G1 X153.968 Y46.221 E.02231 ; infill
G1 X147.534 Y39.787 E.4036 ; infill
G1 X147.031 Y39.787 E.02231 ; infill
G1 X153.968 Y46.724 E.43515 ; infill
G1 X153.968 Y47.227 E.02231 ; infill
G1 X146.528 Y39.787 E.46671 ; infill
G1 X146.025 Y39.787 E.02231 ; infill
G1 X153.968 Y47.73 E.49826 ; infill
G1 X153.968 Y48.233 E.02231 ; infill
G1 X145.522 Y39.787 E.52981 ; infill
G1 X145.019 Y39.787 E.02231 ; infill
G1 X153.968 Y48.736 E.56136 ; infill
G1 X153.968 Y49.239 E.02231 ; infill
G1 X144.516 Y39.787 E.59292 ; infill
G1 X144.013 Y39.787 E.02231 ; infill
G1 X153.968 Y49.742 E.62447 ; infill
G1 X153.968 Y50.245 E.02231 ; infill
G1 X143.51 Y39.787 E.65602 ; infill
G1 X143.007 Y39.787 E.02231 ; infill
G1 X153.968 Y50.748 E.68758 ; infill
G1 X153.968 Y51.25 E.02227 ; infill
G1 X142.504 Y39.787 E.7191 ; infill
G1 X142.001 Y39.787 E.02231 ; infill
G1 X153.968 Y51.753 E.75065 ; infill
G1 X153.968 Y52.256 E.02231 ; infill
G1 X141.498 Y39.787 E.7822 ; infill
G1 X140.995 Y39.787 E.02231 ; infill
G1 X153.968 Y52.759 E.81375 ; infill
G1 X153.968 Y53.262 E.02231 ; infill
G1 X140.492 Y39.787 E.84531 ; infill
G1 X139.989 Y39.787 E.02231 ; infill
G1 X153.968 Y53.765 E.87686 ; infill
G1 X153.968 Y54.268 E.02231 ; infill
G1 X139.487 Y39.787 E.90838 ; infill
G1 X138.984 Y39.787 E.02231 ; infill
G1 X153.968 Y54.771 E.93993 ; infill
G1 X153.968 Y55.274 E.02231 ; infill
G1 X138.481 Y39.787 E.97149 ; infill
G1 X137.978 Y39.787 E.02231 ; infill
G1 X153.968 Y55.777 E1.00304 ; infill
G1 X153.968 Y56.28 E.02231 ; infill
G1 X137.475 Y39.787 E1.03459 ; infill
G1 X136.972 Y39.787 E.02231 ; infill
G1 X153.968 Y56.783 E1.06615 ; infill
G1 X153.968 Y57.286 E.02231 ; infill
G1 X136.469 Y39.787 E1.0977 ; infill
G1 X135.966 Y39.787 E.02231 ; infill
G1 X153.968 Y57.789 E1.12925 ; infill
G1 X153.968 Y58.292 E.02231 ; infill
G1 X135.463 Y39.787 E1.1608 ; infill
G1 X134.96 Y39.787 E.02231 ; infill
G1 X153.968 Y58.795 E1.19236 ; infill
G1 X153.968 Y59.297 E.02227 ; infill
G1 X134.457 Y39.787 E1.22388 ; infill
G1 X133.954 Y39.787 E.02231 ; infill
M73 Q1 S66
G1 X153.968 Y59.8 E1.25543 ; infill
G1 X153.968 Y60.303 E.02231 ; infill
G1 X133.451 Y39.787 E1.28698 ; infill
G1 X132.948 Y39.787 E.02231 ; infill
G1 X153.968 Y60.806 E1.31854 ; infill
G1 X153.968 Y61.309 E.02231 ; infill
G1 X132.445 Y39.787 E1.35009 ; infill
G1 X131.942 Y39.787 E.02231 ; infill
G1 X153.968 Y61.812 E1.38164 ; infill
G1 X153.968 Y62.315 E.02231 ; infill
G1 X131.44 Y39.787 E1.41316 ; infill
G1 X130.937 Y39.787 E.02231 ; infill
M73 P2 R66
M73 Q2 S66
G1 X153.968 Y62.818 E1.44472 ; infill
G1 X153.968 Y63.321 E.02231 ; infill
G1 X130.434 Y39.787 E1.47627 ; infill
G1 X129.931 Y39.787 E.02231 ; infill
G1 X153.968 Y63.824 E1.50782 ; infill
G1 X153.968 Y64.327 E.02231 ; infill
G1 X129.428 Y39.787 E1.53938 ; infill
G1 X128.925 Y39.787 E.02231 ; infill
G1 X153.968 Y64.83 E1.57093 ; infill
G1 X153.968 Y65.333 E.02231 ; infill
G1 X128.422 Y39.787 E1.60248 ; infill
G1 X127.919 Y39.787 E.02231 ; infill
G1 X153.968 Y65.836 E1.63403 ; infill
G1 X153.968 Y66.339 E.02231 ; infill
G1 X127.416 Y39.787 E1.66559 ; infill
G1 X126.913 Y39.787 E.02231 ; infill
G1 X153.968 Y66.842 E1.69714 ; infill
G1 X153.968 Y67.344 E.02227 ; infill
G1 X126.41 Y39.787 E1.72866 ; infill
G1 X125.907 Y39.787 E.02231 ; infill
G1 X153.968 Y67.847 E1.76021 ; infill
G1 X153.968 Y68.35 E.02231 ; infill
M73 P2 R65
G1 X125.404 Y39.787 E1.79177 ; infill
G1 X124.901 Y39.787 E.02231 ; infill
G1 X153.968 Y68.853 E1.82332 ; infill
G1 X153.968 Y69.356 E.02231 ; infill
G1 X124.398 Y39.787 E1.85487 ; infill
G1 X123.895 Y39.787 E.02231 ; infill
G1 X153.968 Y69.859 E1.88642 ; infill
G1 X153.968 Y70.362 E.02231 ; infill
G1 X123.393 Y39.787 E1.91795 ; infill
G1 X122.89 Y39.787 E.02231 ; infill
G1 X153.968 Y70.865 E1.9495 ; infill
G1 X153.968 Y71.368 E.02231 ; infill
G1 X122.387 Y39.787 E1.98105 ; infill
G1 X121.884 Y39.787 E.02231 ; infill
G1 X153.968 Y71.871 E2.0126 ; infill
G1 X153.968 Y72.374 E.02231 ; infill
G1 X121.381 Y39.787 E2.04416 ; infill
G1 X120.878 Y39.787 E.02231 ; infill
G1 X153.968 Y72.877 E2.07571 ; infill
M73 P3 R65
G1 X153.968 Y73.38 E.02231 ; infill
M73 Q3 S66
G1 X120.375 Y39.787 E2.10726 ; infill
G1 X119.872 Y39.787 E.02231 ; infill
G1 X153.968 Y73.883 E2.13882 ; infill
G1 X153.968 Y74.386 E.02231 ; infill
G1 X119.369 Y39.787 E2.17037 ; infill
G1 X118.866 Y39.787 E.02231 ; infill
G1 X153.968 Y74.889 E2.20192 ; infill
G1 X153.968 Y75.392 E.02231 ; infill
M73 Q3 S65
G1 X118.363 Y39.787 E2.23347 ; infill
G1 X117.86 Y39.787 E.02231 ; infill
G1 X153.968 Y75.894 E2.265 ; infill
G1 X153.968 Y76.397 E.02231 ; infill
G1 X117.357 Y39.787 E2.29655 ; infill
G1 X116.854 Y39.787 E.02231 ; infill
G1 X153.968 Y76.9 E2.3281 ; infill
G1 X153.968 Y77.403 E.02231 ; infill
G1 X116.351 Y39.787 E2.35965 ; infill
G1 X115.848 Y39.787 E.02231 ; infill
G1 X153.968 Y77.906 E2.39121 ; infill
G1 X153.968 Y78.409 E.02231 ; infill
G1 X115.346 Y39.787 E2.42273 ; infill
G1 X114.843 Y39.787 E.02231 ; infill
G1 X153.968 Y78.912 E2.45428 ; infill
G1 X153.968 Y79.415 E.02231 ; infill
G1 X114.34 Y39.787 E2.48583 ; infill
G1 X113.837 Y39.787 E.02231 ; infill
G1 X153.968 Y79.918 E2.51739 ; infill
G1 X153.968 Y80.421 E.02231 ; infill
G1 X113.334 Y39.787 E2.54894 ; infill
G1 X112.831 Y39.787 E.02231 ; infill
M73 P4 R64
M73 Q4 S65
G1 X153.766 Y80.722 E2.56782 ; infill
G1 X153.263 Y80.722 E.02231 ; infill
G1 X112.328 Y39.787 E2.56782 ; infill
G1 X111.825 Y39.787 E.02231 ; infill
G1 X152.76 Y80.722 E2.56782 ; infill
G1 X152.257 Y80.722 E.02231 ; infill
G1 X111.322 Y39.787 E2.56782 ; infill
G1 X110.819 Y39.787 E.02231 ; infill
G1 X151.754 Y80.722 E2.56782 ; infill
G1 X151.251 Y80.722 E.02231 ; infill
G1 X110.316 Y39.787 E2.56782 ; infill
G1 X109.813 Y39.787 E.02231 ; infill
G1 X150.749 Y80.722 E2.56785 ; infill
G1 X150.246 Y80.722 E.02231 ; infill
G1 X109.31 Y39.787 E2.56785 ; infill
G1 X108.807 Y39.787 E.02231 ; infill
G1 X149.743 Y80.722 E2.56785 ; infill
G1 X149.24 Y80.722 E.02231 ; infill
G1 X108.304 Y39.787 E2.56785 ; infill
G1 X107.801 Y39.787 E.02231 ; infill
M73 Q4 S64
G1 X148.737 Y80.722 E2.56785 ; infill
G1 X148.234 Y80.722 E.02231 ; infill
G1 X107.298 Y39.787 E2.56785 ; infill
G1 X106.796 Y39.787 E.02227 ; infill
G1 X147.731 Y80.722 E2.56782 ; infill
G1 X147.228 Y80.722 E.02231 ; infill
G1 X106.293 Y39.787 E2.56782 ; infill
G1 X105.79 Y39.787 E.02231 ; infill
M73 P5 R64
M73 Q5 S64
G1 X146.725 Y80.722 E2.56782 ; infill
G1 X146.222 Y80.722 E.02231 ; infill
G1 X105.287 Y39.787 E2.56782 ; infill
G1 X104.784 Y39.787 E.02231 ; infill
G1 X145.719 Y80.722 E2.56782 ; infill
G1 X145.216 Y80.722 E.02231 ; infill
G1 X104.281 Y39.787 E2.56782 ; infill
G1 X103.778 Y39.787 E.02231 ; infill
G1 X144.713 Y80.722 E2.56782 ; infill
G1 X144.21 Y80.722 E.02231 ; infill
G1 X103.275 Y39.787 E2.56782 ; infill
G1 X102.772 Y39.787 E.02231 ; infill
M73 P5 R63
G1 X143.707 Y80.722 E2.56782 ; infill
G1 X143.204 Y80.722 E.02231 ; infill
G1 X102.269 Y39.787 E2.56782 ; infill
G1 X101.766 Y39.787 E.02231 ; infill
G1 X142.702 Y80.722 E2.56785 ; infill
G1 X142.199 Y80.722 E.02231 ; infill
G1 X101.263 Y39.787 E2.56785 ; infill
G1 X100.76 Y39.787 E.02231 ; infill
G1 X141.696 Y80.722 E2.56785 ; infill
G1 X141.193 Y80.722 E.02231 ; infill
G1 X100.257 Y39.787 E2.56785 ; infill
G1 X99.754 Y39.787 E.02231 ; infill
G1 X140.69 Y80.722 E2.56785 ; infill
G1 X140.187 Y80.722 E.02231 ; infill
G1 X99.251 Y39.787 E2.56785 ; infill
G1 X98.749 Y39.787 E.02227 ; infill
M73 P6 R63
M73 Q6 S64
G1 X139.684 Y80.722 E2.56782 ; infill
G1 X139.181 Y80.722 E.02231 ; infill
G1 X98.246 Y39.787 E2.56782 ; infill
G1 X97.743 Y39.787 E.02231 ; infill
M73 Q6 S63
G1 X138.678 Y80.722 E2.56782 ; infill
G1 X138.175 Y80.722 E.02231 ; infill
G1 X97.24 Y39.787 E2.56782 ; infill
G1 X96.737 Y39.787 E.02231 ; infill
G1 X137.672 Y80.722 E2.56782 ; infill
G1 X137.169 Y80.722 E.02231 ; infill
G1 X96.234 Y39.787 E2.56782 ; infill
G1 X96.032 Y39.787 E.00896 ; infill
G1 X96.032 Y40.088 E.01335 ; infill
G1 X136.666 Y80.722 E2.54894 ; infill
G1 X136.163 Y80.722 E.02231 ; infill
G1 X96.032 Y40.591 E2.51739 ; infill
G1 X96.032 Y41.094 E.02231 ; infill
G1 X135.66 Y80.722 E2.48583 ; infill
G1 X135.157 Y80.722 E.02231 ; infill
G1 X96.032 Y41.597 E2.45428 ; infill
G1 X96.032 Y42.1 E.02231 ; infill
G1 X134.655 Y80.722 E2.42276 ; infill
G1 X134.152 Y80.722 E.02231 ; infill
G1 X96.032 Y42.603 E2.39121 ; infill
G1 X96.032 Y43.106 E.02231 ; infill
G1 X133.649 Y80.722 E2.35965 ; infill
G1 X133.146 Y80.722 E.02231 ; infill
M73 P6 R62
G1 X96.032 Y43.609 E2.3281 ; infill
G1 X96.032 Y44.112 E.02231 ; infill
M73 P7 R62
M73 Q7 S63
G1 X132.643 Y80.722 E2.29655 ; infill
G1 X132.14 Y80.722 E.02231 ; infill
G1 X96.032 Y44.615 E2.265 ; infill
G1 X96.032 Y45.118 E.02231 ; infill
G1 X131.637 Y80.722 E2.23344 ; infill
G1 X131.134 Y80.722 E.02231 ; infill
G1 X96.032 Y45.621 E2.20189 ; infill
G1 X96.032 Y46.124 E.02231 ; infill
G1 X130.631 Y80.722 E2.17034 ; infill
G1 X130.128 Y80.722 E.02231 ; infill
G1 X96.032 Y46.627 E2.13878 ; infill
G1 X96.032 Y47.13 E.02231 ; infill
G1 X129.625 Y80.722 E2.10723 ; infill
G1 X129.122 Y80.722 E.02231 ; infill
G1 X96.032 Y47.632 E2.07571 ; infill
G1 X96.032 Y48.135 E.02231 ; infill
G1 X128.619 Y80.722 E2.04416 ; infill
G1 X128.116 Y80.722 E.02231 ; infill
G1 X96.032 Y48.638 E2.0126 ; infill
G1 X96.032 Y49.141 E.02231 ; infill
G1 X127.613 Y80.722 E1.98105 ; infill
G1 X127.11 Y80.722 E.02231 ; infill
M73 Q7 S62
G1 X96.032 Y49.644 E1.9495 ; infill
G1 X96.032 Y50.147 E.02231 ; infill
G1 X126.607 Y80.722 E1.91795 ; infill
G1 X126.105 Y80.722 E.02227 ; infill
G1 X96.032 Y50.65 E1.88642 ; infill
G1 X96.032 Y51.153 E.02231 ; infill
G1 X125.602 Y80.722 E1.85487 ; infill
G1 X125.099 Y80.722 E.02231 ; infill
G1 X96.032 Y51.656 E1.82332 ; infill
G1 X96.032 Y52.159 E.02231 ; infill
G1 X124.596 Y80.722 E1.79177 ; infill
G1 X124.093 Y80.722 E.02231 ; infill
M73 P8 R62
G1 X96.032 Y52.662 E1.76021 ; infill
G1 X96.032 Y53.165 E.02231 ; infill
M73 Q8 S62
G1 X123.59 Y80.722 E1.72866 ; infill
G1 X123.087 Y80.722 E.02231 ; infill
G1 X96.032 Y53.668 E1.69711 ; infill
G1 X96.032 Y54.171 E.02231 ; infill
G1 X122.584 Y80.722 E1.66555 ; infill
G1 X122.081 Y80.722 E.02231 ; infill
G1 X96.032 Y54.674 E1.634 ; infill
G1 X96.032 Y55.177 E.02231 ; infill
G1 X121.578 Y80.722 E1.60245 ; infill
G1 X121.075 Y80.722 E.02231 ; infill
G1 X96.032 Y55.679 E1.57093 ; infill
G1 X96.032 Y56.182 E.02231 ; infill
G1 X120.572 Y80.722 E1.53938 ; infill
G1 X120.069 Y80.722 E.02231 ; infill
G1 X96.032 Y56.685 E1.50782 ; infill
G1 X96.032 Y57.188 E.02231 ; infill
M73 P8 R61
G1 X119.566 Y80.722 E1.47627 ; infill
G1 X119.063 Y80.722 E.02231 ; infill
G1 X96.032 Y57.691 E1.44472 ; infill
G1 X96.032 Y58.194 E.02231 ; infill
G1 X118.56 Y80.722 E1.41316 ; infill
G1 X118.058 Y80.722 E.02227 ; infill
G1 X96.032 Y58.697 E1.38164 ; infill
G1 X96.032 Y59.2 E.02231 ; infill
G1 X117.555 Y80.722 E1.35009 ; infill
G1 X117.052 Y80.722 E.02231 ; infill
G1 X96.032 Y59.703 E1.31854 ; infill
G1 X96.032 Y60.206 E.02231 ; infill
G1 X116.549 Y80.722 E1.28698 ; infill
