; generated by PrusaSlicer 2.6.0 on 2023-07-06 at 19:27:01 UTC


;
;
; 

; external perimeters extrusion width = 0.60mm
; perimeters extrusion width = 0.50mm
; infill extrusion width = 0.50mm
; solid infill extrusion width = 0.50mm
; top infill extrusion width = 0.45mm
; support material extrusion width = 0.38mm
; first layer extrusion width = 0.42mm

; external perimeters extrusion width = 0.60mm
; perimeters extrusion width = 0.50mm
; infill extrusion width = 0.50mm
; solid infill extrusion width = 0.50mm
; top infill extrusion width = 0.45mm
; support material extrusion width = 0.38mm
; first layer extrusion width = 0.42mm

; external perimeters extrusion width = 0.60mm
; perimeters extrusion width = 0.50mm
; infill extrusion width = 0.50mm
; solid infill extrusion width = 0.50mm
; top infill extrusion width = 0.45mm
; support material extrusion width = 0.38mm
; first layer extrusion width = 0.42mm

M73 P0 R32
M73 Q0 S33
M201 X1000 Y1000 Z200 E5000 ; sets maximum accelerations, mm/sec^2
M203 X200 Y200 Z12 E120 ; sets maximum feedrates, mm / sec
M204 S1250 T1250 ; sets acceleration (S) and retract acceleration (R), mm/sec^2
M205 X8.00 Y8.00 Z0.40 E4.50 ; sets the jerk limits, mm/sec
M205 S0 T0 ; sets the minimum extruding and travel feed rate, mm/sec
;TYPE:Custom
M862.3 P "MK3S" ; printer model check
M862.1 P0.4 ; nozzle diameter check
M115 U3.11.0 ; tell printer latest fw version
G90 ; use absolute coordinates
M83 ; extruder relative mode
M104 S240 ; set extruder temp
M140 S95 ; set bed temp
M190 S95 ; wait for bed temp
M109 S240 ; wait for extruder temp
G28 W ; home all without mesh bed level
G80 ; mesh bed leveling

G1 Z0.2 F720
G1 Y-3 F1000 ; go outside print area
G92 E0
G1 X60 E9 F1000 ; intro line
G1 X100 E12.5 F1000 ; intro line

G92 E0
M221 S95

; Don't change E values below. Excessive value can damage the printer.

M907 E538 ; set extruder motor current
G21 ; set units to millimeters
G90 ; use absolute coordinates
M83 ; use relative distances for extrusion
M900 K0.08 ; Filament gcode LA 1.5
M900 K45 ; Filament gcode LA 1.0
M107 ; disable fan
;LAYER_CHANGE
;Z:0.3
;HEIGHT:0.3
;BEFORE_LAYER_CHANGE
G92 E0.0
;0.3


G1 E-1.4 F2100 ; retract
M73 Q0 S32
G1 Z.2 F720 ; lift Z
G1 Z.3 ; move to next layer (0)
;AFTER_LAYER_CHANGE
;0.3
G1 Z.5 ; lift Z
G1 X109.196 Y60.462 F10800 ; move to first skirt point
G1 Z.3 F720 ; restore layer Z
G1 E1.4 F2100 ;  ; unretract
M204 S800 ; adjust acceleration
;TYPE:Skirt/Brim
;WIDTH:0.42
G1 F1200
G1 X110.071 Y59.073 E.07281 ; skirt
G1 X111.15 Y58.026 E.06669 ; skirt
G1 X111.721 Y57.612 E.03128 ; skirt
G1 X113.205 Y56.91 E.07282 ; skirt
G1 X114.749 Y56.585 E.06998 ; skirt
G1 X126.308 Y56.301 E.51285 ; skirt
G1 X136.567 Y56.607 E.45524 ; skirt
G1 X138.106 Y56.932 E.06977 ; skirt
G1 X139.59 Y57.633 E.0728 ; skirt
G1 X140.863 Y58.67 E.07283 ; skirt
G1 X141.773 Y59.867 E.06669 ; skirt
G1 X142.115 Y60.483 E.03125 ; skirt
G1 X142.633 Y62.041 E.07282 ; skirt
G1 X142.78 Y63.387 E.06006 ; skirt
G1 X142.856 Y119 E2.46671 ; skirt
G1 X142.298 Y127.233 E.36601 ; skirt
G1 X141.839 Y128.809 E.07281 ; skirt
G1 X141.338 Y129.762 E.04776 ; skirt
G1 X140.302 Y131.036 E.07283 ; skirt
G1 X138.991 Y132.024 E.07281 ; skirt
G1 X138.488 Y132.288 E.0252 ; skirt
G1 X136.93 Y132.805 E.07281 ; skirt
G1 X135.578 Y132.952 E.06032 ; skirt
G1 X114.578 Y132.952 E.93145 ; skirt
G1 X113.225 Y132.805 E.06037 ; skirt
G1 X111.667 Y132.288 E.07281 ; skirt
G1 X110.279 Y131.412 E.0728 ; skirt
G1 X109.14 Y130.23 E.07281 ; skirt
G1 X108.317 Y128.809 E.07284 ; skirt
G1 X108.115 Y128.278 E.0252 ; skirt
G1 X107.798 Y126.868 E.0641 ; skirt
G1 X107.152 Y119.226 E.34017 ; skirt
G1 X107.146 Y90.893 E1.2567 ; skirt
G1 X108.534 Y63.254 E1.22747 ; skirt
G1 X108.678 Y62.02 E.05511 ; skirt
G1 X109.177 Y60.519 E.07016 ; skirt
M204 S1000 ; adjust acceleration
; printing object neckHornSmall-Body.stl id:2 copy 2
;WIPE_START
G1 F8640
G1 X110.071 Y59.073 E-.39255 ; wipe and retract
G1 X111.15 Y58.026 E-.34716 ; wipe and retract
G1 X111.721 Y57.612 E-.16285 ; wipe and retract
G1 X113.205 Y56.91 E-.37906 ; wipe and retract
G1 X113.707 Y56.804 E-.11838 ; wipe and retract
;WIPE_END
G1 Z.5 F720 ; lift Z
G1 X132.809 Y62.618 F10800 ; move to first perimeter point
G1 Z.3 F720 ; restore layer Z
G1 E1.4 F2100 ;  ; unretract
M204 S800 ; adjust acceleration
;TYPE:Perimeter
;WIDTH:0.42
G1 F1200
G1 X133.087 Y61.886 E.03473 ; perimeter
G1 X133.531 Y61.243 E.03466 ; perimeter
G1 X134.116 Y60.724 E.03469 ; perimeter
G1 X134.808 Y60.361 E.03466 ; perimeter
G1 X135.568 Y60.174 E.03472 ; perimeter
G1 X136.35 Y60.174 E.03469 ; perimeter
G1 X137.109 Y60.361 E.03467 ; perimeter
G1 X137.801 Y60.724 E.03466 ; perimeter
G1 X138.387 Y61.243 E.03472 ; perimeter
G1 X138.831 Y61.886 E.03466 ; perimeter
G1 X139.079 Y62.54 E.03102 ; perimeter
G1 X139.136 Y62.846 E.01381 ; perimeter
G1 X139.208 Y63.482 E.02839 ; perimeter
G1 X139.208 Y84.348 E.92551 ; perimeter
G1 X139.108 Y85.17 E.03673 ; perimeter
M73 Q1 S32
G1 X138.831 Y85.901 E.03467 ; perimeter
M73 P1 R32
G1 X138.387 Y86.545 E.0347 ; perimeter
G1 X137.801 Y87.063 E.03469 ; perimeter
G1 X137.109 Y87.427 E.03468 ; perimeter
G1 X136.35 Y87.614 E.03467 ; perimeter
G1 X135.568 Y87.614 E.03469 ; perimeter
G1 X134.808 Y87.427 E.03472 ; perimeter
G1 X134.116 Y87.063 E.03468 ; perimeter
G1 X133.531 Y86.545 E.03466 ; perimeter
G1 X133.087 Y85.901 E.0347 ; perimeter
G1 X132.809 Y85.17 E.03469 ; perimeter
G1 X132.709 Y84.348 E.03673 ; perimeter
G1 X132.709 Y63.44 E.92737 ; perimeter
G1 X132.802 Y62.677 E.03409 ; perimeter
M204 S1000 ; adjust acceleration
G1 X132.461 Y62.532 F10800 ; move to first perimeter point
M204 S800 ; adjust acceleration
;TYPE:External perimeter
G1 F1200
G1 X132.769 Y61.72 E.03852 ; perimeter
G1 X133.263 Y61.005 E.03855 ; perimeter
G1 X133.913 Y60.429 E.03852 ; perimeter
G1 X134.681 Y60.026 E.03847 ; perimeter
G1 X135.525 Y59.818 E.03856 ; perimeter
G1 X136.393 Y59.818 E.0385 ; perimeter
G1 X137.236 Y60.026 E.03851 ; perimeter
G1 X138.005 Y60.429 E.03851 ; perimeter
G1 X138.655 Y61.005 E.03852 ; perimeter
G1 X139.148 Y61.72 E.03852 ; perimeter
G1 X139.411 Y62.414 E.03292 ; perimeter
G1 X139.489 Y62.803 E.0176 ; perimeter
G1 X139.564 Y63.482 E.0303 ; perimeter
G1 X139.564 Y84.369 E.92644 ; perimeter
G1 X139.456 Y85.256 E.03963 ; perimeter
G1 X139.148 Y86.068 E.03852 ; perimeter
G1 X138.655 Y86.782 E.03849 ; perimeter
G1 X138.005 Y87.358 E.03852 ; perimeter
G1 X137.236 Y87.762 E.03853 ; perimeter
G1 X136.393 Y87.97 E.03851 ; perimeter
G1 X135.525 Y87.97 E.0385 ; perimeter
G1 X134.681 Y87.762 E.03856 ; perimeter
G1 X133.913 Y87.358 E.03849 ; perimeter
G1 X133.263 Y86.782 E.03852 ; perimeter
G1 X132.769 Y86.068 E.03851 ; perimeter
G1 X132.461 Y85.256 E.03852 ; perimeter
G1 X132.354 Y84.369 E.03963 ; perimeter
G1 X132.354 Y63.419 E.92923 ; perimeter
G1 X132.454 Y62.591 E.03699 ; perimeter
M204 S1000 ; adjust acceleration
G1 X132.846 Y62.421 F10800 ; move inwards before travel
;WIPE_START
G1 F8640
G1 X132.769 Y61.72 E-.21386 ; wipe and retract
G1 X133.263 Y61.005 E-.20067 ; wipe and retract
G1 X133.913 Y60.429 E-.20054 ; wipe and retract
G1 X134.681 Y60.026 E-.20027 ; wipe and retract
G1 X135.525 Y59.818 E-.20071 ; wipe and retract
G1 X136.393 Y59.818 E-.20042 ; wipe and retract
G1 X137.165 Y60.008 E-.18353 ; wipe and retract
;WIPE_END
G1 Z.5 F720 ; lift Z
G1 X134.101 Y63.396 F10800 ; move to first perimeter point
G1 Z.3 F720 ; restore layer Z
G1 E1.4 F2100 ;  ; unretract
M204 S800 ; adjust acceleration
;TYPE:Perimeter
G1 F1200
G1 X134.095 Y63.33 E.00294 ; perimeter
G1 X134.165 Y62.886 E.01994 ; perimeter
G1 X134.339 Y62.471 E.01996 ; perimeter
G1 X134.607 Y62.11 E.01994 ; perimeter
G1 X134.953 Y61.824 E.01991 ; perimeter
G1 X135.358 Y61.629 E.01994 ; perimeter
G1 X135.798 Y61.536 E.01995 ; perimeter
G1 X136.247 Y61.552 E.01993 ; perimeter
G1 X136.68 Y61.674 E.01995 ; perimeter
G1 X137.07 Y61.897 E.01993 ; perimeter
G1 X137.396 Y62.206 E.01992 ; perimeter
G1 X137.579 Y62.471 E.01428 ; perimeter
G1 X137.772 Y62.947 E.02278 ; perimeter
G1 X137.822 Y63.458 E.02277 ; perimeter
G1 X137.753 Y63.902 E.01993 ; perimeter
G1 X137.579 Y64.317 E.01996 ; perimeter
G1 X137.311 Y64.678 E.01994 ; perimeter
G1 X136.964 Y64.964 E.01995 ; perimeter
G1 X136.559 Y65.159 E.01994 ; perimeter
G1 X136.12 Y65.251 E.01989 ; perimeter
G1 X135.67 Y65.236 E.01997 ; perimeter
G1 X135.238 Y65.113 E.01992 ; perimeter
G1 X134.847 Y64.891 E.01994 ; perimeter
G1 X134.521 Y64.581 E.01995 ; perimeter
G1 X134.279 Y64.203 E.01991 ; perimeter
G1 X134.134 Y63.777 E.01996 ; perimeter
G1 X134.106 Y63.456 E.01429 ; perimeter
M204 S1000 ; adjust acceleration
;WIPE_START
G1 F8640
G1 X134.095 Y63.33 E-.0292 ; wipe and retract
G1 X134.165 Y62.886 E-.10379 ; wipe and retract
G1 X134.339 Y62.471 E-.10391 ; wipe and retract
G1 X134.607 Y62.11 E-.10382 ; wipe and retract
G1 X134.953 Y61.824 E-.10365 ; wipe and retract
G1 X135.358 Y61.629 E-.10379 ; wipe and retract
G1 X135.798 Y61.536 E-.10384 ; wipe and retract
G1 X136.247 Y61.552 E-.10374 ; wipe and retract
G1 X136.68 Y61.674 E-.10387 ; wipe and retract
G1 X137.07 Y61.897 E-.10373 ; wipe and retract
G1 X137.396 Y62.206 E-.10372 ; wipe and retract
G1 X137.579 Y62.471 E-.07436 ; wipe and retract
G1 X137.772 Y62.947 E-.1186 ; wipe and retract
G1 X137.822 Y63.458 E-.11855 ; wipe and retract
G1 X137.808 Y63.55 E-.02143 ; wipe and retract
;WIPE_END
G1 Z.5 F720 ; lift Z
G1 X135.083 Y64.625 F10800 ; move to first perimeter point
G1 Z.3 F720 ; restore layer Z
G1 E1.4 F2100 ;  ; unretract
M204 S800 ; adjust acceleration
;TYPE:External perimeter
G1 F1200
G1 X134.814 Y64.379 E.01617 ; perimeter
G1 X134.611 Y64.077 E.01614 ; perimeter
G1 X134.487 Y63.735 E.01614 ; perimeter
G1 X134.448 Y63.372 E.01619 ; perimeter
G1 X134.497 Y63.012 E.01611 ; perimeter
G1 X134.631 Y62.673 E.01617 ; perimeter
G1 X134.842 Y62.376 E.01616 ; perimeter
G1 X135.118 Y62.139 E.01614 ; perimeter
G1 X135.443 Y61.974 E.01617 ; perimeter
G1 X135.798 Y61.892 E.01616 ; perimeter
G1 X136.162 Y61.897 E.01615 ; perimeter
G1 X136.514 Y61.989 E.01614 ; perimeter
G1 X136.834 Y62.163 E.01616 ; perimeter
G1 X137.104 Y62.408 E.01617 ; perimeter
G1 X137.286 Y62.673 E.01426 ; perimeter
G1 X137.43 Y63.053 E.01802 ; perimeter
G1 X137.469 Y63.415 E.01615 ; perimeter
G1 X137.42 Y63.776 E.01616 ; perimeter
G1 X137.286 Y64.115 E.01617 ; perimeter
G1 X137.075 Y64.411 E.01612 ; perimeter
G1 X136.799 Y64.649 E.01616 ; perimeter
G1 X136.474 Y64.814 E.01617 ; perimeter
G1 X136.12 Y64.896 E.01612 ; perimeter
G1 X135.755 Y64.891 E.01619 ; perimeter
G1 X135.403 Y64.799 E.01614 ; perimeter
G1 X135.136 Y64.653 E.0135 ; perimeter
M204 S1000 ; adjust acceleration
G1 X134.752 Y64.776 F10800 ; move inwards before travel
;WIPE_START
G1 F8640
G1 X134.814 Y64.379 E-.09763 ; wipe and retract
G1 X134.611 Y64.077 E-.08402 ; wipe and retract
G1 X134.487 Y63.735 E-.084 ; wipe and retract
G1 X134.448 Y63.372 E-.0843 ; wipe and retract
G1 X134.497 Y63.012 E-.08389 ; wipe and retract
G1 X134.631 Y62.673 E-.08417 ; wipe and retract
G1 X134.842 Y62.376 E-.08412 ; wipe and retract
G1 X135.118 Y62.139 E-.084 ; wipe and retract
G1 X135.443 Y61.974 E-.08416 ; wipe and retract
G1 X135.798 Y61.892 E-.08413 ; wipe and retract
G1 X136.162 Y61.897 E-.08406 ; wipe and retract
G1 X136.514 Y61.989 E-.08401 ; wipe and retract
G1 X136.834 Y62.163 E-.08411 ; wipe and retract
G1 X137.104 Y62.408 E-.08418 ; wipe and retract
G1 X137.286 Y62.673 E-.07423 ; wipe and retract
G1 X137.43 Y63.053 E-.09383 ; wipe and retract
G1 X137.449 Y63.23 E-.04116 ; wipe and retract
;WIPE_END
G1 Z.5 F720 ; lift Z
G1 X134.154 Y83.952 F10800 ; move to first perimeter point
G1 Z.3 F720 ; restore layer Z
G1 E1.4 F2100 ;  ; unretract
M204 S800 ; adjust acceleration
;TYPE:Perimeter
G1 F1200
G1 X134.165 Y83.886 E.00297 ; perimeter
G1 X134.339 Y83.471 E.01996 ; perimeter
G1 X134.607 Y83.11 E.01994 ; perimeter
G1 X134.953 Y82.824 E.01991 ; perimeter
G1 X135.358 Y82.629 E.01994 ; perimeter
G1 X135.798 Y82.536 E.01995 ; perimeter
G1 X136.247 Y82.552 E.01993 ; perimeter
G1 X136.68 Y82.674 E.01995 ; perimeter
G1 X137.07 Y82.897 E.01993 ; perimeter
G1 X137.396 Y83.206 E.01992 ; perimeter
G1 X137.639 Y83.585 E.01997 ; perimeter
G1 X137.783 Y84.01 E.0199 ; perimeter
G1 X137.822 Y84.458 E.01995 ; perimeter
G1 X137.753 Y84.902 E.01993 ; perimeter
G1 X137.579 Y85.317 E.01996 ; perimeter
G1 X137.311 Y85.678 E.01994 ; perimeter
G1 X136.964 Y85.964 E.01995 ; perimeter
G1 X136.559 Y86.159 E.01994 ; perimeter
G1 X136.12 Y86.251 E.01989 ; perimeter
G1 X135.67 Y86.236 E.01997 ; perimeter
G1 X135.238 Y86.113 E.01992 ; perimeter
G1 X134.847 Y85.891 E.01994 ; perimeter
G1 X134.521 Y85.581 E.01995 ; perimeter
G1 X134.279 Y85.203 E.01991 ; perimeter
G1 X134.146 Y84.841 E.01711 ; perimeter
G1 X134.095 Y84.33 E.02278 ; perimeter
G1 X134.145 Y84.011 E.01432 ; perimeter
M204 S1000 ; adjust acceleration
G1 X134.497 Y84.012 F10800 ; move to first perimeter point
M204 S800 ; adjust acceleration
;TYPE:External perimeter
G1 F1200
G1 X134.631 Y83.673 E.01617 ; perimeter
G1 X134.842 Y83.376 E.01616 ; perimeter
G1 X135.118 Y83.139 E.01614 ; perimeter
G1 X135.443 Y82.974 E.01617 ; perimeter
G1 X135.798 Y82.892 E.01616 ; perimeter
G1 X136.162 Y82.897 E.01615 ; perimeter
G1 X136.514 Y82.989 E.01614 ; perimeter
G1 X136.834 Y83.163 E.01616 ; perimeter
G1 X137.104 Y83.408 E.01617 ; perimeter
G1 X137.306 Y83.711 E.01615 ; perimeter
G1 X137.43 Y84.053 E.01614 ; perimeter
G1 X137.469 Y84.415 E.01615 ; perimeter
G1 X137.42 Y84.776 E.01616 ; perimeter
G1 X137.286 Y85.115 E.01617 ; perimeter
G1 X137.075 Y85.411 E.01612 ; perimeter
G1 X136.799 Y85.649 E.01616 ; perimeter
G1 X136.474 Y85.814 E.01617 ; perimeter
G1 X136.12 Y85.896 E.01612 ; perimeter
G1 X135.755 Y85.891 E.01619 ; perimeter
G1 X135.403 Y85.799 E.01614 ; perimeter
G1 X135.083 Y85.625 E.01616 ; perimeter
G1 X134.814 Y85.379 E.01617 ; perimeter
G1 X134.611 Y85.077 E.01614 ; perimeter
G1 X134.491 Y84.756 E.0152 ; perimeter
G1 X134.448 Y84.372 E.01714 ; perimeter
G1 X134.489 Y84.071 E.01347 ; perimeter
M204 S1000 ; adjust acceleration
G1 X134.238 Y83.756 F10800 ; move inwards before travel
;WIPE_START
G1 F8640
G1 X134.631 Y83.673 E-.09757 ; wipe and retract
G1 X134.842 Y83.376 E-.08412 ; wipe and retract
G1 X135.118 Y83.139 E-.084 ; wipe and retract
G1 X135.443 Y82.974 E-.08416 ; wipe and retract
G1 X135.798 Y82.892 E-.08413 ; wipe and retract
G1 X136.162 Y82.897 E-.08406 ; wipe and retract
G1 X136.514 Y82.989 E-.08401 ; wipe and retract
G1 X136.834 Y83.163 E-.08411 ; wipe and retract
G1 X137.104 Y83.408 E-.08418 ; wipe and retract
G1 X137.306 Y83.711 E-.08409 ; wipe and retract
G1 X137.43 Y84.053 E-.084 ; wipe and retract
G1 X137.469 Y84.415 E-.08407 ; wipe and retract
G1 X137.42 Y84.776 E-.08412 ; wipe and retract
G1 X137.286 Y85.115 E-.08417 ; wipe and retract
G1 X137.075 Y85.411 E-.08393 ; wipe and retract
G1 X136.799 Y85.649 E-.08415 ; wipe and retract
G1 X136.64 Y85.73 E-.04113 ; wipe and retract
;WIPE_END
G1 Z.5 F720 ; lift Z
G1 X138.757 Y61.994 F10800 ; move to first infill point
G1 Z.3 F720 ; restore layer Z
G1 E1.4 F2100 ;  ; unretract
M204 S800 ; adjust acceleration
;TYPE:Solid infill
;WIDTH:0.422789
G1 F1200
G1 X138.18 Y61.416 E.03651 ; infill
G1 X137.649 Y60.945 E.03173 ; infill
G1 X137.014 Y60.612 E.03205 ; infill
G1 X136.822 Y60.565 E.00884 ; infill
G1 X138.791 Y62.534 E.12448 ; infill
G1 X138.847 Y62.682 E.00707 ; infill
G1 X138.905 Y63.155 E.0213 ; infill
G1 X136.191 Y60.44 E.17161 ; infill
G1 X135.684 Y60.44 E.02266 ; infill
G1 X136.617 Y61.374 E.05901 ; infill
G1 X136.716 Y61.398 E.00455 ; infill
G1 X137.171 Y61.637 E.02297 ; infill
G1 X137.491 Y61.914 E.01892 ; infill
G1 X137.613 Y62.05 E.00817 ; infill
G1 X137.801 Y62.324 E.01485 ; infill
G1 X137.886 Y62.486 E.00818 ; infill
G1 X137.977 Y62.733 E.01177 ; infill
G1 X139.101 Y63.858 E.07109 ; infill
M204 S1000 ; adjust acceleration
;WIPE_START
G1 F8640
G1 X137.977 Y62.733 E-.3672 ; wipe and retract
G1 X137.886 Y62.486 E-.06078 ; wipe and retract
G1 X137.801 Y62.324 E-.04224 ; wipe and retract
G1 X137.613 Y62.05 E-.07673 ; wipe and retract
