; generated by PrusaSlicer 2.6.0 on 2023-07-04 at 20:38:50 UTC


;
;
; 

; external perimeters extrusion width = 0.60mm
; perimeters extrusion width = 0.50mm
; infill extrusion width = 0.50mm
; solid infill extrusion width = 0.50mm
; top infill extrusion width = 0.45mm
; support material extrusion width = 0.38mm
; first layer extrusion width = 0.42mm

; external perimeters extrusion width = 0.60mm
; perimeters extrusion width = 0.50mm
; infill extrusion width = 0.50mm
; solid infill extrusion width = 0.50mm
; top infill extrusion width = 0.45mm
; support material extrusion width = 0.38mm
; first layer extrusion width = 0.42mm

M73 P0 R9
M73 Q0 S9
M201 X1000 Y1000 Z200 E5000 ; sets maximum accelerations, mm/sec^2
M203 X200 Y200 Z12 E120 ; sets maximum feedrates, mm / sec
M204 S1250 T1250 ; sets acceleration (S) and retract acceleration (R), mm/sec^2
M205 X8.00 Y8.00 Z0.40 E4.50 ; sets the jerk limits, mm/sec
M205 S0 T0 ; sets the minimum extruding and travel feed rate, mm/sec
;TYPE:Custom
M862.3 P "MK3S" ; printer model check
M862.1 P0.4 ; nozzle diameter check
M115 U3.11.0 ; tell printer latest fw version
G90 ; use absolute coordinates
M83 ; extruder relative mode
M104 S240 ; set extruder temp
M140 S95 ; set bed temp
M190 S95 ; wait for bed temp
M109 S240 ; wait for extruder temp
G28 W ; home all without mesh bed level
G80 ; mesh bed leveling

G1 Z0.2 F720
G1 Y-3 F1000 ; go outside print area
G92 E0
G1 X60 E9 F1000 ; intro line
G1 X100 E12.5 F1000 ; intro line

G92 E0
M221 S95

; Don't change E values below. Excessive value can damage the printer.

M907 E538 ; set extruder motor current
G21 ; set units to millimeters
G90 ; use absolute coordinates
M83 ; use relative distances for extrusion
M900 K0.08 ; Filament gcode LA 1.5
M900 K45 ; Filament gcode LA 1.0
M107 ; disable fan
;LAYER_CHANGE
;Z:0.3
;HEIGHT:0.3
;BEFORE_LAYER_CHANGE
G92 E0.0
;0.3


G1 E-1.4 F2100 ; retract
M73 P1 R9
M73 Q1 S9
G1 Z.2 F720 ; lift Z
G1 Z.3 ; move to next layer (0)
;AFTER_LAYER_CHANGE
;0.3
G1 Z.5 ; lift Z
G1 X112.57 Y90.753 F10800 ; move to first skirt point
G1 Z.3 F720 ; restore layer Z
G1 E1.4 F2100 ;  ; unretract
M204 S800 ; adjust acceleration
;TYPE:Skirt/Brim
;WIDTH:0.42
G1 F1200
G1 X113.382 Y90.033 E.04814 ; skirt
G1 X114.81 Y89.207 E.07317 ; skirt
G1 X116.394 Y88.746 E.07317 ; skirt
G1 X116.958 Y88.677 E.0252 ; skirt
G1 X133.042 Y88.677 E.7134 ; skirt
G1 X133.606 Y88.746 E.0252 ; skirt
G1 X135.214 Y89.219 E.07434 ; skirt
G1 X136.618 Y90.033 E.07198 ; skirt
G1 X137.43 Y90.753 E.04814 ; skirt
G1 X137.807 Y91.178 E.0252 ; skirt
G1 X138.687 Y92.573 E.07316 ; skirt
G1 X139.208 Y94.139 E.0732 ; skirt
G1 X139.356 Y95.5 E.06072 ; skirt
G1 X139.356 Y114.5 E.84274 ; skirt
G1 X139.208 Y115.861 E.06072 ; skirt
G1 X139.072 Y116.412 E.02517 ; skirt
G1 X138.423 Y117.929 E.07319 ; skirt
G1 X137.43 Y119.247 E.07319 ; skirt
G1 X136.151 Y120.289 E.07317 ; skirt
G1 X134.659 Y120.995 E.07321 ; skirt
G1 X133.042 Y121.323 E.07318 ; skirt
G1 X116.958 Y121.323 E.7134 ; skirt
G1 X115.341 Y120.995 E.07318 ; skirt
G1 X113.849 Y120.289 E.07321 ; skirt
G1 X112.57 Y119.247 E.07317 ; skirt
G1 X111.577 Y117.929 E.07319 ; skirt
M73 Q2 S9
G1 X110.928 Y116.412 E.07319 ; skirt
G1 X110.662 Y114.784 E.07317 ; skirt
G1 X110.644 Y95.5 E.85534 ; skirt
M73 P2 R9
G1 X110.792 Y94.139 E.06072 ; skirt
G1 X110.928 Y93.588 E.02517 ; skirt
G1 X111.577 Y92.071 E.07319 ; skirt
G1 X112.534 Y90.801 E.07053 ; skirt
M204 S1000 ; adjust acceleration
; printing object neckHornSmallHollow2-Body.stl id:1 copy 0
;WIPE_START
G1 F8640
G1 X113.382 Y90.033 E-.26417 ; wipe and retract
G1 X114.81 Y89.207 E-.38092 ; wipe and retract
G1 X116.394 Y88.746 E-.38092 ; wipe and retract
G1 X116.958 Y88.677 E-.1312 ; wipe and retract
G1 X118.009 Y88.677 E-.24279 ; wipe and retract
;WIPE_END
G1 Z.5 F720 ; lift Z
G1 X128.88 Y94.608 F10800 ; move to first perimeter point
G1 Z.3 F720 ; restore layer Z
G1 E1.4 F2100 ;  ; unretract
M204 S800 ; adjust acceleration
;TYPE:Perimeter
;WIDTH:0.42
G1 F1200
G1 X129.198 Y93.767 E.03988 ; perimeter
G1 X129.709 Y93.027 E.03989 ; perimeter
G1 X130.382 Y92.431 E.03987 ; perimeter
G1 X131.178 Y92.014 E.03986 ; perimeter
G1 X132.051 Y91.798 E.03989 ; perimeter
G1 X132.949 Y91.798 E.03983 ; perimeter
G1 X133.822 Y92.014 E.03989 ; perimeter
G1 X134.618 Y92.431 E.03986 ; perimeter
G1 X135.291 Y93.027 E.03987 ; perimeter
G1 X135.802 Y93.767 E.03989 ; perimeter
G1 X136.078 Y94.497 E.03462 ; perimeter
G1 X136.157 Y94.906 E.01848 ; perimeter
G1 X136.234 Y95.606 E.03124 ; perimeter
G1 X136.234 Y114.454 E.836 ; perimeter
G1 X136.12 Y115.392 E.04191 ; perimeter
G1 X135.802 Y116.233 E.03988 ; perimeter
G1 X135.291 Y116.973 E.03989 ; perimeter
G1 X134.618 Y117.569 E.03987 ; perimeter
G1 X133.822 Y117.986 E.03986 ; perimeter
G1 X132.949 Y118.202 E.03989 ; perimeter
G1 X132.051 Y118.202 E.03983 ; perimeter
G1 X131.178 Y117.986 E.03989 ; perimeter
G1 X130.382 Y117.569 E.03986 ; perimeter
G1 X129.711 Y116.974 E.03978 ; perimeter
G1 X129.198 Y116.233 E.03997 ; perimeter
G1 X128.88 Y115.392 E.03988 ; perimeter
G1 X128.766 Y114.454 E.04191 ; perimeter
G1 X128.766 Y95.546 E.83866 ; perimeter
G1 X128.872 Y94.667 E.03927 ; perimeter
M204 S1000 ; adjust acceleration
G1 X128.532 Y94.522 F10800 ; move to first perimeter point
M204 S800 ; adjust acceleration
;TYPE:External perimeter
G1 F1200
G1 X128.881 Y93.601 E.04369 ; perimeter
G1 X129.441 Y92.79 E.04371 ; perimeter
G1 X130.178 Y92.136 E.0437 ; perimeter
G1 X131.051 Y91.679 E.04371 ; perimeter
G1 X132.007 Y91.443 E.04368 ; perimeter
G1 X132.993 Y91.443 E.04373 ; perimeter
G1 X133.949 Y91.679 E.04368 ; perimeter
G1 X134.822 Y92.136 E.04371 ; perimeter
G1 X135.559 Y92.79 E.0437 ; perimeter
G1 X136.119 Y93.601 E.04371 ; perimeter
G1 X136.468 Y94.522 E.04369 ; perimeter
G1 X136.59 Y95.606 E.04838 ; perimeter
G1 X136.59 Y114.475 E.83693 ; perimeter
G1 X136.468 Y115.478 E.04482 ; perimeter
M73 P3 R9
M73 Q3 S9
G1 X136.119 Y116.399 E.04369 ; perimeter
G1 X135.559 Y117.21 E.04371 ; perimeter
G1 X134.822 Y117.864 E.0437 ; perimeter
G1 X133.949 Y118.321 E.04371 ; perimeter
G1 X132.993 Y118.557 E.04368 ; perimeter
G1 X132.007 Y118.557 E.04373 ; perimeter
G1 X131.051 Y118.321 E.04368 ; perimeter
G1 X130.178 Y117.864 E.04371 ; perimeter
G1 X129.443 Y117.212 E.04358 ; perimeter
G1 X128.881 Y116.399 E.04384 ; perimeter
G1 X128.532 Y115.478 E.04369 ; perimeter
G1 X128.41 Y114.475 E.04482 ; perimeter
G1 X128.41 Y95.525 E.84052 ; perimeter
G1 X128.525 Y94.581 E.04218 ; perimeter
M204 S1000 ; adjust acceleration
G1 X128.916 Y94.411 F10800 ; move inwards before travel
;WIPE_START
G1 F8640
G1 X128.881 Y93.601 E-.24075 ; wipe and retract
G1 X129.441 Y92.79 E-.22757 ; wipe and retract
G1 X130.178 Y92.136 E-.22752 ; wipe and retract
G1 X131.051 Y91.679 E-.22753 ; wipe and retract
G1 X132.007 Y91.443 E-.22737 ; wipe and retract
G1 X132.993 Y91.443 E-.22767 ; wipe and retract
G1 X133.084 Y91.465 E-.02159 ; wipe and retract
;WIPE_END
G1 Z.5 F720 ; lift Z
G1 X130.794 Y95.922 F10800 ; move to first perimeter point
G1 Z.3 F720 ; restore layer Z
G1 E1.4 F2100 ;  ; unretract
M204 S800 ; adjust acceleration
;TYPE:Perimeter
G1 F1200
G1 X130.772 Y95.86 E.00292 ; perimeter
G1 X130.737 Y95.436 E.01887 ; perimeter
G1 X130.803 Y95.016 E.01886 ; perimeter
G1 X130.968 Y94.624 E.01886 ; perimeter
G1 X131.223 Y94.282 E.01892 ; perimeter
G1 X131.551 Y94.012 E.01884 ; perimeter
G1 X131.935 Y93.828 E.01889 ; perimeter
G1 X132.351 Y93.742 E.01884 ; perimeter
G1 X132.776 Y93.757 E.01886 ; perimeter
G1 X133.185 Y93.874 E.01887 ; perimeter
G1 X133.555 Y94.085 E.01889 ; perimeter
G1 X133.863 Y94.379 E.01889 ; perimeter
G1 X134.091 Y94.737 E.01883 ; perimeter
G1 X134.228 Y95.14 E.01888 ; perimeter
G1 X134.263 Y95.564 E.01887 ; perimeter
G1 X134.197 Y95.984 E.01886 ; perimeter
G1 X134.032 Y96.377 E.01891 ; perimeter
G1 X133.777 Y96.718 E.01889 ; perimeter
G1 X133.449 Y96.988 E.01884 ; perimeter
G1 X133.065 Y97.172 E.01889 ; perimeter
G1 X132.649 Y97.258 E.01884 ; perimeter
G1 X132.224 Y97.243 E.01886 ; perimeter
G1 X131.815 Y97.126 E.01887 ; perimeter
G1 X131.445 Y96.915 E.01889 ; perimeter
G1 X131.137 Y96.621 E.01889 ; perimeter
G1 X130.909 Y96.263 E.01883 ; perimeter
G1 X130.813 Y95.979 E.0133 ; perimeter
M204 S1000 ; adjust acceleration
G1 X131.125 Y95.817 F10800 ; move to first perimeter point
M204 S800 ; adjust acceleration
;TYPE:External perimeter
G1 F1200
G1 X131.09 Y95.479 E.01507 ; perimeter
G1 X131.136 Y95.142 E.01509 ; perimeter
G1 X131.261 Y94.826 E.01507 ; perimeter
G1 X131.459 Y94.549 E.0151 ; perimeter
G1 X131.716 Y94.327 E.01506 ; perimeter
G1 X132.02 Y94.174 E.0151 ; perimeter
G1 X132.351 Y94.097 E.01507 ; perimeter
G1 X132.691 Y94.102 E.01508 ; perimeter
G1 X133.02 Y94.189 E.01509 ; perimeter
G1 X133.319 Y94.351 E.01508 ; perimeter
G1 X133.57 Y94.581 E.0151 ; perimeter
G1 X133.759 Y94.864 E.01509 ; perimeter
G1 X133.875 Y95.183 E.01506 ; perimeter
G1 X133.91 Y95.521 E.01507 ; perimeter
G1 X133.864 Y95.858 E.01509 ; perimeter
G1 X133.739 Y96.175 E.01511 ; perimeter
G1 X133.541 Y96.451 E.01507 ; perimeter
G1 X133.283 Y96.673 E.0151 ; perimeter
G1 X132.98 Y96.826 E.01506 ; perimeter
G1 X132.649 Y96.903 E.01507 ; perimeter
G1 X132.309 Y96.898 E.01508 ; perimeter
G1 X131.98 Y96.811 E.01509 ; perimeter
G1 X131.681 Y96.649 E.01508 ; perimeter
G1 X131.43 Y96.419 E.0151 ; perimeter
G1 X131.241 Y96.136 E.01509 ; perimeter
G1 X131.146 Y95.873 E.0124 ; perimeter
M204 S1000 ; adjust acceleration
G1 X130.8 Y95.717 F10800 ; move inwards before travel
;WIPE_START
G1 F8640
G1 X131.09 Y95.479 E-.09189 ; wipe and retract
G1 X131.136 Y95.142 E-.07854 ; wipe and retract
G1 X131.261 Y94.826 E-.07847 ; wipe and retract
G1 X131.459 Y94.549 E-.07862 ; wipe and retract
G1 X131.716 Y94.327 E-.07842 ; wipe and retract
G1 X132.02 Y94.174 E-.07858 ; wipe and retract
G1 X132.351 Y94.097 E-.07847 ; wipe and retract
G1 X132.691 Y94.102 E-.07852 ; wipe and retract
G1 X133.02 Y94.189 E-.07858 ; wipe and retract
G1 X133.319 Y94.351 E-.07852 ; wipe and retract
G1 X133.57 Y94.581 E-.07861 ; wipe and retract
G1 X133.759 Y94.864 E-.07858 ; wipe and retract
G1 X133.875 Y95.183 E-.07838 ; wipe and retract
G1 X133.91 Y95.521 E-.07846 ; wipe and retract
G1 X133.864 Y95.858 E-.07854 ; wipe and retract
G1 X133.739 Y96.175 E-.07868 ; wipe and retract
G1 X133.541 Y96.451 E-.07843 ; wipe and retract
G1 X133.371 Y96.597 E-.05171 ; wipe and retract
;WIPE_END
G1 Z.5 F720 ; lift Z
G1 X133.122 Y112.856 F10800 ; move to first perimeter point
G1 Z.3 F720 ; restore layer Z
G1 E1.4 F2100 ;  ; unretract
M204 S800 ; adjust acceleration
;TYPE:Perimeter
G1 F1200
G1 X133.185 Y112.874 E.00291 ; perimeter
G1 X133.555 Y113.085 E.01889 ; perimeter
G1 X133.863 Y113.379 E.01889 ; perimeter
G1 X134.091 Y113.737 E.01883 ; perimeter
G1 X134.228 Y114.14 E.01888 ; perimeter
G1 X134.263 Y114.564 E.01887 ; perimeter
G1 X134.197 Y114.984 E.01886 ; perimeter
G1 X134.032 Y115.376 E.01886 ; perimeter
G1 X133.777 Y115.718 E.01892 ; perimeter
G1 X133.449 Y115.988 E.01884 ; perimeter
G1 X133.065 Y116.172 E.01889 ; perimeter
G1 X132.649 Y116.258 E.01884 ; perimeter
G1 X132.224 Y116.243 E.01886 ; perimeter
G1 X131.815 Y116.126 E.01887 ; perimeter
G1 X131.445 Y115.915 E.01889 ; perimeter
G1 X131.137 Y115.621 E.01889 ; perimeter
G1 X130.968 Y115.376 E.0132 ; perimeter
G1 X130.784 Y114.923 E.02169 ; perimeter
G1 X130.737 Y114.436 E.0217 ; perimeter
G1 X130.803 Y114.016 E.01886 ; perimeter
G1 X130.968 Y113.624 E.01886 ; perimeter
G1 X131.223 Y113.282 E.01892 ; perimeter
G1 X131.551 Y113.012 E.01884 ; perimeter
G1 X131.935 Y112.828 E.01889 ; perimeter
G1 X132.351 Y112.742 E.01884 ; perimeter
G1 X132.776 Y112.757 E.01886 ; perimeter
G1 X133.064 Y112.839 E.01328 ; perimeter
M204 S1000 ; adjust acceleration
G1 X133.02 Y113.189 F10800 ; move to first perimeter point
M204 S800 ; adjust acceleration
;TYPE:External perimeter
G1 F1200
G1 X133.319 Y113.351 E.01508 ; perimeter
G1 X133.57 Y113.581 E.0151 ; perimeter
G1 X133.759 Y113.864 E.01509 ; perimeter
G1 X133.875 Y114.183 E.01506 ; perimeter
G1 X133.91 Y114.521 E.01507 ; perimeter
G1 X133.864 Y114.858 E.01509 ; perimeter
G1 X133.739 Y115.174 E.01507 ; perimeter
G1 X133.541 Y115.451 E.0151 ; perimeter
G1 X133.284 Y115.673 E.01506 ; perimeter
G1 X132.98 Y115.826 E.0151 ; perimeter
G1 X132.649 Y115.903 E.01507 ; perimeter
G1 X132.309 Y115.898 E.01508 ; perimeter
G1 X131.98 Y115.811 E.01509 ; perimeter
G1 X131.681 Y115.649 E.01508 ; perimeter
G1 X131.43 Y115.419 E.0151 ; perimeter
G1 X131.261 Y115.174 E.0132 ; perimeter
G1 X131.125 Y114.817 E.01694 ; perimeter
G1 X131.09 Y114.479 E.01507 ; perimeter
G1 X131.136 Y114.142 E.01509 ; perimeter
G1 X131.261 Y113.826 E.01507 ; perimeter
G1 X131.459 Y113.549 E.0151 ; perimeter
G1 X131.716 Y113.327 E.01506 ; perimeter
G1 X132.02 Y113.174 E.0151 ; perimeter
G1 X132.351 Y113.097 E.01507 ; perimeter
G1 X132.691 Y113.102 E.01508 ; perimeter
G1 X132.962 Y113.174 E.01244 ; perimeter
M204 S1000 ; adjust acceleration
G1 X133.287 Y112.978 F10800 ; move inwards before travel
;WIPE_START
M73 Q4 S9
G1 F8640
G1 X133.319 Y113.351 E-.09201 ; wipe and retract
G1 X133.57 Y113.581 E-.07861 ; wipe and retract
G1 X133.759 Y113.864 E-.07858 ; wipe and retract
G1 X133.875 Y114.183 E-.07838 ; wipe and retract
G1 X133.91 Y114.521 E-.07846 ; wipe and retract
G1 X133.864 Y114.858 E-.07854 ; wipe and retract
G1 X133.739 Y115.174 E-.07847 ; wipe and retract
G1 X133.541 Y115.451 E-.07862 ; wipe and retract
G1 X133.284 Y115.673 E-.07842 ; wipe and retract
G1 X132.98 Y115.826 E-.07858 ; wipe and retract
G1 X132.649 Y115.903 E-.07847 ; wipe and retract
G1 X132.309 Y115.898 E-.07852 ; wipe and retract
G1 X131.98 Y115.811 E-.07858 ; wipe and retract
G1 X131.681 Y115.649 E-.07852 ; wipe and retract
G1 X131.43 Y115.419 E-.07861 ; wipe and retract
G1 X131.261 Y115.174 E-.06872 ; wipe and retract
G1 X131.125 Y114.817 E-.08821 ; wipe and retract
M73 P4 R9
G1 X131.102 Y114.594 E-.0517 ; wipe and retract
;WIPE_END
G1 Z.5 F720 ; lift Z
G1 X136.016 Y94.636 F10800 ; move to first infill point
G1 Z.3 F720 ; restore layer Z
G1 E1.4 F2100 ;  ; unretract
M204 S800 ; adjust acceleration
;TYPE:Solid infill
;WIDTH:0.421277
G1 F1200
G1 X133.618 Y92.238 E.15096 ; infill
G1 X132.948 Y92.073 E.03072 ; infill
G1 X135.903 Y95.027 E.18599 ; infill
G1 X135.968 Y95.597 E.02554 ; infill
G1 X132.436 Y92.065 E.22235 ; infill
G1 X132.083 Y92.065 E.01571 ; infill
G1 X131.961 Y92.095 E.00559 ; infill
G1 X136.128 Y96.262 E.26232 ; infill
M204 S1000 ; adjust acceleration
;WIPE_START
G1 F8640
G1 X131.961 Y92.095 E-1.36072 ; wipe and retract
G1 X132.083 Y92.065 E-.02901 ; wipe and retract
G1 X132.127 Y92.065 E-.01027 ; wipe and retract
;WIPE_END
G1 Z.5 F720 ; lift Z
G1 X134.262 Y94.901 F10800 ; move to first infill point
G1 Z.3 F720 ; restore layer Z
G1 E1.4 F2100 ;  ; unretract
M204 S800 ; adjust acceleration
G1 F1200
G1 X135.968 Y96.607 E.1074 ; infill
G1 X135.968 Y97.111 E.02244 ; infill
G1 X134.519 Y95.663 E.09119 ; infill
G1 X134.492 Y95.897 E.01049 ; infill
G1 X134.442 Y96.09 E.00887 ; infill
G1 X135.968 Y97.616 E.09607 ; infill
G1 X135.968 Y98.121 E.02248 ; infill
G1 X134.294 Y96.447 E.10538 ; infill
G1 X134.096 Y96.753 E.01622 ; infill
G1 X135.968 Y98.625 E.11785 ; infill
G1 X135.968 Y99.13 E.02248 ; infill
G1 X133.848 Y97.011 E.13343 ; infill
G1 X133.562 Y97.229 E.01601 ; infill
G1 X135.968 Y99.635 E.15146 ; infill
G1 X135.968 Y100.14 E.02248 ; infill
G1 X133.224 Y97.395 E.17277 ; infill
G1 X132.827 Y97.504 E.01833 ; infill
G1 X135.968 Y100.644 E.1977 ; infill
G1 X135.968 Y101.149 E.02248 ; infill
G1 X132.154 Y97.336 E.24007 ; infill
M204 S1000 ; adjust acceleration
;WIPE_START
G1 F8640
G1 X135.968 Y101.149 E-1.24528 ; wipe and retract
G1 X135.968 Y100.644 E-.11661 ; wipe and retract
G1 X135.851 Y100.527 E-.03811 ; wipe and retract
;WIPE_END
G1 Z.5 F720 ; lift Z
G1 X133.084 Y93.723 F10800 ; move to first infill point
G1 Z.3 F720 ; restore layer Z
G1 E1.4 F2100 ;  ; unretract
M204 S800 ; adjust acceleration
G1 F1200
G1 X131.556 Y92.195 E.09619 ; infill
G1 X131.273 Y92.265 E.01298 ; infill
G1 X131.173 Y92.317 E.00502 ; infill
