; generated by PrusaSlicer 2.6.0 on 2023-06-30 at 12:37:29 UTC


;
;
; 

; external perimeters extrusion width = 0.60mm
; perimeters extrusion width = 0.50mm
; infill extrusion width = 0.50mm
; solid infill extrusion width = 0.50mm
; top infill extrusion width = 0.45mm
; support material extrusion width = 0.38mm
; first layer extrusion width = 0.42mm

M73 P0 R45
M73 Q0 S45
M201 X1000 Y1000 Z200 E5000 ; sets maximum accelerations, mm/sec^2
M203 X200 Y200 Z12 E120 ; sets maximum feedrates, mm / sec
M204 S1250 T1250 ; sets acceleration (S) and retract acceleration (R), mm/sec^2
M205 X8.00 Y8.00 Z0.40 E4.50 ; sets the jerk limits, mm/sec
M205 S0 T0 ; sets the minimum extruding and travel feed rate, mm/sec
;TYPE:Custom
M862.3 P "MK3S" ; printer model check
M862.1 P0.4 ; nozzle diameter check
M115 U3.11.0 ; tell printer latest fw version
G90 ; use absolute coordinates
M83 ; extruder relative mode
M104 S240 ; set extruder temp
M140 S95 ; set bed temp
M190 S95 ; wait for bed temp
M109 S240 ; wait for extruder temp
G28 W ; home all without mesh bed level
G80 ; mesh bed leveling

G1 Z0.2 F720
G1 Y-3 F1000 ; go outside print area
G92 E0
G1 X60 E9 F1000 ; intro line
G1 X100 E12.5 F1000 ; intro line

G92 E0
M221 S95

; Don't change E values below. Excessive value can damage the printer.

M907 E538 ; set extruder motor current
G21 ; set units to millimeters
G90 ; use absolute coordinates
M83 ; use relative distances for extrusion
M900 K0.08 ; Filament gcode LA 1.5
M900 K45 ; Filament gcode LA 1.0
M107 ; disable fan
;LAYER_CHANGE
;Z:0.3
;HEIGHT:0.3
;BEFORE_LAYER_CHANGE
G92 E0.0
;0.3


G1 E-1.4 F2100 ; retract
G1 Z.2 F720 ; lift Z
G1 Z.3 ; move to next layer (0)
;AFTER_LAYER_CHANGE
;0.3
G1 Z.5 ; lift Z
G1 X95.037 Y82.405 F10800 ; move to first skirt point
G1 Z.3 F720 ; restore layer Z
G1 E1.4 F2100 ;  ; unretract
M204 S800 ; adjust acceleration
;TYPE:Skirt/Brim
;WIDTH:0.42
G1 F1200
G1 X108.652 Y66.703 E.92181 ; skirt
G1 X109.541 Y65.888 E.05349 ; skirt
G1 X110.009 Y65.565 E.02522 ; skirt
G1 X111.335 Y64.946 E.06491 ; skirt
G1 X112.771 Y64.663 E.06492 ; skirt
G1 X154.969 Y64.663 E1.87168 ; skirt
G1 X155.533 Y64.731 E.0252 ; skirt
M73 P0 R44
G1 X156.936 Y65.148 E.06492 ; skirt
G1 X157.731 Y65.565 E.03982 ; skirt
G1 X158.854 Y66.468 E.06392 ; skirt
G1 X159.757 Y67.647 E.06587 ; skirt
G1 X160.339 Y68.99 E.06492 ; skirt
G1 X160.467 Y69.481 E.02251 ; skirt
G1 X164.172 Y94.575 E1.12511 ; skirt
G1 X164.196 Y135.99 E1.83695 ; skirt
G1 X164.081 Y137.193 E.0536 ; skirt
G1 X163.81 Y138.407 E.05517 ; skirt
G1 X163.322 Y139.704 E.06147 ; skirt
G1 X162.566 Y141.063 E.06898 ; skirt
G1 X161.253 Y142.64 E.09102 ; skirt
G1 X159.636 Y143.904 E.09103 ; skirt
G1 X157.789 Y144.799 E.09103 ; skirt
G1 X155.795 Y145.284 E.09102 ; skirt
G1 X155.297 Y145.337 E.02221 ; skirt
G1 X112.442 Y145.337 E1.90083 ; skirt
G1 X110.426 Y144.956 E.091 ; skirt
G1 X108.57 Y144.174 E.08933 ; skirt
G1 X108.104 Y143.904 E.02389 ; skirt
G1 X106.487 Y142.64 E.09103 ; skirt
G1 X87.71 Y120.936 E1.27294 ; skirt
G1 X86.678 Y119.182 E.09027 ; skirt
G1 X86.282 Y118.187 E.0475 ; skirt
G1 X86.017 Y117.207 E.04503 ; skirt
G1 X85.854 Y116.184 E.04595 ; skirt
G1 X85.828 Y115.039 E.0508 ; skirt
G1 X89.533 Y89.94 E1.12533 ; skirt
G1 X89.979 Y88.609 E.06226 ; skirt
G1 X90.243 Y88.106 E.0252 ; skirt
G1 X90.912 Y87.162 E.05132 ; skirt
G1 X94.998 Y82.45 E.27663 ; skirt
M204 S1000 ; adjust acceleration
; printing object servoHorn-Body.stl id:0 copy 2
;WIPE_START
G1 F8640
G1 X98.97 Y77.869 E-1.4 ; wipe and retract
;WIPE_END
G1 Z.5 F720 ; lift Z
G1 X157.207 Y72.079 F10800 ; move to first perimeter point
G1 Z.3 F720 ; restore layer Z
G1 E1.4 F2100 ;  ; unretract
M204 S800 ; adjust acceleration
;TYPE:Perimeter
;WIDTH:0.42
G1 F1200
G1 X157.198 Y72.165 E.00384 ; perimeter
G1 X160.831 Y96.455 E1.08936 ; perimeter
G1 X160.56 Y97.267 E.03797 ; perimeter
G1 X159.878 Y98.493 E.06223 ; perimeter
G1 X158.96 Y99.538 E.0617 ; perimeter
G1 X157.843 Y100.367 E.0617 ; perimeter
G1 X156.576 Y100.941 E.0617 ; perimeter
G1 X155.216 Y101.234 E.06171 ; perimeter
G1 X153.825 Y101.234 E.0617 ; perimeter
G1 X152.465 Y100.941 E.06171 ; perimeter
G1 X151.197 Y100.367 E.06174 ; perimeter
G1 X150.08 Y99.538 E.0617 ; perimeter
G1 X149.162 Y98.493 E.0617 ; perimeter
G1 X148.616 Y97.51 E.04988 ; perimeter
G1 X148.395 Y97.04 E.02304 ; perimeter
G1 X148.212 Y96.483 E.026 ; perimeter
G1 X151.838 Y72.161 E1.09072 ; perimeter
G1 X151.82 Y71.923 E.01059 ; perimeter
G1 X151.62 Y71.285 E.02966 ; perimeter
G1 X151.566 Y70.767 E.0231 ; perimeter
G1 X151.653 Y70.008 E.03389 ; perimeter
G1 X151.905 Y69.344 E.0315 ; perimeter
G1 X152.309 Y68.758 E.03157 ; perimeter
G1 X152.842 Y68.285 E.03161 ; perimeter
G1 X153.473 Y67.955 E.03158 ; perimeter
G1 X154.164 Y67.784 E.03157 ; perimeter
G1 X154.876 Y67.784 E.03158 ; perimeter
G1 X155.568 Y67.955 E.03162 ; perimeter
G1 X156.198 Y68.285 E.03154 ; perimeter
G1 X156.731 Y68.758 E.03161 ; perimeter
G1 X157.136 Y69.344 E.0316 ; perimeter
G1 X157.336 Y69.872 E.02504 ; perimeter
G1 X157.404 Y70.159 E.01308 ; perimeter
G1 X157.463 Y70.862 E.03129 ; perimeter
G1 X157.393 Y71.404 E.02424 ; perimeter
G1 X157.226 Y71.897 E.02309 ; perimeter
G1 X157.213 Y72.019 E.00544 ; perimeter
M204 S1000 ; adjust acceleration
G1 X157.549 Y72.112 F10800 ; move to first perimeter point
M204 S800 ; adjust acceleration
;TYPE:External perimeter
G1 F1200
G1 X161.196 Y96.487 E1.09318 ; perimeter
G1 X160.887 Y97.411 E.04321 ; perimeter
M73 Q1 S45
G1 X160.17 Y98.699 E.06538 ; perimeter
G1 X159.203 Y99.801 E.06503 ; perimeter
G1 X158.024 Y100.675 E.0651 ; perimeter
M73 P1 R44
G1 X156.688 Y101.28 E.06505 ; perimeter
G1 X155.254 Y101.59 E.06507 ; perimeter
G1 X153.787 Y101.59 E.06507 ; perimeter
G1 X152.353 Y101.28 E.06507 ; perimeter
G1 X151.016 Y100.675 E.06509 ; perimeter
G1 X149.838 Y99.801 E.06506 ; perimeter
G1 X148.87 Y98.699 E.06506 ; perimeter
G1 X148.305 Y97.683 E.05156 ; perimeter
G1 X148.061 Y97.163 E.02548 ; perimeter
G1 X147.85 Y96.502 E.03078 ; perimeter
G1 X151.411 Y72.615 E1.07121 ; perimeter
G1 X151.48 Y72.029 E.02617 ; perimeter
G1 X151.27 Y71.358 E.03119 ; perimeter
G1 X151.208 Y70.765 E.02645 ; perimeter
G1 X151.305 Y69.923 E.03759 ; perimeter
G1 X151.588 Y69.177 E.03539 ; perimeter
G1 X152.041 Y68.52 E.0354 ; perimeter
G1 X152.639 Y67.991 E.03541 ; perimeter
G1 X153.346 Y67.62 E.03541 ; perimeter
G1 X154.121 Y67.429 E.0354 ; perimeter
G1 X154.919 Y67.429 E.0354 ; perimeter
G1 X155.695 Y67.62 E.03545 ; perimeter
G1 X156.402 Y67.991 E.03541 ; perimeter
G1 X156.999 Y68.52 E.03538 ; perimeter
G1 X157.453 Y69.177 E.03542 ; perimeter
G1 X157.668 Y69.746 E.02698 ; perimeter
G1 X157.757 Y70.121 E.0171 ; perimeter
G1 X157.816 Y70.904 E.03483 ; perimeter
G1 X157.708 Y71.589 E.03076 ; perimeter
G1 X157.567 Y72.055 E.02159 ; perimeter
M204 S1000 ; adjust acceleration
G1 X157.208 Y72.321 F10800 ; move inwards before travel
;WIPE_START
G1 F8640
G1 X158.458 Y78.052 E-1.4 ; wipe and retract
;WIPE_END
G1 Z.5 F720 ; lift Z
G1 X155.84 Y92.89 F10800 ; move to first perimeter point
G1 Z.3 F720 ; restore layer Z
G1 E1.4 F2100 ;  ; unretract
M204 S800 ; adjust acceleration
;TYPE:Perimeter
G1 F1200
G1 X156.172 Y93.167 E.01918 ; perimeter
G1 X156.494 Y93.608 E.02422 ; perimeter
G1 X156.702 Y94.112 E.02418 ; perimeter
G1 X156.784 Y94.652 E.02423 ; perimeter
G1 X156.733 Y95.196 E.02423 ; perimeter
G1 X156.554 Y95.711 E.02418 ; perimeter
G1 X156.257 Y96.169 E.02421 ; perimeter
G1 X155.859 Y96.543 E.02422 ; perimeter
G1 X155.383 Y96.81 E.02421 ; perimeter
G1 X154.842 Y96.959 E.02489 ; perimeter
G1 X154.311 Y96.971 E.02356 ; perimeter
G1 X153.778 Y96.856 E.02419 ; perimeter
G1 X153.287 Y96.616 E.02424 ; perimeter
G1 X152.869 Y96.265 E.02421 ; perimeter
G1 X152.546 Y95.825 E.02421 ; perimeter
G1 X152.338 Y95.32 E.02422 ; perimeter
G1 X152.257 Y94.781 E.02418 ; perimeter
G1 X152.307 Y94.237 E.02423 ; perimeter
G1 X152.486 Y93.721 E.02423 ; perimeter
G1 X152.783 Y93.264 E.02417 ; perimeter
G1 X153.181 Y92.89 E.02422 ; perimeter
G1 X153.657 Y92.623 E.02421 ; perimeter
G1 X154.183 Y92.477 E.02421 ; perimeter
G1 X154.729 Y92.462 E.02423 ; perimeter
G1 X155.263 Y92.577 E.02423 ; perimeter
G1 X155.794 Y92.851 E.0265 ; perimeter
M204 S1000 ; adjust acceleration
G1 X155.623 Y93.156 F10800 ; move to first perimeter point
M204 S800 ; adjust acceleration
;TYPE:External perimeter
G1 F1200
G1 X155.964 Y93.466 E.02044 ; perimeter
G1 X156.222 Y93.848 E.02045 ; perimeter
G1 X156.38 Y94.28 E.0204 ; perimeter
G1 X156.431 Y94.738 E.02044 ; perimeter
G1 X156.37 Y95.194 E.02041 ; perimeter
G1 X156.202 Y95.623 E.02044 ; perimeter
G1 X155.936 Y95.999 E.02043 ; perimeter
G1 X155.588 Y96.301 E.02044 ; perimeter
G1 X155.178 Y96.51 E.02041 ; perimeter
G1 X154.767 Y96.611 E.01877 ; perimeter
G1 X154.269 Y96.61 E.02209 ; perimeter
G1 X153.823 Y96.495 E.02043 ; perimeter
G1 X153.417 Y96.276 E.02046 ; perimeter
G1 X153.076 Y95.967 E.02041 ; perimeter
G1 X152.819 Y95.585 E.02042 ; perimeter
G1 X152.66 Y95.153 E.02042 ; perimeter
G1 X152.61 Y94.695 E.02044 ; perimeter
G1 X152.67 Y94.238 E.02044 ; perimeter
G1 X152.839 Y93.81 E.02041 ; perimeter
G1 X153.104 Y93.433 E.02044 ; perimeter
G1 X153.453 Y93.132 E.02044 ; perimeter
G1 X153.863 Y92.923 E.02041 ; perimeter
G1 X154.311 Y92.817 E.02042 ; perimeter
G1 X154.772 Y92.822 E.02045 ; perimeter
G1 X155.218 Y92.938 E.02044 ; perimeter
G1 X155.57 Y93.128 E.01774 ; perimeter
M204 S1000 ; adjust acceleration
G1 X155.986 Y92.989 F10800 ; move inwards before travel
;WIPE_START
G1 F8640
G1 X155.964 Y93.466 E-.11987 ; wipe and retract
G1 X156.222 Y93.848 E-.10644 ; wipe and retract
G1 X156.38 Y94.28 E-.10621 ; wipe and retract
G1 X156.431 Y94.738 E-.10641 ; wipe and retract
G1 X156.37 Y95.194 E-.10623 ; wipe and retract
G1 X156.202 Y95.623 E-.10638 ; wipe and retract
G1 X155.936 Y95.999 E-.10635 ; wipe and retract
G1 X155.588 Y96.301 E-.10639 ; wipe and retract
G1 X155.178 Y96.51 E-.10626 ; wipe and retract
G1 X154.767 Y96.611 E-.09772 ; wipe and retract
G1 X154.269 Y96.61 E-.11499 ; wipe and retract
G1 X153.823 Y96.495 E-.10635 ; wipe and retract
G1 X153.417 Y96.276 E-.10652 ; wipe and retract
G1 X153.405 Y96.265 E-.00388 ; wipe and retract
;WIPE_END
G1 Z.5 F720 ; lift Z
G1 X152.802 Y72.175 F10800 ; move to first perimeter point
G1 Z.3 F720 ; restore layer Z
G1 E1.4 F2100 ;  ; unretract
M204 S800 ; adjust acceleration
;TYPE:Perimeter
G1 F1200
G1 X152.546 Y71.825 E.01923 ; perimeter
G1 X152.35 Y71.352 E.02271 ; perimeter
G1 X152.258 Y70.79 E.02526 ; perimeter
G1 X152.307 Y70.237 E.02462 ; perimeter
G1 X152.486 Y69.721 E.02423 ; perimeter
G1 X152.783 Y69.264 E.02417 ; perimeter
G1 X153.181 Y68.89 E.02422 ; perimeter
G1 X153.657 Y68.623 E.02421 ; perimeter
G1 X154.183 Y68.477 E.02421 ; perimeter
G1 X154.729 Y68.462 E.02423 ; perimeter
G1 X155.263 Y68.577 E.02423 ; perimeter
G1 X155.753 Y68.817 E.0242 ; perimeter
G1 X156.172 Y69.167 E.02422 ; perimeter
G1 X156.494 Y69.608 E.02422 ; perimeter
G1 X156.702 Y70.112 E.02418 ; perimeter
G1 X156.784 Y70.652 E.02423 ; perimeter
G1 X156.733 Y71.196 E.02423 ; perimeter
G1 X156.554 Y71.711 E.02418 ; perimeter
G1 X156.257 Y72.169 E.02421 ; perimeter
G1 X155.859 Y72.543 E.02422 ; perimeter
G1 X155.383 Y72.81 E.02421 ; perimeter
G1 X154.857 Y72.956 E.02421 ; perimeter
G1 X154.311 Y72.971 E.02423 ; perimeter
G1 X153.778 Y72.856 E.02419 ; perimeter
G1 X153.287 Y72.616 E.02424 ; perimeter
G1 X152.837 Y72.223 E.0265 ; perimeter
M204 S1000 ; adjust acceleration
G1 X153.076 Y71.967 F10800 ; move to first perimeter point
M204 S800 ; adjust acceleration
;TYPE:External perimeter
G1 F1200
G1 X152.812 Y71.568 E.02122 ; perimeter
G1 X152.663 Y71.117 E.02107 ; perimeter
G1 X152.61 Y70.695 E.01886 ; perimeter
G1 X152.67 Y70.238 E.02044 ; perimeter
G1 X152.839 Y69.81 E.02041 ; perimeter
G1 X153.104 Y69.433 E.02044 ; perimeter
G1 X153.453 Y69.132 E.02044 ; perimeter
G1 X153.863 Y68.923 E.02041 ; perimeter
G1 X154.311 Y68.817 E.02042 ; perimeter
G1 X154.772 Y68.822 E.02045 ; perimeter
G1 X155.218 Y68.938 E.02044 ; perimeter
G1 X155.623 Y69.156 E.0204 ; perimeter
G1 X155.964 Y69.466 E.02044 ; perimeter
G1 X156.222 Y69.848 E.02045 ; perimeter
G1 X156.38 Y70.28 E.0204 ; perimeter
G1 X156.431 Y70.738 E.02044 ; perimeter
G1 X156.37 Y71.194 E.02041 ; perimeter
G1 X156.202 Y71.623 E.02044 ; perimeter
G1 X155.936 Y71.999 E.02043 ; perimeter
G1 X155.588 Y72.301 E.02044 ; perimeter
G1 X155.178 Y72.51 E.02041 ; perimeter
G1 X154.729 Y72.615 E.02045 ; perimeter
G1 X154.269 Y72.61 E.0204 ; perimeter
G1 X153.823 Y72.495 E.02043 ; perimeter
G1 X153.453 Y72.301 E.01853 ; perimeter
G1 X153.121 Y72.007 E.01967 ; perimeter
M204 S1000 ; adjust acceleration
G1 X152.683 Y72.041 F10800 ; move inwards before travel
;WIPE_START
G1 F8640
G1 X152.812 Y71.568 E-.12396 ; wipe and retract
G1 X152.663 Y71.117 E-.10967 ; wipe and retract
G1 X152.61 Y70.695 E-.09821 ; wipe and retract
G1 X152.67 Y70.238 E-.10643 ; wipe and retract
G1 X152.839 Y69.81 E-.10625 ; wipe and retract
G1 X153.104 Y69.433 E-.1064 ; wipe and retract
G1 X153.453 Y69.132 E-.10642 ; wipe and retract
G1 X153.863 Y68.923 E-.10626 ; wipe and retract
G1 X154.311 Y68.817 E-.1063 ; wipe and retract
G1 X154.772 Y68.822 E-.10645 ; wipe and retract
G1 X155.218 Y68.938 E-.10641 ; wipe and retract
G1 X155.623 Y69.156 E-.1062 ; wipe and retract
G1 X155.964 Y69.466 E-.10641 ; wipe and retract
G1 X155.975 Y69.483 E-.00463 ; wipe and retract
;WIPE_END
G1 Z.5 F720 ; lift Z
G1 X157.074 Y69.481 F10800 ; move to first infill point
G1 Z.3 F720 ; restore layer Z
G1 E1.4 F2100 ;  ; unretract
M204 S800 ; adjust acceleration
;TYPE:Solid infill
;WIDTH:0.424513
G1 F1200
G1 X156.513 Y68.921 E.0356 ; infill
G1 X156.045 Y68.507 E.02807 ; infill
G1 X155.473 Y68.206 E.02903 ; infill
G1 X155.231 Y68.148 E.01118 ; infill
G1 X155.441 Y68.358 E.01334 ; infill
G1 X155.96 Y68.63 E.02632 ; infill
G1 X156.352 Y68.971 E.02334 ; infill
G1 X156.473 Y69.108 E.00821 ; infill
G1 X156.717 Y69.46 E.01924 ; infill
G1 X156.858 Y69.775 E.0155 ; infill
G1 X157.303 Y70.22 E.02827 ; infill
M204 S1000 ; adjust acceleration
G1 X156.84 Y70.266 F10800 ; move to first infill point
M204 S800 ; adjust acceleration
G1 F1200
G1 X157.185 Y70.612 E.02195 ; infill
G1 X157.204 Y70.781 E.00764 ; infill
G1 X157.166 Y71.102 E.01452 ; infill
G1 X157.029 Y70.964 E.00873 ; infill
G1 X156.988 Y71.292 E.01485 ; infill
G1 X156.951 Y71.396 E.00496 ; infill
G1 X157.074 Y71.519 E.00781 ; infill
G1 X156.947 Y71.901 E.01808 ; infill
G1 X156.816 Y71.771 E.00829 ; infill
G1 X156.717 Y71.972 E.01006 ; infill
G1 X156.632 Y72.095 E.00672 ; infill
G1 X156.968 Y72.431 E.02134 ; infill
G1 X157.057 Y73.03 E.0272 ; infill
G1 X156.416 Y72.389 E.04072 ; infill
G1 X156.155 Y72.637 E.01617 ; infill
G1 X157.147 Y73.629 E.06301 ; infill
G1 X157.237 Y74.228 E.02721 ; infill
G1 X155.866 Y72.858 E.08706 ; infill
G1 X155.532 Y73.033 E.01694 ; infill
G1 X157.326 Y74.827 E.11396 ; infill
G1 X157.416 Y75.426 E.02721 ; infill
G1 X155.148 Y73.158 E.14407 ; infill
G1 X154.915 Y73.216 E.01079 ; infill
M73 Q1 S44
G1 X154.718 Y73.238 E.0089 ; infill
G1 X157.505 Y76.025 E.17704 ; infill
G1 X157.595 Y76.624 E.02721 ; infill
G1 X153.989 Y73.017 E.2291 ; infill
M204 S1000 ; adjust acceleration
;WIPE_START
G1 F8640
G1 X157.595 Y76.624 E-1.17769 ; wipe and retract
G1 X157.505 Y76.025 E-.13986 ; wipe and retract
G1 X157.253 Y75.773 E-.08245 ; wipe and retract
;WIPE_END
G1 Z.5 F720 ; lift Z
G1 X154.976 Y68.402 F10800 ; move to first infill point
G1 Z.3 F720 ; restore layer Z
G1 E1.4 F2100 ;  ; unretract
M204 S800 ; adjust acceleration
G1 F1200
G1 X154.624 Y68.051 E.02233 ; infill
G1 X154.196 Y68.051 E.01922 ; infill
G1 X154.131 Y68.067 E.00301 ; infill
G1 X154.264 Y68.2 E.00845 ; infill
G1 X153.842 Y68.287 E.01935 ; infill
G1 X153.723 Y68.168 E.00756 ; infill
G1 X153.568 Y68.206 E.00717 ; infill
G1 X153.36 Y68.315 E.01055 ; infill
G1 X153.468 Y68.422 E.00683 ; infill
G1 X153.137 Y68.6 E.01688 ; infill
G1 X153.026 Y68.49 E.00702 ; infill
G1 X152.995 Y68.507 E.00159 ; infill
G1 X152.75 Y68.723 E.01467 ; infill
G1 X152.856 Y68.829 E.00673 ; infill
